;generated by ffslicer 1.30.3 09/05/23 09:52:00
;right_extruder_material: PLA
;layer_height: 0.2
;perimeter_shells: 2
;top_solid_layers: 4
;bottom_solid_layers: 3
;fill_density: 15%
;fill_pattern: hexagon
;base_print_speed: 50
;travel_speed: 80
;right_extruder_temperature: 200
;left_extruder_temperature: 0
;platform_temperature: 60
;right_extruder_temperature_raft0: 0
;left_extruder_temperature_raft0: 0
;right_extruder_temperature_reset: 
;left_extruder_temperature_reset: 
;start gcode
M140 S60 T0
M104 S200 T0
M104 S0 T1
G90
G28
G1 Z50.000 F420
G161 X Y F3300
M190 S60 T0
M109 S200 T0
M109 S0 T1
G92 E.0000
;layer_count: 22
M108 T0
G1 X85.69 Y82.77 F4800
;preExtrude:0.20
;preExtruder0
M106 S255
G1 Z.200 F420
G1 X85.69 Y82.77 F4800
G1 X85.71 Y82.75 E.0036 F1200
G1 X86.78 Y81.84 E.1830
G1 X87.87 Y80.97 E.3611
G1 X89.00 Y80.14 E.5402
G1 X90.16 Y79.36 E.7187
G1 X91.35 Y78.62 E.8977
G1 X92.57 Y77.93 E1.0767
G1 X93.82 Y77.28 E1.2567
G1 X95.07 Y76.69 E1.4332
G1 X96.36 Y76.14 E1.6123
G1 X97.66 Y75.65 E1.7897
G1 X98.99 Y75.20 E1.9691
G1 X100.33 Y74.80 E2.1477
G1 X101.68 Y74.46 E2.3255
G1 X103.05 Y74.17 E2.5043
G1 X104.43 Y73.93 E2.6832
G1 X105.81 Y73.74 E2.8611
G1 X107.20 Y73.61 E3.0395
G1 X108.60 Y73.52 E3.2186
G1 X110.00 Y73.50 E3.3975
G1 X111.40 Y73.52 E3.5763
G1 X112.80 Y73.61 E3.7555
G1 X114.19 Y73.74 E3.9338
G1 X115.57 Y73.93 E4.1117
G1 X116.95 Y74.17 E4.2906
G1 X118.31 Y74.46 E4.4682
G1 X119.67 Y74.80 E4.6472
G1 X121.02 Y75.20 E4.8270
G1 X122.34 Y75.65 E5.0052
G1 X123.64 Y76.14 E5.1826
G1 X124.93 Y76.69 E5.3617
G1 X126.20 Y77.29 E5.5411
G1 X127.44 Y77.93 E5.7193
G1 X128.66 Y78.63 E5.8990
G1 X129.84 Y79.36 E6.0762
G1 X131.00 Y80.14 E6.2547
G1 X132.13 Y80.97 E6.4338
G1 X133.22 Y81.84 E6.6119
G1 X134.29 Y82.75 E6.7913
G1 X135.31 Y83.70 E6.9693
G1 X136.30 Y84.69 E7.1481
G1 X137.25 Y85.71 E7.3262
G1 X138.16 Y86.78 E7.5056
G1 X139.03 Y87.87 E7.6837
G1 X139.86 Y89.00 E7.8628
G1 X140.64 Y90.16 E8.0413
G1 X141.38 Y91.35 E8.2203
G1 X142.07 Y92.56 E8.3982
G1 X142.71 Y93.80 E8.5764
G1 X143.31 Y95.07 E8.7558
G1 X143.86 Y96.36 E8.9349
G1 X144.35 Y97.66 E9.1123
G1 X144.80 Y98.99 E9.2917
G1 X145.20 Y100.33 E9.4703
G1 X145.54 Y101.68 E9.6481
G1 X145.83 Y103.05 E9.8269
G1 X146.07 Y104.43 E10.0058
G1 X146.26 Y105.82 E10.1850
G1 X146.39 Y107.21 E10.3633
G1 X146.48 Y108.60 E10.5412
G1 X146.50 Y110.00 E10.7200
G1 X146.48 Y111.40 E10.8989
G1 X146.39 Y112.79 E11.0768
G1 X146.26 Y114.18 E11.2551
G1 X146.07 Y115.57 E11.4342
G1 X145.83 Y116.95 E11.6131
G1 X145.54 Y118.31 E11.7907
G1 X145.20 Y119.67 E11.9698
G1 X144.80 Y121.02 E12.1496
G1 X144.35 Y122.34 E12.3277
G1 X143.85 Y123.65 E12.5068
G1 X143.30 Y124.95 E12.6871
G1 X142.71 Y126.20 E12.8636
G1 X142.07 Y127.44 E13.0419
G1 X141.37 Y128.66 E13.2215
G1 X140.64 Y129.84 E13.3987
G1 X139.86 Y131.00 E13.5773
G1 X139.03 Y132.13 E13.7563
G1 X138.16 Y133.22 E13.9344
G1 X137.25 Y134.29 E14.1138
G1 X136.30 Y135.31 E14.2919
G1 X135.31 Y136.30 E14.4707
G1 X134.29 Y137.25 E14.6487
G1 X133.22 Y138.16 E14.8281
G1 X132.13 Y139.03 E15.0062
G1 X131.00 Y139.86 E15.1853
G1 X129.84 Y140.64 E15.3638
G1 X128.66 Y141.37 E15.5410
G1 X127.44 Y142.07 E15.7207
G1 X126.20 Y142.71 E15.8989
G1 X124.93 Y143.31 E16.0783
G1 X123.64 Y143.86 E16.2574
G1 X122.34 Y144.35 E16.4348
G1 X121.02 Y144.80 E16.6130
G1 X119.67 Y145.20 E16.7928
G1 X118.31 Y145.54 E16.9718
G1 X116.95 Y145.83 E17.1494
G1 X115.57 Y146.07 E17.3283
G1 X114.18 Y146.26 E17.5075
G1 X112.79 Y146.39 E17.6858
G1 X111.40 Y146.48 E17.8637
G1 X110.00 Y146.50 E18.0426
G1 X108.60 Y146.48 E18.2214
G1 X107.21 Y146.39 E18.3993
G1 X105.82 Y146.26 E18.5776
G1 X104.43 Y146.07 E18.7568
G1 X103.05 Y145.83 E18.9357
G1 X101.68 Y145.54 E19.1145
G1 X100.33 Y145.20 E19.2923
G1 X98.99 Y144.80 E19.4709
G1 X97.66 Y144.35 E19.6502
G1 X96.36 Y143.86 E19.8277
G1 X95.07 Y143.31 E20.0068
G1 X93.80 Y142.71 E20.1862
G1 X92.56 Y142.07 E20.3644
G1 X91.35 Y141.38 E20.5423
G1 X90.16 Y140.64 E20.7213
G1 X89.00 Y139.86 E20.8998
G1 X87.87 Y139.03 E21.0789
G1 X86.78 Y138.16 E21.2570
G1 X85.71 Y137.25 E21.4364
G1 X84.69 Y136.30 E21.6144
G1 X83.70 Y135.31 E21.7932
G1 X82.75 Y134.29 E21.9713
G1 X81.84 Y133.22 E22.1507
G1 X80.97 Y132.13 E22.3288
G1 X80.14 Y131.00 E22.5079
G1 X79.36 Y129.84 E22.6864
G1 X78.63 Y128.66 E22.8636
G1 X77.93 Y127.44 E23.0433
G1 X77.29 Y126.20 E23.2215
G1 X76.69 Y124.93 E23.4009
G1 X76.14 Y123.64 E23.5800
G1 X75.65 Y122.34 E23.7574
G1 X75.20 Y121.02 E23.9355
G1 X74.80 Y119.67 E24.1154
G1 X74.46 Y118.31 E24.2944
G1 X74.17 Y116.95 E24.4720
G1 X73.93 Y115.57 E24.6509
G1 X73.74 Y114.19 E24.8288
G1 X73.61 Y112.80 E25.0071
G1 X73.52 Y111.40 E25.1863
G1 X73.50 Y110.00 E25.3651
G1 X73.52 Y108.60 E25.5440
;raft
;layer:0.30
;shell
G1 E20.5440 F2700
G1 Z.300 F420
G1 X82.12 Y108.93 F4200
G1 E25.5440 F2700
G1 X82.12 Y108.93 F4200
G1 X82.18 Y107.87 E25.5948 F600
G1 X82.29 Y106.79 E25.6468
G1 X82.43 Y105.76 E25.6966
G1 X82.61 Y104.68 E25.7490
G1 X82.84 Y103.63 E25.8005
G1 X83.09 Y102.62 E25.8503
G1 X83.40 Y101.60 E25.9014
G1 X83.75 Y100.56 E25.9539
G1 X84.13 Y99.56 E26.0052
G1 X84.54 Y98.58 E26.0561
G1 X84.99 Y97.63 E26.1064
G1 X85.49 Y96.67 E26.1583
G1 X86.02 Y95.75 E26.2091
G1 X86.57 Y94.85 E26.2596
G1 X87.19 Y93.94 E26.3124
G1 X87.82 Y93.08 E26.3634
G1 X88.47 Y92.26 E26.4135
G1 X89.18 Y91.43 E26.4658
G1 X89.89 Y90.66 E26.5160
G1 X90.66 Y89.89 E26.5682
G1 X91.43 Y89.18 E26.6183
G1 X92.25 Y88.47 E26.6703
G1 X93.09 Y87.81 E26.7214
G1 X93.94 Y87.18 E26.7721
G1 X94.84 Y86.58 E26.8239
G1 X95.75 Y86.02 E26.8751
G1 X96.68 Y85.49 E26.9264
G1 X97.63 Y84.99 E26.9778
G1 X98.59 Y84.54 E27.0286
G1 X99.56 Y84.13 E27.0790
G1 X100.57 Y83.74 E27.1309
G1 X101.60 Y83.40 E27.1828
G1 X102.62 Y83.09 E27.2339
G1 X103.63 Y82.84 E27.2837
G1 X104.69 Y82.61 E27.3356
G1 X105.75 Y82.43 E27.3871
G1 X106.79 Y82.29 E27.4374
G1 X107.87 Y82.18 E27.4894
G1 X108.93 Y82.12 E27.5402
G1 X110.00 Y82.10 E27.5915
G1 X111.07 Y82.12 E27.6428
G1 X112.13 Y82.18 E27.6936
G1 X113.21 Y82.29 E27.7456
G1 X114.25 Y82.43 E27.7959
G1 X115.31 Y82.61 E27.8474
G1 X116.37 Y82.84 E27.8993
G1 X117.38 Y83.09 E27.9491
G1 X118.41 Y83.40 E28.0007
G1 X119.43 Y83.74 E28.0522
G1 X120.44 Y84.13 E28.1040
G1 X121.42 Y84.54 E28.1549
G1 X122.37 Y84.99 E28.2052
G1 X123.34 Y85.50 E28.2577
G1 X124.25 Y86.01 E28.3077
G1 X125.16 Y86.58 E28.3591
G1 X126.06 Y87.18 E28.4109
G1 X126.92 Y87.82 E28.4623
G1 X127.74 Y88.47 E28.5124
G1 X128.57 Y89.18 E28.5647
G1 X129.34 Y89.89 E28.6149
G1 X130.11 Y90.66 E28.6670
G1 X130.82 Y91.43 E28.7172
G1 X131.53 Y92.25 E28.7691
G1 X132.18 Y93.08 E28.8196
G1 X132.81 Y93.94 E28.8707
G1 X133.41 Y94.83 E28.9221
G1 X133.98 Y95.75 E28.9739
G1 X134.50 Y96.66 E29.0241
G1 X135.00 Y97.62 E29.0760
G1 X135.45 Y98.57 E29.1263
G1 X135.87 Y99.56 E29.1778
G1 X136.25 Y100.56 E29.2290
G1 X136.60 Y101.59 E29.2811
G1 X136.90 Y102.61 E29.3321
G1 X137.16 Y103.63 E29.3825
G1 X137.39 Y104.68 E29.4340
G1 X137.57 Y105.75 E29.4859
G1 X137.71 Y106.79 E29.5362
G1 X137.82 Y107.87 E29.5882
G1 X137.88 Y108.92 E29.6385
G1 X137.90 Y109.99 E29.6898
G1 X137.88 Y111.07 E29.7415
G1 X137.82 Y112.13 E29.7924
G1 X137.72 Y113.21 E29.8443
G1 X137.58 Y114.24 E29.8941
G1 X137.39 Y115.30 E29.9457
G1 X137.16 Y116.37 E29.9981
G1 X136.91 Y117.38 E30.0480
G1 X136.60 Y118.41 E30.0995
G1 X136.26 Y119.43 E30.1510
G1 X135.88 Y120.43 E30.2022
G1 X135.45 Y121.43 E30.2543
G1 X135.00 Y122.38 E30.3047
G1 X134.51 Y123.33 E30.3559
G1 X133.99 Y124.25 E30.4065
G1 X133.43 Y125.15 E30.4573
G1 X132.82 Y126.06 E30.5097
G1 X132.18 Y126.92 E30.5611
G1 X131.53 Y127.74 E30.6112
G1 X130.82 Y128.57 E30.6635
G1 X130.11 Y129.34 E30.7137
G1 X129.34 Y130.11 E30.7658
G1 X128.57 Y130.82 E30.8160
G1 X127.75 Y131.52 E30.8676
G1 X126.91 Y132.19 E30.9191
G1 X126.06 Y132.82 E30.9698
G1 X125.17 Y133.41 E31.0209
G1 X124.25 Y133.99 E31.0730
G1 X123.34 Y134.50 E31.1229
G1 X122.38 Y135.00 E31.1748
G1 X121.41 Y135.46 E31.2262
G1 X120.44 Y135.87 E31.2766
G1 X119.43 Y136.26 E31.3285
G1 X118.41 Y136.60 E31.3800
G1 X117.38 Y136.91 E31.4315
G1 X116.37 Y137.16 E31.4813
G1 X115.31 Y137.39 E31.5333
G1 X114.25 Y137.57 E31.5848
G1 X113.21 Y137.71 E31.6350
G1 X112.13 Y137.82 E31.6870
G1 X111.07 Y137.88 E31.7379
G1 X110.00 Y137.90 E31.7891
G1 X108.93 Y137.88 E31.8404
G1 X107.87 Y137.82 E31.8913
G1 X106.79 Y137.71 E31.9433
G1 X105.75 Y137.57 E31.9935
G1 X104.69 Y137.39 E32.0450
G1 X103.63 Y137.16 E32.0970
G1 X102.62 Y136.91 E32.1468
G1 X101.59 Y136.60 E32.1983
G1 X100.56 Y136.25 E32.2504
G1 X99.56 Y135.87 E32.3016
G1 X98.59 Y135.46 E32.3521
G1 X97.62 Y135.00 E32.4035
G1 X96.66 Y134.50 E32.4553
G1 X95.75 Y133.98 E32.5055
G1 X94.84 Y133.42 E32.5567
G1 X93.94 Y132.82 E32.6085
G1 X93.09 Y132.19 E32.6592
G1 X92.25 Y131.52 E32.7107
G1 X91.43 Y130.82 E32.7623
G1 X90.66 Y130.11 E32.8125
G1 X89.89 Y129.34 E32.8646
G1 X89.18 Y128.57 E32.9148
G1 X88.47 Y127.74 E32.9671
G1 X87.82 Y126.92 E33.0172
G1 X87.18 Y126.06 E33.0685
G1 X86.57 Y125.15 E33.1210
G1 X86.01 Y124.25 E33.1718
G1 X85.49 Y123.33 E33.2224
G1 X84.99 Y122.37 E33.2742
G1 X84.54 Y121.41 E33.3250
G1 X84.12 Y120.43 E33.3761
G1 X83.74 Y119.43 E33.4273
G1 X83.40 Y118.41 E33.4788
G1 X83.09 Y117.38 E33.5303
G1 X82.84 Y116.37 E33.5802
G1 X82.61 Y115.31 E33.6321
G1 X82.43 Y114.24 E33.6841
G1 X82.29 Y113.21 E33.7339
G1 X82.18 Y112.13 E33.7859
G1 X82.12 Y111.07 E33.8367
G1 X82.10 Y110.01 E33.8875
G1 X82.12 Y108.93 E33.9392
G1 X81.72 Y108.92 F4200
G1 X81.78 Y107.83 E33.9915 F600
G1 X81.89 Y106.76 E34.0430
G1 X82.03 Y105.68 E34.0952
G1 X82.22 Y104.62 E34.1468
G1 X82.45 Y103.55 E34.1992
G1 X82.71 Y102.51 E34.2505
G1 X83.02 Y101.47 E34.3025
G1 X83.37 Y100.43 E34.3551
G1 X83.75 Y99.42 E34.4067
G1 X84.17 Y98.43 E34.4582
G1 X84.64 Y97.45 E34.5103
G1 X85.14 Y96.48 E34.5626
G1 X85.68 Y95.54 E34.6145
G1 X86.24 Y94.62 E34.6661
G1 X86.86 Y93.72 E34.7184
G1 X87.49 Y92.85 E34.7699
G1 X88.16 Y92.00 E34.8217
G1 X88.87 Y91.17 E34.8740
G1 X89.61 Y90.37 E34.9262
G1 X90.37 Y89.61 E34.9777
G1 X91.17 Y88.87 E35.0299
G1 X91.99 Y88.17 E35.0815
G1 X92.85 Y87.49 E35.1340
G1 X93.72 Y86.86 E35.1855
G1 X94.62 Y86.24 E35.2378
G1 X95.54 Y85.68 E35.2894
G1 X96.48 Y85.14 E35.3413
G1 X97.46 Y84.63 E35.3942
G1 X98.43 Y84.17 E35.4456
G1 X99.42 Y83.75 E35.4972
G1 X100.43 Y83.37 E35.5488
G1 X101.47 Y83.02 E35.6014
G1 X102.51 Y82.71 E35.6534
G1 X103.55 Y82.45 E35.7047
G1 X104.62 Y82.22 E35.7571
G1 X105.68 Y82.03 E35.8087
G1 X106.75 Y81.89 E35.8604
G1 X107.83 Y81.78 E35.9124
G1 X108.92 Y81.72 E35.9647
G1 X110.00 Y81.70 E36.0164
G1 X111.08 Y81.72 E36.0681
G1 X112.17 Y81.78 E36.1204
G1 X113.25 Y81.89 E36.1724
G1 X114.32 Y82.03 E36.2241
G1 X115.38 Y82.22 E36.2757
G1 X116.45 Y82.45 E36.3281
G1 X117.50 Y82.71 E36.3799
G1 X118.54 Y83.02 E36.4319
G1 X119.56 Y83.36 E36.4834
G1 X120.58 Y83.75 E36.5357
G1 X121.57 Y84.17 E36.5872
G1 X122.55 Y84.64 E36.6392
G1 X123.52 Y85.14 E36.6915
G1 X124.46 Y85.67 E36.7432
G1 X125.38 Y86.24 E36.7950
G1 X126.28 Y86.86 E36.8474
G1 X127.15 Y87.49 E36.8988
G1 X128.00 Y88.16 E36.9507
G1 X128.83 Y88.87 E37.0030
G1 X129.63 Y89.61 E37.0552
G1 X130.39 Y90.37 E37.1066
G1 X131.13 Y91.17 E37.1588
G1 X131.83 Y91.99 E37.2105
G1 X132.51 Y92.85 E37.2630
G1 X133.15 Y93.72 E37.3147
G1 X133.76 Y94.62 E37.3668
G1 X134.32 Y95.54 E37.4184
G1 X134.86 Y96.48 E37.4703
G1 X135.36 Y97.45 E37.5226
G1 X135.82 Y98.42 E37.5740
G1 X136.25 Y99.42 E37.6261
G1 X136.63 Y100.43 E37.6778
G1 X136.98 Y101.46 E37.7299
G1 X137.29 Y102.50 E37.7819
G1 X137.55 Y103.55 E37.8337
G1 X137.78 Y104.62 E37.8861
G1 X137.97 Y105.68 E37.9377
G1 X138.11 Y106.75 E37.9894
G1 X138.22 Y107.83 E38.0413
G1 X138.28 Y108.91 E38.0931
G1 X138.30 Y110.00 E38.1454
G1 X138.28 Y111.08 E38.1971
G1 X138.22 Y112.17 E38.2494
G1 X138.11 Y113.24 E38.3009
G1 X137.97 Y114.32 E38.3531
G1 X137.78 Y115.38 E38.4046
G1 X137.55 Y116.45 E38.4571
G1 X137.29 Y117.50 E38.5089
G1 X136.98 Y118.54 E38.5608
G1 X136.63 Y119.56 E38.6125
G1 X136.25 Y120.58 E38.6646
G1 X135.82 Y121.59 E38.7172
G1 X135.36 Y122.55 E38.7682
G1 X134.86 Y123.52 E38.8204
G1 X134.33 Y124.46 E38.8721
G1 X133.76 Y125.38 E38.9240
G1 X133.15 Y126.28 E38.9760
G1 X132.51 Y127.15 E39.0278
G1 X131.84 Y128.00 E39.0796
G1 X131.13 Y128.83 E39.1319
G1 X130.39 Y129.63 E39.1841
G1 X129.63 Y130.39 E39.2356
G1 X128.83 Y131.13 E39.2878
G1 X128.01 Y131.83 E39.3394
G1 X127.15 Y132.51 E39.3919
G1 X126.28 Y133.15 E39.4437
G1 X125.39 Y133.75 E39.4951
G1 X124.46 Y134.33 E39.5476
G1 X123.52 Y134.86 E39.5992
G1 X122.55 Y135.36 E39.6515
G1 X121.57 Y135.83 E39.7036
G1 X120.58 Y136.25 E39.7551
G1 X119.56 Y136.63 E39.8072
G1 X118.54 Y136.98 E39.8589
G1 X117.49 Y137.29 E39.9113
G1 X116.45 Y137.55 E39.9626
G1 X115.38 Y137.78 E40.0150
G1 X114.32 Y137.97 E40.0666
G1 X113.25 Y138.11 E40.1183
G1 X112.17 Y138.22 E40.1703
G1 X111.08 Y138.28 E40.2226
G1 X110.00 Y138.30 E40.2743
G1 X108.92 Y138.28 E40.3261
G1 X107.83 Y138.22 E40.3783
G1 X106.75 Y138.11 E40.4303
G1 X105.68 Y137.97 E40.4820
G1 X104.62 Y137.78 E40.5336
G1 X103.55 Y137.55 E40.5860
G1 X102.51 Y137.29 E40.6374
G1 X101.47 Y136.98 E40.6893
G1 X100.43 Y136.63 E40.7419
G1 X99.42 Y136.25 E40.7936
G1 X98.43 Y135.83 E40.8451
G1 X97.45 Y135.36 E40.8971
G1 X96.48 Y134.86 E40.9494
G1 X95.54 Y134.32 E41.0013
G1 X94.62 Y133.76 E41.0529
G1 X93.72 Y133.15 E41.1050
G1 X92.85 Y132.51 E41.1567
G1 X91.99 Y131.83 E41.2092
G1 X91.17 Y131.13 E41.2609
G1 X90.37 Y130.39 E41.3130
G1 X89.61 Y129.63 E41.3645
G1 X88.87 Y128.83 E41.4167
G1 X88.16 Y128.00 E41.4690
G1 X87.49 Y127.15 E41.5209
G1 X86.86 Y126.28 E41.5723
G1 X86.24 Y125.38 E41.6247
G1 X85.67 Y124.46 E41.6765
G1 X85.14 Y123.52 E41.7282
G1 X84.64 Y122.55 E41.7804
G1 X84.17 Y121.57 E41.8325
G1 X83.75 Y120.58 E41.8840
G1 X83.36 Y119.56 E41.9363
G1 X83.02 Y118.54 E41.9878
G1 X82.71 Y117.50 E42.0398
G1 X82.45 Y116.45 E42.0916
G1 X82.22 Y115.38 E42.1440
G1 X82.03 Y114.32 E42.1956
G1 X81.89 Y113.24 E42.2477
G1 X81.78 Y112.17 E42.2993
G1 X81.72 Y111.08 E42.3515
G1 X81.70 Y110.00 E42.4033
G1 X81.72 Y108.92 E42.4550
G1 X83.00 Y110.09 F4200
G1 X83.05 Y110.48 E42.4738 F600
G1 X83.28 Y111.08 E42.5046
G1 X83.52 Y111.42 E42.5246
G1 X84.01 Y111.85 E42.5558
G1 X84.35 Y112.03 E42.5742
G1 X84.69 Y112.14 E42.5913
G1 X85.04 Y112.19 E42.6082
G1 X85.39 Y112.19 E42.6250
G1 X85.74 Y112.13 E42.6420
G1 X86.08 Y112.02 E42.6591
G1 X86.41 Y111.84 E42.6771
G1 X86.90 Y111.41 E42.7084
G1 X87.11 Y111.09 E42.7267
G1 X87.26 Y110.77 E42.7436
G1 X87.36 Y110.42 E42.7610
G1 X87.40 Y110.07 E42.7779
G1 X87.38 Y109.72 E42.7947
G1 X87.31 Y109.37 E42.8118
G1 X87.17 Y109.02 E42.8299
G1 X86.80 Y108.49 E42.8608
G1 X86.51 Y108.23 E42.8795
G1 X86.19 Y108.03 E42.8975
G1 X85.57 Y107.83 E42.9287
G1 X85.18 Y107.80 E42.9475
G1 X84.81 Y107.83 E42.9653
G1 X84.19 Y108.04 E42.9966
G1 X83.87 Y108.25 E43.0149
G1 X83.58 Y108.51 E43.0336
G1 X83.22 Y109.04 E43.0643
G1 X83.08 Y109.40 E43.0828
G1 X83.01 Y109.75 E43.0999
G1 X83.00 Y110.09 E43.1162
G1 X83.40 Y110.07 F4200
G1 X83.44 Y110.38 E43.1311 F600
G1 X83.64 Y110.89 E43.1574
G1 X83.82 Y111.15 E43.1725
G1 X84.23 Y111.52 E43.1990
G1 X84.51 Y111.66 E43.2140
G1 X84.78 Y111.75 E43.2276
G1 X85.07 Y111.79 E43.2416
G1 X85.36 Y111.79 E43.2555
G1 X85.64 Y111.74 E43.2691
G1 X85.92 Y111.65 E43.2832
G1 X86.18 Y111.51 E43.2974
G1 X86.59 Y111.14 E43.3238
G1 X86.76 Y110.89 E43.3383
G1 X86.89 Y110.63 E43.3522
G1 X86.97 Y110.35 E43.3662
G1 X87.00 Y110.06 E43.3801
G1 X86.99 Y109.77 E43.3940
G1 X86.92 Y109.48 E43.4083
G1 X86.82 Y109.21 E43.4221
G1 X86.50 Y108.76 E43.4485
G1 X86.27 Y108.55 E43.4635
G1 X86.02 Y108.40 E43.4774
G1 X85.50 Y108.22 E43.5038
G1 X85.19 Y108.20 E43.5187
G1 X84.89 Y108.23 E43.5331
G1 X84.37 Y108.40 E43.5593
G1 X84.11 Y108.57 E43.5742
G1 X83.89 Y108.77 E43.5884
G1 X83.58 Y109.22 E43.6146
G1 X83.47 Y109.51 E43.6294
G1 X83.41 Y109.80 E43.6436
G1 X83.40 Y110.07 E43.6566
G1 X83.22 Y109.77 F4200
G1 X83.29 Y109.46
G1 X83.41 Y109.14
G1 X83.74 Y108.64
G1 X83.99 Y108.42
G1 X84.29 Y108.23
G1 X84.85 Y108.04
G1 X85.19 Y108.01
G1 X85.53 Y108.04
G1 X96.91 Y109.44
G1 X96.91 Y109.44
G1 X96.90 Y110.27 E43.6963 F600
G1 X96.94 Y111.02 E43.7323
G1 X97.02 Y111.76 E43.7679
G1 X97.14 Y112.51 E43.8043
G1 X97.31 Y113.25 E43.8407
G1 X97.52 Y113.98 E43.8771
G1 X97.77 Y114.68 E43.9127
G1 X98.06 Y115.38 E43.9490
G1 X98.39 Y116.07 E43.9856
G1 X98.76 Y116.72 E44.0214
G1 X99.17 Y117.36 E44.0578
