;generated by ffslicer 1.30.3 09/08/23 15:44:06
;right_extruder_material: PLA
;layer_height: 0.2
;perimeter_shells: 2
;top_solid_layers: 4
;bottom_solid_layers: 3
;fill_density: 15%
;fill_pattern: hexagon
;base_print_speed: 50
;travel_speed: 80
;right_extruder_temperature: 200
;left_extruder_temperature: 0
;platform_temperature: 60
;right_extruder_temperature_raft0: 0
;left_extruder_temperature_raft0: 0
;right_extruder_temperature_reset: 
;left_extruder_temperature_reset: 
;start gcode
M140 S60 T0
M104 S200 T0
M104 S0 T1
G90
G28
G1 Z50.000 F420
G161 X Y F3300
M190 S60 T0
M109 S200 T0
M109 S0 T1
G92 E.0000
;layer_count: 442
M108 T0
G1 X135.50 Y75.32 F4800
;preExtrude:0.20
;preExtruder0
M106 S255
G1 Z.200 F420
G1 X135.50 Y75.32 F4800
G1 X144.50 Y75.32 E1.1495 F1200
G1 X144.50 Y136.32 E8.9403
G1 X75.50 Y136.32 E17.7529
G1 X75.50 Y75.32 E25.5438
;raft
;layer:0.31
;shell
G1 E20.5438 F2700
G1 Z.310 F420
G1 X84.10 Y83.92 F4200
G1 E25.5438 F2700
G1 X84.10 Y83.92 F4200
G1 X135.90 Y83.92 E28.1074 F600
G1 X135.90 Y127.72 E30.2751
G1 X84.10 Y127.72 E32.8388
G1 X84.10 Y83.92 E35.0065
G1 X83.70 Y83.52 F4200
G1 X136.30 Y83.52 E37.6097 F600
G1 X136.30 Y128.12 E39.8170
G1 X83.70 Y128.12 E42.4202
G1 X83.70 Y83.52 E44.6275
G1 X94.00 Y90.94 F4200
G1 X94.00 Y90.94
G1 X94.04 Y91.35 E44.6479 F600
G1 X94.14 Y91.74 E44.6679
G1 X94.31 Y92.08 E44.6867
G1 X94.54 Y92.41 E44.7066
G1 X94.82 Y92.68 E44.7258
G1 X95.14 Y92.90 E44.7450
G1 X95.50 Y93.06 E44.7645
G1 X95.88 Y93.16 E44.7840
G1 X96.28 Y93.19 E44.8038
G1 X96.66 Y93.15 E44.8227
G1 X97.04 Y93.05 E44.8422
G1 X97.40 Y92.88 E44.8619
G1 X97.71 Y92.65 E44.8810
G1 X97.99 Y92.37 E44.9006
G1 X98.21 Y92.04 E44.9202
G1 X98.37 Y91.69 E44.9393
G1 X98.47 Y91.31 E44.9587
G1 X98.50 Y90.91 E44.9786
G1 X98.46 Y90.53 E44.9975
G1 X98.36 Y90.15 E45.0169
G1 X98.19 Y89.80 E45.0362
G1 X97.96 Y89.48 E45.0557
G1 X97.68 Y89.20 E45.0753
G1 X97.35 Y88.98 E45.0949
G1 X97.00 Y88.82 E45.1140
G1 X96.62 Y88.72 E45.1334
G1 X96.22 Y88.69 E45.1533
G1 X95.84 Y88.73 E45.1722
G1 X95.45 Y88.84 E45.1922
G1 X95.11 Y89.00 E45.2108
G1 X94.79 Y89.23 E45.2303
G1 X94.51 Y89.51 E45.2499
G1 X94.29 Y89.84 E45.2696
G1 X94.13 Y90.20 E45.2890
G1 X94.03 Y90.57 E45.3080
G1 X94.00 Y90.94 E45.3264
G1 X94.40 Y90.94 F4200
G1 X94.43 Y91.28 E45.3433 F600
G1 X94.52 Y91.59 E45.3593
G1 X94.66 Y91.88 E45.3752
G1 X94.85 Y92.15 E45.3915
G1 X95.08 Y92.37 E45.4073
G1 X95.34 Y92.55 E45.4229
G1 X95.64 Y92.69 E45.4393
G1 X95.95 Y92.77 E45.4552
G1 X96.27 Y92.79 E45.4710
G1 X96.59 Y92.76 E45.4869
G1 X96.90 Y92.67 E45.5029
G1 X97.19 Y92.53 E45.5188
G1 X97.45 Y92.35 E45.5345
G1 X97.68 Y92.12 E45.5506
G1 X97.86 Y91.85 E45.5667
G1 X97.99 Y91.56 E45.5824
G1 X98.07 Y91.24 E45.5987
G1 X98.10 Y90.92 E45.6146
G1 X98.07 Y90.60 E45.6305
G1 X97.98 Y90.29 E45.6465
G1 X97.84 Y90.00 E45.6624
G1 X97.66 Y89.74 E45.6781
G1 X97.42 Y89.51 E45.6945
G1 X97.16 Y89.33 E45.7102
G1 X96.87 Y89.20 E45.7259
G1 X96.55 Y89.12 E45.7422
G1 X96.23 Y89.09 E45.7581
G1 X95.91 Y89.12 E45.7741
G1 X95.60 Y89.21 E45.7900
G1 X95.31 Y89.35 E45.8060
G1 X95.05 Y89.54 E45.8219
G1 X94.82 Y89.77 E45.8380
G1 X94.64 Y90.03 E45.8537
G1 X94.51 Y90.33 E45.8698
G1 X94.43 Y90.64 E45.8857
G1 X94.40 Y90.94 E45.9006
G1 X94.25 Y91.32 F4200
G1 X94.34 Y91.66
G1 X94.49 Y91.98
G1 X101.55 Y104.32
G1 X101.55 Y104.32
G1 X101.58 Y105.06 E45.9373 F600
G1 X101.68 Y105.79 E45.9737
G1 X101.84 Y106.53 E46.0112
G1 X102.06 Y107.22 E46.0470
G1 X102.35 Y107.90 E46.0836
G1 X102.69 Y108.56 E46.1204
G1 X103.09 Y109.18 E46.1569
G1 X103.53 Y109.76 E46.1929
G1 X104.04 Y110.31 E46.2300
G1 X104.58 Y110.80 E46.2661
G1 X105.17 Y111.25 E46.3028
G1 X105.79 Y111.64 E46.3391
G1 X106.44 Y111.98 E46.3754
G1 X107.13 Y112.26 E46.4122
G1 X107.83 Y112.48 E46.4486
G1 X108.55 Y112.64 E46.4851
G1 X109.28 Y112.73 E46.5215
G1 X110.02 Y112.77 E46.5581
G1 X110.76 Y112.73 E46.5948
G1 X111.48 Y112.63 E46.6308
G1 X112.21 Y112.47 E46.6678
G1 X112.90 Y112.25 E46.7036
G1 X113.59 Y111.97 E46.7405
G1 X114.24 Y111.62 E46.7770
G1 X114.86 Y111.23 E46.8133
G1 X115.44 Y110.78 E46.8496
G1 X115.99 Y110.28 E46.8864
G1 X116.49 Y109.73 E46.9232
G1 X116.93 Y109.15 E46.9592
G1 X117.33 Y108.52 E46.9961
G1 X117.67 Y107.86 E47.0329
G1 X117.94 Y107.19 E47.0686
G1 X118.17 Y106.48 E47.1056
G1 X118.32 Y105.76 E47.1420
G1 X118.42 Y105.03 E47.1784
G1 X118.45 Y104.30 E47.2146
G1 X118.42 Y103.57 E47.2507
G1 X118.32 Y102.84 E47.2872
G1 X118.16 Y102.11 E47.3242
G1 X117.94 Y101.41 E47.3605
G1 X117.65 Y100.73 E47.3971
G1 X117.31 Y100.07 E47.4338
G1 X116.91 Y99.45 E47.4703
G1 X116.47 Y98.87 E47.5064
G1 X115.96 Y98.32 E47.5435
G1 X115.42 Y97.83 E47.5796
G1 X114.83 Y97.38 E47.6163
G1 X114.21 Y96.99 E47.6526
G1 X113.56 Y96.65 E47.6889
G1 X112.87 Y96.37 E47.7257
G1 X112.17 Y96.15 E47.7620
G1 X111.45 Y95.99 E47.7985
G1 X110.72 Y95.90 E47.8349
G1 X109.98 Y95.86 E47.8716
G1 X109.24 Y95.90 E47.9083
G1 X108.52 Y96.00 E47.9443
G1 X107.79 Y96.16 E47.9812
G1 X107.10 Y96.38 E48.0171
G1 X106.41 Y96.66 E48.0539
G1 X105.76 Y97.01 E48.0905
G1 X105.14 Y97.40 E48.1267
G1 X104.56 Y97.85 E48.1631
G1 X104.01 Y98.36 E48.2002
G1 X103.52 Y98.89 E48.2359
G1 X103.07 Y99.48 E48.2726
G1 X102.67 Y100.11 E48.3096
G1 X102.34 Y100.76 E48.3456
G1 X102.05 Y101.44 E48.3822
G1 X101.83 Y102.15 E48.4190
G1 X101.68 Y102.87 E48.4554
G1 X101.58 Y103.60 E48.4919
G1 X101.55 Y104.32 E48.5275
G1 X101.95 Y104.32 F4200
G1 X101.98 Y105.03 E48.5627 F600
G1 X102.08 Y105.73 E48.5977
G1 X102.23 Y106.42 E48.6326
G1 X102.44 Y107.09 E48.6674
G1 X102.71 Y107.73 E48.7018
G1 X103.04 Y108.35 E48.7365
G1 X103.42 Y108.95 E48.7717
G1 X103.84 Y109.50 E48.8059
G1 X104.32 Y110.02 E48.8410
G1 X104.84 Y110.49 E48.8756
G1 X105.40 Y110.92 E48.9106
G1 X105.99 Y111.30 E48.9453
G1 X106.61 Y111.62 E48.9798
G1 X107.26 Y111.88 E49.0145
G1 X107.93 Y112.09 E49.0492
G1 X108.62 Y112.25 E49.0843
G1 X109.32 Y112.33 E49.1192
G1 X110.02 Y112.37 E49.1539
G1 X110.72 Y112.33 E49.1886
G1 X111.42 Y112.24 E49.2235
G1 X112.10 Y112.09 E49.2580
G1 X112.77 Y111.87 E49.2929
G1 X113.42 Y111.60 E49.3277
G1 X114.04 Y111.28 E49.3622
G1 X114.63 Y110.90 E49.3970
G1 X115.19 Y110.47 E49.4319
G1 X115.70 Y109.99 E49.4666
G1 X116.18 Y109.48 E49.5012
G1 X116.60 Y108.92 E49.5359
G1 X116.98 Y108.33 E49.5706
G1 X117.30 Y107.70 E49.6056
G1 X117.57 Y107.05 E49.6404
G1 X117.78 Y106.38 E49.6752
G1 X117.93 Y105.70 E49.7096
G1 X118.02 Y105.00 E49.7446
G1 X118.05 Y104.30 E49.7792
G1 X118.02 Y103.60 E49.8139
G1 X117.92 Y102.90 E49.8489
G1 X117.77 Y102.22 E49.8834
G1 X117.56 Y101.55 E49.9181
G1 X117.29 Y100.90 E49.9530
G1 X116.96 Y100.28 E49.9877
G1 X116.58 Y99.68 E50.0229
G1 X116.16 Y99.13 E50.0571
G1 X115.68 Y98.61 E50.0921
G1 X115.16 Y98.14 E50.1268
G1 X114.60 Y97.71 E50.1618
G1 X114.01 Y97.33 E50.1965
G1 X113.39 Y97.01 E50.2310
G1 X112.74 Y96.75 E50.2657
G1 X112.07 Y96.54 E50.3004
G1 X111.38 Y96.39 E50.3354
G1 X110.68 Y96.30 E50.3703
G1 X109.98 Y96.27 E50.4050
G1 X109.28 Y96.30 E50.4397
G1 X108.58 Y96.39 E50.4746
G1 X107.90 Y96.54 E50.5091
G1 X107.23 Y96.76 E50.5440
G1 X106.58 Y97.03 E50.5788
G1 X105.96 Y97.35 E50.6133
G1 X105.37 Y97.73 E50.6481
G1 X104.81 Y98.16 E50.6830
G1 X104.30 Y98.64 E50.7177
G1 X103.82 Y99.16 E50.7527
G1 X103.40 Y99.71 E50.7869
G1 X103.02 Y100.31 E50.8221
G1 X102.70 Y100.93 E50.8566
G1 X102.43 Y101.58 E50.8914
G1 X102.22 Y102.25 E50.9262
G1 X102.07 Y102.94 E50.9611
G1 X101.98 Y103.63 E50.9956
G1 X101.95 Y104.32 E51.0298
G1 X94.25 Y117.94 F4200
G1 X94.25 Y117.94
G1 X94.29 Y118.35 E51.0501 F600
G1 X94.39 Y118.73 E51.0696
G1 X94.56 Y119.09 E51.0893
G1 X94.79 Y119.40 E51.1084
G1 X95.07 Y119.68 E51.1280
G1 X95.40 Y119.90 E51.1476
G1 X95.75 Y120.06 E51.1667
G1 X96.13 Y120.16 E51.1861
G1 X96.53 Y120.19 E51.2060
G1 X96.91 Y120.15 E51.2249
G1 X97.30 Y120.05 E51.2448
G1 X97.64 Y119.88 E51.2636
G1 X97.96 Y119.65 E51.2831
G1 X98.24 Y119.37 E51.3027
G1 X98.46 Y119.04 E51.3223
G1 X98.62 Y118.69 E51.3414
G1 X98.72 Y118.31 E51.3608
G1 X98.75 Y117.91 E51.3807
G1 X98.71 Y117.53 E51.3996
G1 X98.61 Y117.15 E51.4190
G1 X98.44 Y116.79 E51.4387
G1 X98.21 Y116.48 E51.4579
G1 X97.93 Y116.20 E51.4774
G1 X97.61 Y115.98 E51.4967
G1 X97.25 Y115.82 E51.5162
G1 X96.87 Y115.72 E51.5356
G1 X96.47 Y115.69 E51.5555
G1 X96.09 Y115.73 E51.5744
G1 X95.71 Y115.83 E51.5938
G1 X95.35 Y116.00 E51.6135
G1 X95.04 Y116.23 E51.6326
G1 X94.76 Y116.51 E51.6522
G1 X94.54 Y116.84 E51.6719
G1 X94.38 Y117.19 E51.6909
G1 X94.28 Y117.57 E51.7103
G1 X94.25 Y117.94 E51.7287
G1 X94.65 Y117.94 F4200
G1 X94.68 Y118.28 E51.7456 F600
G1 X94.77 Y118.59 E51.7616
G1 X94.91 Y118.88 E51.7775
G1 X95.10 Y119.14 E51.7935
G1 X95.33 Y119.37 E51.8096
G1 X95.59 Y119.55 E51.8252
G1 X95.89 Y119.68 E51.8414
G1 X96.20 Y119.76 E51.8572
G1 X96.52 Y119.79 E51.8731
G1 X96.84 Y119.76 E51.8890
G1 X97.15 Y119.67 E51.9050
G1 X97.44 Y119.53 E51.9210
G1 X97.70 Y119.35 E51.9366
G1 X97.93 Y119.11 E51.9531
G1 X98.11 Y118.85 E51.9687
G1 X98.24 Y118.55 E51.9849
G1 X98.32 Y118.24 E52.0007
G1 X98.35 Y117.92 E52.0166
G1 X98.32 Y117.60 E52.0326
G1 X98.23 Y117.29 E52.0485
G1 X98.09 Y117.00 E52.0645
G1 X97.91 Y116.74 E52.0801
G1 X97.67 Y116.51 E52.0966
G1 X97.41 Y116.33 E52.1122
G1 X97.11 Y116.20 E52.1284
G1 X96.80 Y116.12 E52.1442
G1 X96.48 Y116.09 E52.1602
G1 X96.16 Y116.12 E52.1761
G1 X95.85 Y116.21 E52.1920
G1 X95.56 Y116.35 E52.2080
G1 X95.30 Y116.54 E52.2239
G1 X95.07 Y116.77 E52.2400
G1 X94.89 Y117.03 E52.2557
G1 X94.76 Y117.33 E52.2718
G1 X94.68 Y117.64 E52.2877
G1 X94.65 Y117.94 E52.3026
G1 X94.50 Y118.31 F4200
G1 X94.59 Y118.66
G1 X94.74 Y118.98
G1 X94.95 Y119.27
G1 X95.21 Y119.52
G1 X95.50 Y119.72
G1 X95.82 Y119.86
G1 X96.17 Y119.95
G1 X96.52 Y119.98
G1 X121.25 Y117.94
G1 X121.25 Y117.94
G1 X121.29 Y118.35 E52.3230 F600
G1 X121.39 Y118.73 E52.3424
G1 X121.56 Y119.09 E52.3621
G1 X121.79 Y119.40 E52.3812
G1 X122.07 Y119.68 E52.4008
G1 X122.40 Y119.90 E52.4205
G1 X122.75 Y120.06 E52.4395
G1 X123.13 Y120.16 E52.4590
G1 X123.53 Y120.19 E52.4788
G1 X123.91 Y120.15 E52.4977
G1 X124.30 Y120.05 E52.5177
G1 X124.64 Y119.88 E52.5365
G1 X124.96 Y119.65 E52.5560
G1 X125.24 Y119.37 E52.5756
G1 X125.46 Y119.04 E52.5952
G1 X125.62 Y118.69 E52.6142
G1 X125.72 Y118.31 E52.6337
G1 X125.75 Y117.91 E52.6535
G1 X125.71 Y117.53 E52.6725
G1 X125.61 Y117.15 E52.6919
G1 X125.44 Y116.79 E52.7116
G1 X125.21 Y116.48 E52.7307
G1 X124.93 Y116.20 E52.7503
G1 X124.61 Y115.98 E52.7695
G1 X124.25 Y115.82 E52.7890
G1 X123.87 Y115.72 E52.8085
G1 X123.47 Y115.69 E52.8283
G1 X123.09 Y115.73 E52.8472
G1 X122.71 Y115.83 E52.8667
G1 X122.35 Y116.00 E52.8864
G1 X122.04 Y116.23 E52.9055
G1 X121.76 Y116.51 E52.9251
G1 X121.54 Y116.84 E52.9447
G1 X121.38 Y117.19 E52.9638
G1 X121.28 Y117.57 E52.9832
G1 X121.25 Y117.94 E53.0016
G1 X121.65 Y117.94 F4200
G1 X121.68 Y118.28 E53.0185 F600
G1 X121.77 Y118.59 E53.0344
G1 X121.91 Y118.88 E53.0504
G1 X122.10 Y119.14 E53.0663
G1 X122.33 Y119.37 E53.0824
G1 X122.59 Y119.55 E53.0981
G1 X122.89 Y119.68 E53.1142
G1 X123.20 Y119.76 E53.1301
G1 X123.52 Y119.79 E53.1460
G1 X123.84 Y119.76 E53.1619
G1 X124.15 Y119.67 E53.1779
G1 X124.44 Y119.53 E53.1938
G1 X124.70 Y119.35 E53.2095
G1 X124.93 Y119.11 E53.2259
G1 X125.11 Y118.85 E53.2416
G1 X125.24 Y118.55 E53.2578
G1 X125.32 Y118.24 E53.2736
G1 X125.35 Y117.92 E53.2895
G1 X125.32 Y117.60 E53.3054
G1 X125.23 Y117.29 E53.3214
G1 X125.09 Y117.00 E53.3373
G1 X124.91 Y116.74 E53.3530
G1 X124.67 Y116.51 E53.3694
G1 X124.41 Y116.33 E53.3851
G1 X124.11 Y116.20 E53.4013
G1 X123.80 Y116.12 E53.4171
G1 X123.48 Y116.09 E53.4330
G1 X123.16 Y116.12 E53.4489
G1 X122.85 Y116.21 E53.4649
G1 X122.56 Y116.35 E53.4808
G1 X122.30 Y116.54 E53.4968
G1 X122.07 Y116.77 E53.5129
G1 X121.89 Y117.03 E53.5285
G1 X121.76 Y117.33 E53.5447
G1 X121.68 Y117.64 E53.5605
G1 X121.65 Y117.94 E53.5755
G1 X121.50 Y90.94 F4200
G1 X121.50 Y90.94
G1 X121.54 Y91.35 E53.5958 F600
G1 X121.64 Y91.74 E53.6158
G1 X121.81 Y92.09 E53.6350
G1 X122.04 Y92.41 E53.6545
G1 X122.32 Y92.68 E53.6738
G1 X122.65 Y92.90 E53.6934
G1 X123.00 Y93.06 E53.7125
G1 X123.38 Y93.16 E53.7319
G1 X123.78 Y93.19 E53.7518
G1 X124.16 Y93.15 E53.7707
G1 X124.54 Y93.05 E53.7901
G1 X124.89 Y92.88 E53.8094
G1 X125.21 Y92.65 E53.8289
G1 X125.49 Y92.37 E53.8485
G1 X125.71 Y92.04 E53.8681
G1 X125.87 Y91.69 E53.8871
G1 X125.97 Y91.31 E53.9066
G1 X126.00 Y90.91 E53.9264
G1 X125.96 Y90.53 E53.9454
G1 X125.85 Y90.15 E53.9649
G1 X125.69 Y89.80 E53.9840
G1 X125.46 Y89.47 E54.0039
G1 X125.17 Y89.20 E54.0235
G1 X124.86 Y88.98 E54.0423
G1 X124.50 Y88.82 E54.0618
G1 X124.12 Y88.72 E54.0812
G1 X123.72 Y88.69 E54.1011
G1 X123.34 Y88.73 E54.1200
G1 X122.95 Y88.84 E54.1401
G1 X122.61 Y89.00 E54.1587
G1 X122.29 Y89.23 E54.1782
G1 X122.01 Y89.51 E54.1978
G1 X121.79 Y89.84 E54.2174
G1 X121.63 Y90.19 E54.2364
G1 X121.53 Y90.58 E54.2564
G1 X121.50 Y90.94 E54.2742
G1 X121.90 Y90.94 F4200
G1 X121.93 Y91.28 E54.2911 F600
G1 X122.02 Y91.59 E54.3071
G1 X122.16 Y91.88 E54.3231
G1 X122.34 Y92.14 E54.3387
G1 X122.58 Y92.37 E54.3552
G1 X122.84 Y92.55 E54.3708
G1 X123.13 Y92.69 E54.3867
G1 X123.45 Y92.77 E54.4031
G1 X123.77 Y92.79 E54.4189
G1 X124.09 Y92.76 E54.4348
G1 X124.40 Y92.67 E54.4508
G1 X124.69 Y92.53 E54.4668
G1 X124.95 Y92.35 E54.4824
G1 X125.18 Y92.12 E54.4985
G1 X125.36 Y91.85 E54.5146
G1 X125.49 Y91.56 E54.5303
G1 X125.57 Y91.24 E54.5466
G1 X125.60 Y90.92 E54.5625
G1 X125.57 Y90.60 E54.5784
G1 X125.48 Y90.29 E54.5944
G1 X125.34 Y90.00 E54.6103
G1 X125.15 Y89.74 E54.6263
G1 X124.92 Y89.51 E54.6424
G1 X124.66 Y89.33 E54.6580
G1 X124.36 Y89.20 E54.6742
G1 X124.05 Y89.12 E54.6901
G1 X123.73 Y89.09 E54.7060
G1 X123.41 Y89.12 E54.7219
G1 X123.10 Y89.21 E54.7378
G1 X122.81 Y89.35 E54.7538
G1 X122.55 Y89.54 E54.7697
G1 X122.32 Y89.77 E54.7858
G1 X122.14 Y90.03 E54.8015
G1 X122.01 Y90.33 E54.8176
G1 X121.93 Y90.64 E54.8335
G1 X121.90 Y90.94 E54.8484
;infill
G1 X121.75 Y91.32 F4200
G1 X121.84 Y91.66
G1 X122.52 Y93.22
G1 X122.52 Y93.22
G1 X135.56 Y106.26 E55.7611 F600
G1 X135.56 Y105.70 E55.7888
G1 X123.36 Y93.50 E56.6427
G1 X123.79 Y93.53 E56.6640
G1 X123.95 Y93.52 E56.6720
G1 X135.56 Y105.13 E57.4846
G1 X135.56 Y104.57 E57.5123
G1 X124.42 Y93.43 E58.2920
G1 X124.84 Y93.28 E58.3140
G1 X135.56 Y104.00 E59.0643
G1 X135.56 Y103.44 E59.0921
G1 X125.20 Y93.08 E59.8172
G1 X125.51 Y92.83 E59.8369
G1 X135.56 Y102.87 E60.5399
G1 X135.56 Y102.31 E60.5677
G1 X125.79 Y92.54 E61.2515
G1 X126.01 Y92.20 E61.2715
G1 X135.56 Y101.75 E61.9399
G1 X135.56 Y101.18 E61.9681
G1 X126.19 Y91.81 E62.6240
G1 X126.30 Y91.36 E62.6469
G1 X135.56 Y100.62 E63.2950
G1 X135.56 Y100.05 E63.3232
G1 X126.33 Y90.83 E63.9689
G1 X135.56 Y84.82 F4200
G1 X135.56 Y84.82
G1 X135.00 Y84.25 E64.0084 F600
G1 X134.43 Y84.25 E64.0366
G1 X135.56 Y85.38 E64.1157
G1 X135.56 Y85.95 E64.1439
G1 X133.87 Y84.25 E64.2626
G1 X133.30 Y84.25 E64.2908
G1 X135.56 Y86.51 E64.4490
G1 X135.56 Y87.07 E64.4767
G1 X132.74 Y84.25 E64.6741
G1 X132.18 Y84.25 E64.7018
G1 X135.56 Y87.64 E64.9387
G1 X135.56 Y88.20 E64.9664
G1 X131.61 Y84.25 E65.2429
G1 X131.05 Y84.25 E65.2706
G1 X135.56 Y88.77 E65.5866
G1 X135.56 Y89.33 E65.6143
G1 X130.48 Y84.25 E65.9699
G1 X129.92 Y84.25 E65.9976
G1 X135.56 Y89.90 E66.3927
G1 X135.56 Y90.46 E66.4204
G1 X129.35 Y84.25 E66.8550
G1 X128.79 Y84.25 E66.8828
G1 X135.56 Y91.02 E67.3566
G1 X135.56 Y91.59 E67.3848
G1 X128.23 Y84.25 E67.8982
G1 X127.66 Y84.25 E67.9264
G1 X135.56 Y92.15 E68.4793
G1 X135.56 Y92.72 E68.5075
G1 X127.10 Y84.25 E69.1000
G1 X126.53 Y84.25 E69.1282
G1 X135.56 Y93.28 E69.7602
G1 X135.56 Y93.85 E69.7885
G1 X125.97 Y84.25 E70.4600
G1 X125.40 Y84.25 E70.4882
G1 X135.56 Y94.41 E71.1993
G1 X135.56 Y94.97 E71.2271
G1 X124.84 Y84.25 E71.9774
G1 X124.28 Y84.25 E72.0051
G1 X135.56 Y95.54 E72.7949
G1 X135.56 Y96.10 E72.8227
G1 X123.71 Y84.25 E73.6520
G1 X123.15 Y84.25 E73.6798
G1 X135.56 Y96.67 E74.5487
G1 X135.56 Y97.23 E74.5764
G1 X122.58 Y84.25 E75.4849
G1 X122.02 Y84.25 E75.5126
G1 X135.56 Y97.80 E76.4607
G1 X135.56 Y98.36 E76.4884
G1 X121.45 Y84.25 E77.4759
G1 X120.89 Y84.25 E77.5037
G1 X135.56 Y98.92 E78.5304
G1 X135.56 Y99.49 E78.5586
G1 X126.20 Y90.13 E79.2138
G1 X126.17 Y90.02 E79.2194
G1 X125.97 Y89.60 E79.2424
G1 X125.71 Y89.25 E79.2640
G1 X125.39 Y88.94 E79.2860
G1 X125.02 Y88.68 E79.3084
G1 X124.55 Y88.48 E79.3337
G1 X120.33 Y84.25 E79.6294
