;generated by ffslicer 1.30.3 09/06/23 23:13:34
;right_extruder_material: PLA
;layer_height: 0.2
;perimeter_shells: 2
;top_solid_layers: 4
;bottom_solid_layers: 3
;fill_density: 15%
;fill_pattern: hexagon
;base_print_speed: 50
;travel_speed: 80
;right_extruder_temperature: 200
;left_extruder_temperature: 0
;platform_temperature: 60
;right_extruder_temperature_raft0: 0
;left_extruder_temperature_raft0: 0
;right_extruder_temperature_reset: 
;left_extruder_temperature_reset: 
;start gcode
M140 S60 T0
M104 S200 T0
M104 S0 T1
G90
G28
G1 Z50.000 F420
G161 X Y F3300
M190 S60 T0
M109 S200 T0
M109 S0 T1
G92 E.0000
;layer_count: 40
M108 T0
G1 X78.40 Y91.01 F4800
;preExtrude:0.20
;preExtruder0
M106 S255
G1 Z.200 F420
G1 X78.40 Y91.01 F4800
G1 X82.68 Y86.73 E.7731 F1200
G1 X104.65 Y86.73 E3.5790
G1 X116.88 Y92.04 E5.2819
G1 X143.64 Y110.40 E9.4268
G1 X146.33 Y120.67 E10.7827
G1 X144.02 Y127.19 E11.6661
G1 X135.24 Y133.65 E13.0583
G1 X82.23 Y126.20 E19.8952
G1 X74.03 Y118.00 E21.3763
G1 X74.03 Y95.37 E24.2666
;raft
;layer:0.30
;shell
G1 E19.2666 F2700
G1 Z.300 F420
G1 X82.63 Y98.94 F4200
G1 E24.2666 F2700
G1 X82.63 Y98.94 F4200
G1 X86.24 Y95.33 E24.5111 F600
G1 X102.87 Y95.33 E25.3076
G1 X112.70 Y99.59 E25.8207
G1 X136.13 Y115.68 E27.1820
G1 X137.34 Y120.29 E27.4103
G1 X136.80 Y121.83 E27.4885
G1 X132.97 Y124.64 E27.7160
G1 X116.88 Y122.38 E28.4942
G1 X116.57 Y122.34 E28.5091
G1 X86.27 Y118.08 E29.9746
G1 X82.63 Y114.44 E30.2212
G1 X82.63 Y98.94 E30.9635
G1 X82.23 Y98.77 F4200
G1 X86.08 Y94.93 E31.2240 F600
G1 X102.95 Y94.93 E32.0320
G1 X112.89 Y99.24 E32.5509
G1 X136.48 Y115.43 E33.9212
G1 X137.76 Y120.31 E34.1628
G1 X137.13 Y122.08 E34.2528
G1 X133.08 Y125.06 E34.4936
G1 X116.83 Y122.78 E35.2795
G1 X116.51 Y122.74 E35.2950
G1 X86.08 Y118.46 E36.7668
G1 X82.23 Y114.61 E37.0275
G1 X82.23 Y98.77 E37.7862
G1 X85.81 Y99.52 F4200
G1 X85.81 Y99.52
G1 X85.92 Y100.10 E37.8144 F600
G1 X86.21 Y100.64 E37.8438
G1 X86.66 Y101.07 E37.8736
G1 X87.21 Y101.34 E37.9030
G1 X87.81 Y101.43 E37.9320
G1 X88.42 Y101.34 E37.9615
G1 X88.97 Y101.06 E37.9911
G1 X89.40 Y100.64 E38.0199
G1 X89.70 Y100.10 E38.0495
G1 X89.81 Y99.49 E38.0792
G1 X89.74 Y98.89 E38.1081
G1 X89.49 Y98.33 E38.1375
G1 X89.08 Y97.87 E38.1670
G1 X88.55 Y97.56 E38.1964
G1 X87.96 Y97.42 E38.2254
G1 X87.34 Y97.47 E38.2552
G1 X86.78 Y97.70 E38.2842
G1 X86.31 Y98.09 E38.3135
G1 X85.97 Y98.61 E38.3432
G1 X85.82 Y99.17 E38.3710
G1 X85.81 Y99.52 E38.3878
G1 X86.21 Y99.49 F4200
G1 X86.30 Y99.97 E38.4112 F600
G1 X86.53 Y100.40 E38.4345
G1 X86.89 Y100.74 E38.4582
G1 X87.33 Y100.95 E38.4816
G1 X87.81 Y101.02 E38.5048
G1 X88.29 Y100.95 E38.5280
G1 X88.73 Y100.73 E38.5516
G1 X89.08 Y100.39 E38.5750
G1 X89.32 Y99.96 E38.5986
G1 X89.41 Y99.48 E38.6220
G1 X89.35 Y98.99 E38.6456
G1 X89.15 Y98.55 E38.6687
G1 X88.82 Y98.18 E38.6925
G1 X88.40 Y97.93 E38.7159
G1 X87.93 Y97.82 E38.7390
G1 X87.44 Y97.86 E38.7626
G1 X86.98 Y98.05 E38.7864
G1 X86.61 Y98.36 E38.8095
G1 X86.34 Y98.77 E38.8330
G1 X86.22 Y99.23 E38.8558
G1 X86.21 Y99.49 E38.8683
G1 X86.12 Y100.03 F4200
G1 X89.93 Y106.79
G1 X89.93 Y106.79
G1 X89.96 Y107.22 E38.8889 F600
G1 X90.03 Y107.62 E38.9084
G1 X90.13 Y108.04 E38.9290
G1 X90.27 Y108.43 E38.9489
G1 X90.45 Y108.81 E38.9690
G1 X90.66 Y109.17 E38.9890
G1 X90.90 Y109.52 E39.0093
G1 X91.17 Y109.83 E39.0290
G1 X91.47 Y110.13 E39.0493
G1 X91.80 Y110.39 E39.0694
G1 X92.14 Y110.62 E39.0891
G1 X92.51 Y110.82 E39.1092
G1 X92.90 Y110.99 E39.1296
G1 X93.31 Y111.12 E39.1502
G1 X93.70 Y111.21 E39.1694
G1 X94.12 Y111.27 E39.1897
G1 X94.54 Y111.29 E39.2098
G1 X94.95 Y111.27 E39.2295
G1 X95.38 Y111.21 E39.2503
G1 X95.78 Y111.12 E39.2699
G1 X96.18 Y110.98 E39.2902
G1 X96.56 Y110.82 E39.3100
G1 X96.93 Y110.61 E39.3304
G1 X97.28 Y110.38 E39.3504
G1 X97.60 Y110.12 E39.3702
G1 X97.90 Y109.82 E39.3905
G1 X98.17 Y109.50 E39.4105
G1 X98.41 Y109.16 E39.4305
G1 X98.62 Y108.79 E39.4508
G1 X98.79 Y108.42 E39.4703
G1 X98.93 Y108.02 E39.4906
G1 X99.04 Y107.61 E39.5110
G1 X99.10 Y107.21 E39.5303
G1 X99.13 Y106.78 E39.5510
G1 X99.12 Y106.36 E39.5711
G1 X99.07 Y105.95 E39.5909
G1 X98.99 Y105.55 E39.6104
G1 X98.86 Y105.13 E39.6315
G1 X98.71 Y104.76 E39.6506
G1 X98.52 Y104.39 E39.6705
G1 X98.28 Y104.02 E39.6916
G1 X98.03 Y103.70 E39.7111
G1 X97.74 Y103.39 E39.7314
G1 X97.44 Y103.12 E39.7508
G1 X97.10 Y102.87 E39.7710
G1 X96.73 Y102.65 E39.7916
G1 X96.35 Y102.46 E39.8119
G1 X95.97 Y102.32 E39.8313
G1 X95.56 Y102.20 E39.8518
G1 X95.15 Y102.13 E39.8717
G1 X94.53 Y102.09 E39.9015
G1 X93.91 Y102.13 E39.9312
G1 X93.48 Y102.21 E39.9522
G1 X93.08 Y102.32 E39.9720
G1 X92.69 Y102.47 E39.9921
G1 X92.31 Y102.66 E40.0124
G1 X91.96 Y102.87 E40.0320
G1 X91.62 Y103.13 E40.0525
G1 X91.32 Y103.40 E40.0718
G1 X91.03 Y103.71 E40.0921
G1 X90.77 Y104.04 E40.1122
G1 X90.54 Y104.39 E40.1323
G1 X90.35 Y104.77 E40.1527
G1 X90.19 Y105.16 E40.1728
G1 X90.07 Y105.56 E40.1928
G1 X89.99 Y105.96 E40.2124
G1 X89.94 Y106.37 E40.2322
G1 X89.93 Y106.79 E40.2523
G1 X90.33 Y106.78 F4200
G1 X90.36 Y107.17 E40.2710 F600
G1 X90.42 Y107.55 E40.2894
G1 X90.52 Y107.92 E40.3078
G1 X90.64 Y108.28 E40.3260
G1 X90.81 Y108.62 E40.3442
G1 X91.00 Y108.96 E40.3628
G1 X91.22 Y109.27 E40.3810
G1 X91.47 Y109.56 E40.3994
G1 X91.74 Y109.83 E40.4177
G1 X92.04 Y110.07 E40.4361
G1 X92.35 Y110.28 E40.4540
G1 X92.69 Y110.46 E40.4724
G1 X93.04 Y110.61 E40.4907
G1 X93.41 Y110.73 E40.5093
G1 X93.78 Y110.82 E40.5275
G1 X94.16 Y110.87 E40.5459
G1 X94.54 Y110.89 E40.5641
G1 X94.92 Y110.87 E40.5823
G1 X95.30 Y110.82 E40.6007
G1 X95.67 Y110.73 E40.6189
G1 X96.03 Y110.61 E40.6371
G1 X96.38 Y110.46 E40.6554
G1 X96.72 Y110.27 E40.6740
G1 X97.04 Y110.06 E40.6923
G1 X97.33 Y109.82 E40.7104
G1 X97.61 Y109.55 E40.7290
G1 X97.85 Y109.26 E40.7470
G1 X98.07 Y108.95 E40.7652
G1 X98.26 Y108.61 E40.7839
G1 X98.42 Y108.27 E40.8019
G1 X98.55 Y107.91 E40.8202
G1 X98.65 Y107.54 E40.8386
G1 X98.71 Y107.16 E40.8570
G1 X98.73 Y106.78 E40.8752
G1 X98.72 Y106.39 E40.8939
G1 X98.68 Y106.02 E40.9117
G1 X98.60 Y105.64 E40.9303
G1 X98.49 Y105.28 E40.9484
G1 X98.34 Y104.92 E40.9670
G1 X98.17 Y104.58 E40.9852
G1 X97.96 Y104.26 E41.0036
G1 X97.72 Y103.96 E41.0220
G1 X97.46 Y103.68 E41.0403
G1 X97.18 Y103.43 E41.0583
G1 X96.87 Y103.20 E41.0767
G1 X96.54 Y103.00 E41.0952
G1 X96.20 Y102.83 E41.1134
G1 X95.84 Y102.70 E41.1318
G1 X95.47 Y102.59 E41.1503
G1 X95.10 Y102.53 E41.1682
G1 X94.53 Y102.49 E41.1956
G1 X93.96 Y102.53 E41.2229
G1 X93.58 Y102.60 E41.2414
G1 X93.21 Y102.70 E41.2598
G1 X92.85 Y102.84 E41.2783
G1 X92.51 Y103.01 E41.2965
G1 X92.18 Y103.21 E41.3150
G1 X91.88 Y103.43 E41.3328
G1 X91.59 Y103.69 E41.3515
G1 X91.33 Y103.97 E41.3698
G1 X91.10 Y104.27 E41.3879
G1 X90.89 Y104.59 E41.4062
G1 X90.72 Y104.93 E41.4244
G1 X90.57 Y105.29 E41.4431
G1 X90.46 Y105.65 E41.4611
G1 X90.38 Y106.03 E41.4797
G1 X90.34 Y106.41 E41.4980
G1 X90.33 Y106.78 E41.5157
G1 X85.93 Y112.23 F4200
G1 X85.27 Y113.52
G1 X85.27 Y113.52
G1 X85.38 Y114.10 E41.5440 F600
G1 X85.67 Y114.63 E41.5730
G1 X86.12 Y115.06 E41.6028
G1 X86.67 Y115.33 E41.6321
G1 X87.27 Y115.42 E41.6612
G1 X87.88 Y115.33 E41.6907
G1 X88.43 Y115.05 E41.7203
G1 X88.86 Y114.63 E41.7490
G1 X89.16 Y114.09 E41.7786
G1 X89.27 Y113.48 E41.8083
G1 X89.20 Y112.88 E41.8373
G1 X88.95 Y112.32 E41.8666
G1 X88.54 Y111.86 E41.8961
G1 X88.01 Y111.55 E41.9255
G1 X87.42 Y111.41 E41.9546
G1 X86.80 Y111.46 E41.9844
G1 X86.24 Y111.69 E42.0134
G1 X85.77 Y112.08 E42.0426
G1 X85.43 Y112.60 E42.0724
G1 X85.28 Y113.16 E42.1001
G1 X85.27 Y113.52 E42.1174
G1 X85.67 Y113.48 F4200
G1 X85.76 Y113.96 E42.1408 F600
G1 X85.99 Y114.39 E42.1641
G1 X86.35 Y114.73 E42.1879
G1 X86.79 Y114.94 E42.2112
G1 X87.27 Y115.01 E42.2344
G1 X87.75 Y114.94 E42.2577
G1 X88.19 Y114.72 E42.2812
G1 X88.54 Y114.38 E42.3046
G1 X88.78 Y113.95 E42.3282
G1 X88.87 Y113.47 E42.3516
G1 X88.81 Y112.98 E42.3752
G1 X88.61 Y112.54 E42.3984
G1 X88.28 Y112.17 E42.4221
G1 X87.86 Y111.93 E42.4453
G1 X87.39 Y111.81 E42.4685
G1 X86.90 Y111.85 E42.4921
G1 X86.44 Y112.04 E42.5159
G1 X86.07 Y112.35 E42.5390
G1 X85.80 Y112.76 E42.5625
G1 X85.68 Y113.23 E42.5858
G1 X85.67 Y113.48 E42.5978
G1 X85.58 Y114.02 F4200
G1 X85.85 Y114.50
G1 X86.24 Y114.88
G1 X86.73 Y115.12
G1 X87.27 Y115.20
G1 X99.26 Y114.05
G1 X99.26 Y114.05
G1 X99.37 Y114.64 E42.6265 F600
G1 X99.66 Y115.17 E42.6554
G1 X100.11 Y115.60 E42.6853
G1 X100.66 Y115.87 E42.7146
G1 X101.26 Y115.96 E42.7437
G1 X101.87 Y115.87 E42.7732
G1 X102.42 Y115.59 E42.8027
G1 X102.86 Y115.17 E42.8319
G1 X103.15 Y114.63 E42.8612
G1 X103.26 Y114.02 E42.8909
G1 X103.19 Y113.42 E42.9199
G1 X102.94 Y112.86 E42.9492
G1 X102.53 Y112.40 E42.9787
G1 X102.00 Y112.09 E43.0081
G1 X101.41 Y111.95 E43.0372
G1 X100.80 Y112.00 E43.0665
G1 X100.23 Y112.23 E43.0959
G1 X99.76 Y112.62 E43.1252
G1 X99.42 Y113.14 E43.1549
G1 X99.27 Y113.70 E43.1827
G1 X99.26 Y114.05 E43.1995
G1 X99.66 Y114.02 F4200
G1 X99.75 Y114.50 E43.2229 F600
G1 X99.98 Y114.93 E43.2462
G1 X100.34 Y115.27 E43.2699
G1 X100.78 Y115.48 E43.2933
G1 X101.26 Y115.55 E43.3165
G1 X101.74 Y115.48 E43.3398
G1 X102.18 Y115.26 E43.3633
G1 X102.53 Y114.92 E43.3867
G1 X102.77 Y114.49 E43.4103
G1 X102.86 Y114.01 E43.4337
G1 X102.80 Y113.53 E43.4568
G1 X102.60 Y113.08 E43.4804
G1 X102.27 Y112.71 E43.5042
G1 X101.85 Y112.47 E43.5273
G1 X101.38 Y112.36 E43.5505
G1 X100.89 Y112.39 E43.5740
G1 X100.43 Y112.58 E43.5978
G1 X100.06 Y112.89 E43.6209
G1 X99.79 Y113.30 E43.6444
G1 X99.67 Y113.77 E43.6677
G1 X99.66 Y114.02 E43.6797
G1 X99.80 Y100.06 F4200
G1 X99.80 Y100.06
G1 X99.91 Y100.64 E43.7079 F600
G1 X100.20 Y101.18 E43.7373
G1 X100.65 Y101.61 E43.7671
G1 X101.20 Y101.88 E43.7964
G1 X101.80 Y101.97 E43.8255
G1 X102.41 Y101.88 E43.8550
G1 X102.96 Y101.60 E43.8846
G1 X103.39 Y101.18 E43.9134
G1 X103.69 Y100.64 E43.9430
G1 X103.80 Y100.03 E43.9726
G1 X103.73 Y99.43 E44.0016
G1 X103.48 Y98.87 E44.0309
G1 X103.07 Y98.41 E44.0605
G1 X102.54 Y98.10 E44.0899
G1 X101.95 Y97.96 E44.1189
G1 X101.34 Y98.01 E44.1482
G1 X100.77 Y98.24 E44.1777
G1 X100.30 Y98.63 E44.2069
G1 X99.96 Y99.15 E44.2367
G1 X99.81 Y99.72 E44.2649
G1 X99.80 Y100.06 E44.2812
G1 X100.20 Y100.03 F4200
G1 X100.29 Y100.51 E44.3046 F600
G1 X100.52 Y100.94 E44.3279
G1 X100.88 Y101.28 E44.3517
G1 X101.32 Y101.49 E44.3750
G1 X101.80 Y101.56 E44.3982
G1 X102.28 Y101.49 E44.4215
G1 X102.72 Y101.27 E44.4450
G1 X103.07 Y100.93 E44.4684
G1 X103.31 Y100.50 E44.4920
G1 X103.40 Y100.02 E44.5154
G1 X103.34 Y99.53 E44.5390
G1 X103.14 Y99.09 E44.5622
G1 X102.81 Y98.72 E44.5859
G1 X102.39 Y98.48 E44.6091
G1 X101.92 Y98.36 E44.6323
G1 X101.43 Y98.40 E44.6559
G1 X100.97 Y98.59 E44.6797
G1 X100.60 Y98.90 E44.7028
G1 X100.33 Y99.31 E44.7263
G1 X100.21 Y99.78 E44.7496
G1 X100.20 Y100.03 E44.7616
G1 X100.11 Y100.57 F4200
G1 X100.38 Y101.05
G1 X100.77 Y101.43
G1 X129.80 Y119.26
G1 X129.80 Y119.26
G1 X129.84 Y119.93 E44.7937 F600
G1 X130.05 Y120.56 E44.8255
G1 X130.41 Y121.12 E44.8574
G1 X130.89 Y121.58 E44.8892
G1 X131.48 Y121.89 E44.9212
G1 X132.12 Y122.06 E44.9529
G1 X132.79 Y122.06 E44.9850
G1 X133.43 Y121.89 E45.0167
G1 X134.02 Y121.57 E45.0488
G1 X134.50 Y121.11 E45.0807
G1 X134.85 Y120.55 E45.1123
G1 X135.06 Y119.92 E45.1441
G1 X135.10 Y119.26 E45.1758
G1 X134.97 Y118.60 E45.2080
G1 X134.69 Y118.00 E45.2397
G1 X134.26 Y117.49 E45.2716
G1 X133.72 Y117.10 E45.3036
G1 X133.11 Y116.85 E45.3351
G1 X132.45 Y116.77 E45.3670
G1 X131.78 Y116.86 E45.3994
G1 X131.16 Y117.10 E45.4312
G1 X130.63 Y117.49 E45.4627
G1 X130.21 Y118.01 E45.4947
G1 X129.92 Y118.61 E45.5266
G1 X129.80 Y119.26 E45.5583
G1 X130.20 Y119.28 F4200
G1 X130.24 Y119.85 E45.5857 F600
G1 X130.41 Y120.39 E45.6128
G1 X130.72 Y120.86 E45.6397
G1 X131.13 Y121.25 E45.6668
G1 X131.62 Y121.52 E45.6936
G1 X132.17 Y121.66 E45.7208
G1 X132.74 Y121.66 E45.7481
G1 X133.28 Y121.52 E45.7748
G1 X133.78 Y121.24 E45.8023
G1 X134.19 Y120.86 E45.8291
G1 X134.49 Y120.38 E45.8562
G1 X134.66 Y119.84 E45.8833
G1 X134.70 Y119.28 E45.9102
G1 X134.59 Y118.72 E45.9375
G1 X134.35 Y118.22 E45.9641
G1 X133.99 Y117.78 E45.9913
G1 X133.53 Y117.45 E46.0184
G1 X133.01 Y117.24 E46.0453
G1 X132.45 Y117.17 E46.0723
G1 X131.88 Y117.25 E46.0999
G1 X131.36 Y117.45 E46.1266
G1 X130.91 Y117.79 E46.1536
G1 X130.55 Y118.22 E46.1804
G1 X130.31 Y118.73 E46.2074
G1 X130.20 Y119.28 E46.2343
;infill
G1 X129.73 Y120.69 F4200
G1 X106.18 Y97.13 E47.8297 F600
G1 X107.18 Y97.57 E47.8821
G1 X129.50 Y119.88 E49.3935
G1 X129.46 Y119.28 E49.4223
G1 X108.19 Y98.01 E50.8630
G1 X109.19 Y98.44 E50.9151
G1 X129.54 Y118.79 E52.2935
G1 X129.60 Y118.50 E52.3077
G1 X129.67 Y118.35 E52.3156
G1 X110.20 Y98.88 E53.6344
G1 X111.20 Y99.32 E53.6867
G1 X129.85 Y117.96 E54.9496
G1 X130.08 Y117.63 E54.9689
G1 X112.21 Y99.75 E56.1796
G1 X112.53 Y99.89 E56.1963
G1 X113.76 Y100.74 E56.2679
G1 X130.34 Y117.31 E57.3906
G1 X130.65 Y117.06 E57.4097
G1 X115.57 Y101.98 E58.4311
G1 X117.39 Y103.22 E58.5366
G1 X130.98 Y116.82 E59.4574
G1 X131.38 Y116.65 E59.4782
G1 X119.20 Y104.47 E60.3032
G1 X121.01 Y105.71 E60.4083
G1 X131.81 Y116.51 E61.1398
G1 X132.31 Y116.44 E61.1640
G1 X122.82 Y106.95 E61.8068
G1 X124.63 Y108.20 E61.9121
G1 X132.92 Y116.49 E62.4737
G1 X135.87 Y116.02 F4200
G1 X135.87 Y116.02
G1 X135.50 Y115.65 E62.4987 F600
G1 X133.69 Y114.41 E62.6038
G1 X136.07 Y116.79 E62.7650
G1 X136.27 Y117.56 E62.8031
G1 X131.88 Y113.17 E63.1005
G1 X130.07 Y111.92 E63.2058
G1 X136.48 Y118.34 E63.6403
G1 X136.68 Y119.11 E63.6784
G1 X128.25 Y110.68 E64.2494
G1 X126.44 Y109.44 E64.3545
G1 X133.74 Y116.73 E64.8486
G1 X133.89 Y116.79 E64.8563
G1 X134.50 Y117.23 E64.8924
G1 X134.98 Y117.81 E64.9284
G1 X135.12 Y118.11 E64.9443
G1 X136.88 Y119.88 E65.0638
G1 X136.99 Y120.27 E65.0832
G1 X136.91 Y120.48 E65.0940
G1 X135.38 Y118.95 E65.1976
G1 X135.44 Y119.23 E65.2113
G1 X135.42 Y119.55 E65.2267
G1 X136.76 Y120.90 E65.3178
G1 X136.62 Y121.32 E65.3390
G1 X135.37 Y120.07 E65.4237
G1 X135.23 Y120.50 E65.4453
G1 X136.41 Y121.69 E65.5256
G1 X136.09 Y121.93 E65.5447
G1 X135.04 Y120.88 E65.6159
G1 X134.82 Y121.23 E65.6357
G1 X135.76 Y122.17 E65.6993
G1 X135.43 Y122.41 E65.7189
G1 X134.55 Y121.53 E65.7785
G1 X134.26 Y121.80 E65.7975
G1 X135.11 Y122.65 E65.8550
G1 X134.78 Y122.89 E65.8746
G1 X133.90 Y122.02 E65.9338
G1 X133.53 Y122.22 E65.9540
G1 X134.45 Y123.13 E66.0160
G1 X134.12 Y123.37 E66.0355
G1 X133.08 Y122.33 E66.1060
G1 X132.83 Y122.40 E66.1184
G1 X132.58 Y122.40 E66.1304
G1 X133.80 Y123.61 E66.2127
G1 X133.47 Y123.85 E66.2322
G1 X131.99 Y122.38 E66.3321
G1 X131.35 Y122.21 E66.3638
G1 X131.15 Y122.10 E66.3748
G1 X133.14 Y124.10 E66.5099
G1 X132.88 Y124.29 E66.5253
G1 X132.75 Y124.27 E66.5316
G1 X105.18 Y96.70 E68.3990
G1 X104.17 Y96.26 E68.4518
G1 X132.08 Y124.18 E70.3426
G1 X131.42 Y124.08 E70.3745
G1 X103.17 Y95.83 E72.2880
G1 X102.80 Y95.67 E72.3073
G1 X102.44 Y95.67 E72.3245
G1 X130.76 Y123.99 E74.2427
G1 X130.10 Y123.90 E74.2746
G1 X101.87 Y95.67 E76.1868
G1 X101.30 Y95.67 E76.2141
G1 X129.44 Y123.80 E78.1197
G1 X128.78 Y123.71 E78.1516
G1 X103.79 Y98.72 E79.8443
G1 X104.06 Y99.33 E79.8762
G1 X104.09 Y99.60 E79.8892
G1 X128.12 Y123.62 E81.5165
G1 X127.45 Y123.53 E81.5489
G1 X104.11 Y100.19 E83.1298
G1 X104.03 Y100.67 E83.1531
G1 X126.79 Y123.43 E84.6947
G1 X126.13 Y123.34 E84.7266
G1 X103.85 Y101.05 E86.2360
G1 X103.64 Y101.41 E86.2560
G1 X125.47 Y123.25 E87.7350
G1 X124.81 Y123.15 E87.7669
G1 X103.35 Y101.69 E89.2205
G1 X103.16 Y101.88 E89.2334
G1 X103.03 Y101.94 E89.2402
G1 X124.15 Y123.06 E90.6707
G1 X123.48 Y122.97 E90.7031
G1 X102.65 Y102.13 E92.1143
G1 X102.51 Y102.21 E92.1221
G1 X102.20 Y102.25 E92.1370
G1 X122.82 Y122.87 E93.5337
G1 X122.16 Y122.78 E93.5656
G1 X101.67 Y102.29 E94.9534
G1 X101.10 Y102.21 E94.9810
G1 X100.94 Y102.13 E94.9896
G1 X121.50 Y122.69 E96.3822
G1 X120.84 Y122.60 E96.4141
G1 X93.91 Y95.67 E98.2381
G1 X93.34 Y95.67 E98.2654
G1 X120.18 Y122.50 E100.0830
G1 X119.52 Y122.41 E100.1150
G1 X92.77 Y95.67 E101.9265
G1 X92.20 Y95.67 E101.9538
G1 X118.85 Y122.32 E103.7589
G1 X118.19 Y122.22 E103.7908
G1 X91.64 Y95.67 E105.5891
G1 X91.07 Y95.67 E105.6164
G1 X117.53 Y122.13 E107.4087
G1 X116.87 Y122.04 E107.4406
G1 X90.50 Y95.67 E109.2267
G1 X89.93 Y95.67 E109.2540
G1 X96.37 Y102.10 E109.6898
G1 X96.08 Y102.00 E109.7045
G1 X95.55 Y101.85 E109.7309
