;generated by ffslicer 1.30.3 09/08/23 20:11:41
;right_extruder_material: PLA
;layer_height: 0.2
;perimeter_shells: 2
;top_solid_layers: 4
;bottom_solid_layers: 3
;fill_density: 15%
;fill_pattern: hexagon
;base_print_speed: 50
;travel_speed: 80
;right_extruder_temperature: 200
;left_extruder_temperature: 0
;platform_temperature: 60
;right_extruder_temperature_raft0: 0
;left_extruder_temperature_raft0: 0
;right_extruder_temperature_reset: 
;left_extruder_temperature_reset: 
;start gcode
M140 S60 T0
M104 S200 T0
M104 S0 T1
G90
G28
G1 Z50.000 F420
G161 X Y F3300
M190 S60 T0
M109 S200 T0
M109 S0 T1
G92 E.0000
;layer_count: 125
M108 T0
G1 X170.24 Y180.21 F4800
;preExtrude:0.20
;preExtruder0
M106 S255
G1 Z.200 F420
G1 X170.24 Y180.21 F4800
G1 X159.21 Y191.24 E1.9923 F1200
G1 X145.08 Y177.12 E4.5435
G1 X29.79 Y59.89 E25.5434
;raft
;layer:0.30
;support-start
;line-support
G1 E20.5434 F2700
G1 Z.300 F420
G1 X173.65 Y163.47 F4200
G1 E25.5434 F2700
;extrude_ratio:1.25
G1 X173.65 Y163.47 F4200
G1 X172.87 Y163.47 E25.5901 F600
G1 X172.88 Y162.70 E25.6362
;extrude_ratio:1
G1 E20.6362 F2700
G1 X171.17 Y161.77 F4200
G1 E25.6362 F2700
;extrude_ratio:1.25
G1 X171.17 Y161.77 F4200
G1 X171.95 Y161.77 E25.6829 F600
G1 X171.17 Y161.00 E25.7485
;support-end
;shell
;extrude_ratio:1
G1 E20.7485 F2700
G1 X41.91 Y59.94 F4200
G1 E25.7485 F2700
G1 X41.91 Y59.94 F4200
G1 X54.49 Y47.35 E26.6009 F600
G1 X140.76 Y133.62 E32.4442
G1 X159.14 Y139.27 E33.3652
G1 X179.08 Y159.21 E34.7158
G1 X175.05 Y163.24 E34.9888
G1 X156.00 Y144.19 E36.2791
G1 X144.19 Y156.00 E37.0790
G1 X163.24 Y175.05 E38.3693
G1 X159.21 Y179.08 E38.6423
G1 X151.19 Y171.06 E39.1855
G1 X128.07 Y146.10 E40.8150
G1 X41.91 Y59.94 E46.6509
G1 X41.34 Y59.94 F4200
G1 X54.49 Y46.78 E47.5419 F600
G1 X140.97 Y133.26 E53.3995
G1 X159.36 Y138.92 E54.3211
G1 X179.65 Y159.21 E55.6954
G1 X175.05 Y163.81 E56.0069
G1 X156.00 Y144.75 E57.2976
G1 X144.75 Y156.00 E58.0596
G1 X163.81 Y175.05 E59.3502
G1 X159.21 Y179.65 E59.6618
G1 X150.91 Y171.35 E60.2240
G1 X127.79 Y146.38 E61.8539
G1 X41.34 Y59.94 E67.7090
G1 X61.74 Y75.81 F4200
G1 X61.74 Y75.81
G1 X73.90 Y87.97 E68.5327 F600
G1 X82.53 Y79.35 E69.1169
G1 X70.37 Y67.18 E69.9409
G1 X61.74 Y75.81 E70.5254
G1 X62.31 Y75.81 F4200
G1 X73.90 Y87.41 E71.3108 F600
G1 X81.96 Y79.35 E71.8567
G1 X70.37 Y67.75 E72.6421
G1 X62.31 Y75.81 E73.1880
G1 X75.17 Y89.25 F4200
G1 X75.17 Y89.25
G1 X87.34 Y101.41 E74.0120 F600
G1 X95.96 Y92.78 E74.5962
G1 X83.80 Y80.62 E75.4198
G1 X75.17 Y89.25 E76.0043
G1 X75.74 Y89.25 F4200
G1 X87.34 Y100.84 E76.7897 F600
G1 X95.40 Y92.78 E77.3356
G1 X83.80 Y81.19 E78.1210
G1 X75.74 Y89.25 E78.6669
G1 X88.61 Y102.68 F4200
G1 X88.61 Y102.68
G1 X100.77 Y114.84 E79.4906 F600
G1 X109.40 Y106.22 E80.0748
G1 X97.24 Y94.05 E80.8987
G1 X88.61 Y102.68 E81.4833
G1 X89.18 Y102.68 F4200
G1 X100.77 Y114.28 E82.2686 F600
G1 X108.83 Y106.22 E82.8146
G1 X97.24 Y94.62 E83.5999
G1 X89.18 Y102.68 E84.1459
G1 X102.04 Y116.12 F4200
G1 X102.04 Y116.12
G1 X114.21 Y128.28 E84.9698 F600
G1 X122.83 Y119.65 E85.5540
G1 X110.67 Y107.49 E86.3777
G1 X102.04 Y116.12 E86.9622
G1 X102.61 Y116.12 F4200
G1 X114.21 Y127.71 E87.7476 F600
G1 X122.27 Y119.65 E88.2935
G1 X110.67 Y108.06 E89.0789
G1 X102.61 Y116.12 E89.6248
G1 X115.48 Y129.55 F4200
G1 X115.48 Y129.55
G1 X127.64 Y141.71 E90.4484 F600
G1 X136.27 Y133.09 E91.0326
G1 X124.11 Y120.92 E91.8566
G1 X115.48 Y129.55 E92.4411
G1 X116.05 Y129.55 F4200
G1 X127.64 Y141.15 E93.2265 F600
G1 X135.70 Y133.09 E93.7724
G1 X124.11 Y121.49 E94.5578
G1 X116.05 Y129.55 E95.1037
G1 X128.93 Y142.97 F4200
G1 X128.93 Y142.97
G1 X141.31 Y156.33 E95.9761 F600
G1 X157.05 Y140.59 E97.0422
G1 X137.37 Y134.53 E98.0285
G1 X128.93 Y142.97 E98.6001
G1 X129.49 Y142.98 F4200
G1 X141.32 Y155.76 E99.4342 F600
G1 X156.30 Y140.77 E100.4492
G1 X137.49 Y134.98 E101.3918
G1 X129.49 Y142.98 E101.9337
;infill
G1 X139.63 Y155.02 F4200
G1 X139.63 Y155.02
G1 X43.47 Y58.86 E108.4469 F600
G1 X43.75 Y58.57 E108.4662
G1 X132.47 Y147.29 E114.4755
G1 X128.46 Y142.96 E114.7581
G1 X128.58 Y142.83 E114.7666
G1 X127.79 Y142.05 E114.8198
G1 X128.08 Y141.76 E114.8394
G1 X128.87 Y142.55 E114.8929
G1 X129.15 Y142.26 E114.9122
G1 X128.36 Y141.48 E114.9654
G1 X128.65 Y141.19 E114.9851
G1 X129.44 Y141.98 E115.0386
G1 X129.72 Y141.69 E115.0579
G1 X128.93 Y140.91 E115.1110
G1 X129.22 Y140.62 E115.1307
G1 X130.01 Y141.41 E115.1842
G1 X130.29 Y141.12 E115.2035
G1 X129.50 Y140.34 E115.2567
G1 X129.79 Y140.05 E115.2763
G1 X130.58 Y140.84 E115.3298
G1 X130.86 Y140.55 E115.3491
G1 X130.07 Y139.77 E115.4023
G1 X130.36 Y139.48 E115.4219
G1 X131.15 Y140.27 E115.4754
G1 X131.43 Y139.98 E115.4947
G1 X130.64 Y139.20 E115.5479
G1 X130.93 Y138.91 E115.5676
G1 X131.72 Y139.70 E115.6211
G1 X132.00 Y139.41 E115.6404
G1 X131.21 Y138.63 E115.6935
G1 X131.50 Y138.34 E115.7132
G1 X132.29 Y139.13 E115.7667
G1 X132.57 Y138.84 E115.7860
G1 X131.78 Y138.05 E115.8395
G1 X132.07 Y137.77 E115.8588
G1 X132.86 Y138.56 E115.9123
G1 X133.14 Y138.27 E115.9316
G1 X132.35 Y137.49 E115.9848
G1 X132.64 Y137.20 E116.0044
G1 X133.43 Y137.99 E116.0579
G1 X133.71 Y137.70 E116.0772
G1 X132.92 Y136.91 E116.1308
G1 X133.21 Y136.63 E116.1501
G1 X134.00 Y137.42 E116.2036
G1 X134.28 Y137.13 E116.2229
G1 X133.49 Y136.35 E116.2760
G1 X133.78 Y136.06 E116.2957
G1 X134.57 Y136.85 E116.3492
G1 X134.85 Y136.56 E116.3685
G1 X134.06 Y135.77 E116.4220
G1 X134.35 Y135.49 E116.4413
G1 X135.13 Y136.28 E116.4945
G1 X135.42 Y136.00 E116.5138
G1 X134.63 Y135.21 E116.5673
G1 X134.92 Y134.92 E116.5869
G1 X135.71 Y135.71 E116.6404
G1 X135.99 Y135.43 E116.6594
G1 X135.20 Y134.63 E116.7133
G1 X135.49 Y134.35 E116.7326
G1 X136.27 Y135.14 E116.7857
G1 X136.56 Y134.86 E116.8050
G1 X135.77 Y134.07 E116.8585
G1 X136.06 Y133.78 E116.8782
G1 X136.85 Y134.57 E116.9317
G1 X137.13 Y134.29 E116.9507
G1 X136.34 Y133.50 E117.0042
G1 X136.63 Y133.21 E117.0238
G1 X137.68 Y134.27 E117.0953
G1 X138.51 Y134.52 E117.1368
G1 X53.15 Y49.17 E122.9182
G1 X53.44 Y48.88 E122.9378
G1 X139.33 Y134.77 E128.7554
G1 X140.15 Y135.03 E128.7966
G1 X53.72 Y48.60 E134.6508
G1 X54.01 Y48.31 E134.6704
G1 X140.98 Y135.28 E140.5612
G1 X141.80 Y135.54 E140.6024
G1 X54.29 Y48.03 E146.5297
G1 X54.49 Y47.83 E146.5432
G1 X140.58 Y133.92 E152.3744
G1 X140.83 Y134.00 E152.3870
G1 X142.62 Y135.79 E152.5082
G1 X143.45 Y136.04 E152.5497
G1 X141.65 Y134.25 E152.6713
G1 X142.48 Y134.50 E152.7129
G1 X144.27 Y136.30 E152.8344
G1 X145.09 Y136.55 E152.8755
G1 X143.30 Y134.76 E152.9967
G1 X144.12 Y135.01 E153.0378
G1 X145.92 Y136.80 E153.1594
G1 X146.74 Y137.06 E153.2006
G1 X144.95 Y135.26 E153.3222
G1 X145.77 Y135.52 E153.3634
G1 X147.56 Y137.31 E153.4846
G1 X148.39 Y137.56 E153.5261
G1 X146.59 Y135.77 E153.6477
G1 X147.42 Y136.02 E153.6892
G1 X149.21 Y137.82 E153.8108
G1 X150.03 Y138.07 E153.8519
G1 X148.24 Y136.27 E153.9734
G1 X149.06 Y136.53 E154.0146
G1 X150.86 Y138.32 E154.1362
G1 X151.68 Y138.58 E154.1774
G1 X149.88 Y136.78 E154.2994
G1 X150.71 Y137.03 E154.3409
G1 X152.51 Y138.83 E154.4628
G1 X153.33 Y139.09 E154.5040
G1 X151.53 Y137.29 E154.6259
G1 X152.35 Y137.54 E154.6670
G1 X154.15 Y139.34 E154.7889
G1 X154.98 Y139.59 E154.8304
G1 X153.18 Y137.79 E154.9523
G1 X154.00 Y138.05 E154.9935
G1 X155.80 Y139.85 E155.1155
G1 X156.62 Y140.10 E155.1565
G1 X154.82 Y138.30 E155.2784
G1 X155.65 Y138.55 E155.3200
G1 X157.42 Y140.32 E155.4399
G1 X178.59 Y159.22 F4200
G1 X178.59 Y159.22
G1 X158.94 Y139.57 E156.7708 F600
G1 X158.12 Y139.31 E156.8120
G1 X178.31 Y159.50 E158.1795
G1 X178.02 Y159.79 E158.1992
G1 X157.29 Y139.06 E159.6033
G1 X156.47 Y138.81 E159.6444
G1 X177.74 Y160.07 E161.0847
G1 X177.45 Y160.36 E161.1043
G1 X157.61 Y140.51 E162.4485
G1 X157.32 Y140.80 E162.4681
G1 X177.17 Y160.64 E163.8123
G1 X176.88 Y160.93 E163.8320
G1 X157.04 Y141.08 E165.1761
G1 X156.75 Y141.37 E165.1958
G1 X176.60 Y161.21 E166.5399
G1 X176.31 Y161.50 E166.5596
G1 X156.47 Y141.65 E167.9038
G1 X156.18 Y141.94 E167.9234
G1 X176.03 Y161.78 E169.2676
G1 X175.74 Y162.07 E169.2872
G1 X155.90 Y142.22 E170.6314
G1 X155.61 Y142.51 E170.6510
G1 X175.46 Y162.35 E171.9952
G1 X175.17 Y162.64 E172.0148
G1 X155.33 Y142.79 E173.3590
G1 X155.04 Y143.08 E173.3787
G1 X155.83 Y143.87 E173.4322
G1 X155.55 Y144.15 E173.4511
G1 X154.76 Y143.36 E173.5046
G1 X154.47 Y143.65 E173.5243
G1 X155.26 Y144.44 E173.5778
G1 X154.98 Y144.72 E173.5968
G1 X154.19 Y143.93 E173.6503
G1 X153.90 Y144.22 E173.6699
G1 X154.69 Y145.01 E173.7234
G1 X154.41 Y145.29 E173.7424
G1 X153.62 Y144.50 E173.7959
G1 X153.33 Y144.79 E173.8156
G1 X154.12 Y145.58 E173.8691
G1 X153.84 Y145.86 E173.8881
G1 X153.05 Y145.07 E173.9416
G1 X152.76 Y145.36 E173.9612
G1 X153.55 Y146.15 E174.0147
G1 X153.27 Y146.43 E174.0337
G1 X152.48 Y145.64 E174.0872
G1 X152.19 Y145.93 E174.1068
G1 X152.98 Y146.72 E174.1604
G1 X152.70 Y147.00 E174.1793
G1 X151.91 Y146.21 E174.2329
G1 X151.62 Y146.50 E174.2525
G1 X152.41 Y147.29 E174.3060
G1 X152.13 Y147.57 E174.3250
G1 X151.34 Y146.78 E174.3785
G1 X151.05 Y147.07 E174.3981
G1 X151.84 Y147.86 E174.4517
G1 X151.56 Y148.14 E174.4706
G1 X150.77 Y147.35 E174.5241
G1 X150.48 Y147.64 E174.5438
G1 X151.27 Y148.43 E174.5973
G1 X150.99 Y148.71 E174.6163
G1 X150.20 Y147.92 E174.6698
G1 X149.91 Y148.21 E174.6894
G1 X150.70 Y149.00 E174.7429
G1 X150.42 Y149.28 E174.7619
G1 X149.63 Y148.49 E174.8154
G1 X149.34 Y148.78 E174.8351
G1 X150.13 Y149.57 E174.8886
G1 X149.85 Y149.85 E174.9075
G1 X149.06 Y149.06 E174.9611
G1 X148.77 Y149.35 E174.9807
G1 X149.56 Y150.14 E175.0342
G1 X149.28 Y150.42 E175.0532
G1 X148.49 Y149.63 E175.1067
G1 X148.20 Y149.92 E175.1263
G1 X148.99 Y150.71 E175.1798
G1 X148.71 Y150.99 E175.1988
G1 X147.92 Y150.20 E175.2523
G1 X147.63 Y150.49 E175.2720
G1 X148.42 Y151.28 E175.3255
G1 X148.14 Y151.56 E175.3445
G1 X147.35 Y150.77 E175.3980
G1 X147.06 Y151.06 E175.4176
G1 X147.85 Y151.85 E175.4711
G1 X147.57 Y152.13 E175.4901
G1 X146.78 Y151.34 E175.5436
G1 X146.49 Y151.63 E175.5633
G1 X147.28 Y152.42 E175.6168
G1 X147.00 Y152.70 E175.6357
G1 X146.21 Y151.91 E175.6893
G1 X145.92 Y152.20 E175.7089
G1 X146.71 Y152.99 E175.7624
G1 X146.43 Y153.27 E175.7814
G1 X145.64 Y152.48 E175.8349
G1 X145.35 Y152.77 E175.8545
G1 X146.14 Y153.56 E175.9081
G1 X145.86 Y153.84 E175.9270
G1 X145.07 Y153.05 E175.9805
G1 X144.78 Y153.34 E176.0002
G1 X145.57 Y154.13 E176.0537
G1 X145.29 Y154.41 E176.0727
G1 X144.50 Y153.62 E176.1262
G1 X144.21 Y153.91 E176.1458
G1 X145.00 Y154.70 E176.1993
G1 X144.72 Y154.98 E176.2183
G1 X143.93 Y154.19 E176.2718
G1 X143.64 Y154.48 E176.2915
G1 X144.44 Y155.27 E176.3453
G1 X144.15 Y155.55 E176.3646
G1 X143.36 Y154.76 E176.4181
G1 X143.07 Y155.05 E176.4378
G1 X143.87 Y155.84 E176.4916
G1 X143.71 Y156.00 E176.5025
G1 X162.76 Y175.05 E177.7928
G1 X162.63 Y175.18 E177.8016
G1 X142.79 Y155.33 E179.1458
G1 X142.50 Y155.62 E179.1654
G1 X162.35 Y175.46 E180.5096
G1 X162.06 Y175.75 E180.5292
G1 X142.22 Y155.90 E181.8734
G1 X141.93 Y156.19 E181.8930
G1 X161.78 Y176.03 E183.2372
G1 X161.49 Y176.32 E183.2568
G1 X141.65 Y156.47 E184.6010
G1 X141.36 Y156.76 E184.6206
G1 X161.21 Y176.60 E185.9648
G1 X160.92 Y176.89 E185.9845
G1 X43.18 Y59.14 E193.9597
G1 X42.90 Y59.43 E193.9790
G1 X160.64 Y177.17 E201.9539
G1 X160.35 Y177.46 E201.9736
G1 X42.61 Y59.71 E209.9488
G1 X42.39 Y59.94 E209.9641
G1 X128.32 Y145.87 E215.7844
G1 X129.87 Y147.54 E215.8935
G1 X160.07 Y177.74 E217.9391
G1 X159.78 Y178.03 E217.9587
G1 X137.04 Y155.28 E219.4993
G1 X144.21 Y163.02 E220.0046
G1 X159.50 Y178.31 E221.0402
G1 X159.21 Y178.60 E221.0599
G1 X151.38 Y170.76 E221.5906
G1 X115.15 Y129.40 F4200
G1 X115.15 Y129.40
G1 X114.36 Y128.61 E221.6441 F600
G1 X114.64 Y128.33 E221.6631
G1 X115.43 Y129.11 E221.7162
G1 X115.72 Y128.83 E221.7355
G1 X114.93 Y128.04 E221.7891
G1 X115.21 Y127.76 E221.8080
G1 X116.00 Y128.54 E221.8612
G1 X116.29 Y128.26 E221.8805
G1 X115.50 Y127.47 E221.9340
G1 X115.78 Y127.19 E221.9530
G1 X116.57 Y127.98 E222.0065
G1 X116.86 Y127.69 E222.0262
G1 X116.07 Y126.90 E222.0797
G1 X116.35 Y126.62 E222.0986
G1 X117.14 Y127.41 E222.1522
G1 X117.43 Y127.12 E222.1718
G1 X116.64 Y126.33 E222.2253
G1 X116.92 Y126.05 E222.2443
G1 X117.71 Y126.84 E222.2978
G1 X118.00 Y126.55 E222.3174
G1 X117.21 Y125.76 E222.3710
G1 X117.49 Y125.48 E222.3899
G1 X118.28 Y126.27 E222.4434
G1 X118.57 Y125.98 E222.4631
G1 X117.78 Y125.19 E222.5166
G1 X118.06 Y124.91 E222.5356
G1 X118.85 Y125.70 E222.5891
G1 X119.14 Y125.41 E222.6087
G1 X118.35 Y124.62 E222.6622
G1 X118.63 Y124.34 E222.6812
G1 X119.42 Y125.13 E222.7347
G1 X119.71 Y124.84 E222.7544
G1 X118.92 Y124.05 E222.8079
G1 X119.20 Y123.77 E222.8268
G1 X119.99 Y124.56 E222.8804
G1 X120.28 Y124.27 E222.9000
G1 X119.49 Y123.48 E222.9535
G1 X119.77 Y123.20 E222.9725
G1 X120.56 Y123.99 E223.0260
G1 X120.85 Y123.70 E223.0456
G1 X120.06 Y122.91 E223.0991
G1 X120.34 Y122.63 E223.1181
G1 X121.13 Y123.42 E223.1716
G1 X121.42 Y123.13 E223.1913
G1 X120.63 Y122.34 E223.2448
G1 X120.91 Y122.06 E223.2638
G1 X121.70 Y122.85 E223.3173
G1 X121.99 Y122.56 E223.3369
G1 X121.20 Y121.77 E223.3904
G1 X121.48 Y121.49 E223.4094
G1 X122.27 Y122.28 E223.4629
G1 X122.56 Y121.99 E223.4826
G1 X121.77 Y121.20 E223.5361
G1 X122.05 Y120.92 E223.5551
G1 X122.84 Y121.71 E223.6086
G1 X123.13 Y121.42 E223.6282
G1 X122.34 Y120.63 E223.6817
G1 X122.62 Y120.35 E223.7007
G1 X123.41 Y121.14 E223.7542
G1 X123.70 Y120.85 E223.7738
G1 X122.91 Y120.06 E223.8274
G1 X123.19 Y119.78 E223.8463
G1 X123.98 Y120.57 E223.8998
G1 X110.55 Y107.13 F4200
G1 X110.55 Y107.13
G1 X109.76 Y106.34 E223.9534 F600
G1 X109.47 Y106.63 E223.9730
G1 X110.26 Y107.42 E224.0265
G1 X109.98 Y107.70 E224.0455
G1 X109.19 Y106.91 E224.0990
G1 X108.90 Y107.20 E224.1186
G1 X109.69 Y107.99 E224.1721
G1 X109.41 Y108.27 E224.1911
G1 X108.62 Y107.48 E224.2446
G1 X108.33 Y107.77 E224.2643
G1 X109.12 Y108.56 E224.3178
G1 X108.84 Y108.84 E224.3368
G1 X108.05 Y108.05 E224.3903
G1 X107.76 Y108.34 E224.4099
G1 X108.55 Y109.13 E224.4634
G1 X108.27 Y109.41 E224.4824
G1 X107.48 Y108.62 E224.5359
G1 X107.19 Y108.91 E224.5556
G1 X107.98 Y109.70 E224.6091
G1 X107.70 Y109.98 E224.6280
G1 X106.91 Y109.19 E224.6816
G1 X106.62 Y109.48 E224.7012
G1 X107.41 Y110.27 E224.7547
G1 X107.13 Y110.55 E224.7737
G1 X106.34 Y109.76 E224.8272
G1 X106.05 Y110.05 E224.8468
G1 X106.84 Y110.84 E224.9004
G1 X106.56 Y111.12 E224.9193
G1 X105.77 Y110.33 E224.9728
G1 X105.48 Y110.62 E224.9925
G1 X106.27 Y111.41 E225.0460
G1 X105.99 Y111.69 E225.0650
G1 X105.20 Y110.90 E225.1185
G1 X104.91 Y111.19 E225.1381
G1 X105.70 Y111.98 E225.1916
G1 X105.42 Y112.26 E225.2106
G1 X104.63 Y111.47 E225.2641
G1 X104.34 Y111.76 E225.2838
G1 X105.13 Y112.55 E225.3373
G1 X104.85 Y112.83 E225.3562
G1 X104.06 Y112.04 E225.4098
G1 X103.77 Y112.33 E225.4294
G1 X104.56 Y113.12 E225.4829
G1 X104.28 Y113.40 E225.5019
G1 X103.49 Y112.61 E225.5554
G1 X103.20 Y112.90 E225.5750
G1 X103.99 Y113.69 E225.6286
G1 X103.71 Y113.97 E225.6475
G1 X102.92 Y113.18 E225.7010
G1 X102.63 Y113.47 E225.7207
G1 X103.42 Y114.26 E225.7742
G1 X103.14 Y114.54 E225.7932
G1 X102.35 Y113.75 E225.8467
G1 X102.06 Y114.04 E225.8663
G1 X102.85 Y114.82 E225.9195
G1 X102.57 Y115.11 E225.9388
G1 X101.78 Y114.32 E225.9923
G1 X101.49 Y114.61 E226.0120
G1 X102.28 Y115.39 E226.0651
G1 X102.00 Y115.68 E226.0845
G1 X101.21 Y114.89 E226.1380
G1 X100.92 Y115.17 E226.1573
G1 X101.71 Y115.96 E226.2108
G1 X88.28 Y102.53 F4200
G1 X88.28 Y102.53
G1 X87.49 Y101.74 E226.2643 F600
G1 X87.77 Y101.45 E226.2836
G1 X88.56 Y102.24 E226.3371
G1 X88.85 Y101.96 E226.3564
G1 X88.06 Y101.17 E226.4100
G1 X88.34 Y100.89 E226.4289
G1 X89.13 Y101.67 E226.4821
G1 X89.42 Y101.39 E226.5014
G1 X88.63 Y100.60 E226.5549
G1 X88.91 Y100.32 E226.5739
G1 X89.70 Y101.10 E226.6271
G1 X89.99 Y100.82 E226.6464
G1 X89.20 Y100.03 E226.6999
G1 X89.48 Y99.75 E226.7189
G1 X90.27 Y100.54 E226.7724
G1 X90.56 Y100.25 E226.7920
G1 X89.77 Y99.46 E226.8455
G1 X90.05 Y99.18 E226.8645
G1 X90.84 Y99.97 E226.9180
G1 X91.13 Y99.68 E226.9377
G1 X90.34 Y98.89 E226.9912
G1 X90.62 Y98.61 E227.0102
G1 X91.41 Y99.40 E227.0637
G1 X91.70 Y99.11 E227.0833
G1 X90.91 Y98.32 E227.1368
G1 X91.19 Y98.04 E227.1558
G1 X91.98 Y98.83 E227.2093
G1 X92.27 Y98.54 E227.2290
