;generated by ffslicer 1.30.3 09/09/23 15:19:59
;right_extruder_material: PLA
;layer_height: 0.2
;perimeter_shells: 2
;top_solid_layers: 4
;bottom_solid_layers: 3
;fill_density: 15%
;fill_pattern: hexagon
;base_print_speed: 50
;travel_speed: 80
;right_extruder_temperature: 200
;left_extruder_temperature: 0
;platform_temperature: 60
;right_extruder_temperature_raft0: 0
;left_extruder_temperature_raft0: 0
;right_extruder_temperature_reset: 
;left_extruder_temperature_reset: 
;start gcode
M140 S60 T0
M104 S200 T0
M104 S0 T1
G90
G28
G1 Z50.000 F420
G161 X Y F3300
M190 S60 T0
M109 S200 T0
M109 S0 T1
G92 E.0000
;layer_count: 75
M108 T0
G1 X156.65 Y179.77 F4800
;preExtrude:0.20
;preExtruder0
M106 S255
G1 Z.200 F420
G1 X156.65 Y179.77 F4800
G1 X145.25 Y170.71 E1.8598 F1200
G1 X23.76 Y49.22 E23.8036
G1 X23.90 Y35.59 E25.5445
;raft
;layer:0.30
;support-start
;line-support
G1 E20.5445 F2700
G1 Z.300 F420
G1 X154.56 Y161.20 F4200
G1 E25.5445 F2700
;extrude_ratio:1.25
G1 X154.56 Y161.20 F4200
G1 X153.69 Y161.20 E25.5965 F600
;extrude_ratio:1
G1 E20.5965 F2700
G1 X150.18 Y160.00 F4200
G1 E25.5965 F2700
;extrude_ratio:1.25
G1 X150.18 Y160.00 F4200
G1 X151.51 Y160.00 E25.6762 F600
G1 X151.51 Y158.92 E25.7408
G1 X148.92 Y158.92 E25.8959
;extrude_ratio:1
G1 E20.8959 F2700
G1 X148.11 Y157.88 F4200
G1 E25.8959 F2700
;extrude_ratio:1.25
G1 X148.11 Y157.88 F4200
G1 X147.69 Y157.11 E25.9484 F600
G1 X147.38 Y156.32 E25.9992
G1 X147.35 Y156.21 E26.0060
G1 X148.11 Y156.21 E26.0515
G1 X148.11 Y154.21 E26.1713
G1 X147.55 Y154.21 E26.2048
G1 X147.04 Y154.21 E26.2353
G1 X147.04 Y153.70 E26.2659
G1 X147.13 Y152.94 E26.3117
G1 X147.30 Y152.21 E26.3565
G1 X148.11 Y152.21 E26.4050
G1 X148.11 Y150.42 E26.5122
G1 X148.08 Y150.42 E26.5140
;extrude_ratio:1
G1 E21.5140 F2700
G1 X149.81 Y149.80 F4200
G1 E26.5140 F2700
;extrude_ratio:1.25
G1 X149.81 Y149.80 F4200
G1 X148.71 Y149.80 E26.5799 F600
G1 X148.71 Y149.55 E26.5948
G1 X149.05 Y149.17 E26.6253
G1 X149.54 Y148.72 E26.6652
G1 X149.81 Y148.72 E26.6813
;extrude_ratio:1
G1 E21.6813 F2700
G1 X150.41 Y148.10 F4200
G1 E26.6813 F2700
;extrude_ratio:1.25
G1 X150.41 Y148.10 F4200
G1 X157.86 Y148.10 E27.1274 F600
G1 X157.72 Y148.01 E27.1373
G1 X156.96 Y147.62 E27.1885
G1 X156.15 Y147.33 E27.2400
G1 X155.32 Y147.13 E27.2911
G1 X154.55 Y147.05 E27.3374
G1 X153.69 Y147.05 E27.3889
;extrude_ratio:1
G1 E22.3889 F2700
G1 X158.92 Y148.91 F4200
G1 E27.3889 F2700
;extrude_ratio:1.25
G1 X158.92 Y148.91 F4200
G1 X158.91 Y148.91 E27.3895 F600
G1 X158.91 Y150.21 E27.4673
G1 X160.01 Y150.21 E27.5332
G1 X160.01 Y151.50 E27.6104
G1 X158.91 Y151.50 E27.6763
;extrude_ratio:1
G1 E22.6763 F2700
G1 X160.94 Y152.21 F4200
G1 E27.6763 F2700
;extrude_ratio:1.25
G1 X160.94 Y152.21 F4200
G1 X160.61 Y152.21 E27.6960 F600
G1 X160.61 Y154.21 E27.8158
G1 X161.21 Y154.21 E27.8517
G1 X161.21 Y154.47 E27.8673
G1 X161.12 Y155.32 E27.9184
G1 X160.90 Y156.21 E27.9733
G1 X160.61 Y156.21 E27.9907
;extrude_ratio:1
G1 E22.9907 F2700
G1 X160.01 Y157.22 F4200
G1 E27.9907 F2700
;extrude_ratio:1.25
G1 X160.01 Y157.22 F4200
G1 X158.91 Y157.22 E28.0565 F600
G1 X158.91 Y158.21 E28.1158
G1 X159.91 Y158.21 E28.1757
G1 X159.76 Y158.43 E28.1916
G1 X159.20 Y159.09 E28.2434
G1 X158.57 Y159.66 E28.2943
G1 X158.07 Y160.00 E28.3305
G1 X157.21 Y160.00 E28.3820
;extrude_ratio:1
G1 E23.3820 F2700
G1 X46.11 Y48.42 F4200
G1 E28.3820 F2700
;extrude_ratio:1.25
G1 X46.11 Y48.42 F4200
G1 X40.21 Y48.42 E28.7352 F600
G1 X38.67 Y48.42 E28.8274
G1 X38.81 Y48.52 E28.8377
G1 X39.56 Y48.90 E28.8881
G1 X40.37 Y49.20 E28.9398
G1 X41.21 Y49.39 E28.9913
G1 X41.97 Y49.48 E29.0371
G1 X42.84 Y49.48 E29.0892
;extrude_ratio:1
G1 E24.0892 F2700
G1 X46.71 Y47.80 F4200
G1 E29.0892 F2700
;extrude_ratio:1.25
G1 X46.71 Y47.80 F4200
G1 X46.98 Y47.80 E29.1054 F600
G1 X47.47 Y47.36 E29.1448
G1 X47.81 Y46.97 E29.1758
G1 X47.81 Y46.72 E29.1908
G1 X46.71 Y46.72 E29.2566
;extrude_ratio:1
G1 E24.2566 F2700
G1 X48.44 Y46.10 F4200
G1 E29.2566 F2700
;extrude_ratio:1.25
G1 X48.44 Y46.10 F4200
G1 X48.41 Y46.10 E29.2584 F600
G1 X48.41 Y44.21 E29.3716
G1 X49.25 Y44.21 E29.4219
G1 X49.39 Y43.59 E29.4599
G1 X49.49 Y42.74 E29.5111
G1 X49.48 Y42.21 E29.5429
G1 X48.41 Y42.21 E29.6069
G1 X48.41 Y40.21 E29.7267
G1 X49.15 Y40.21 E29.7710
G1 X48.84 Y39.41 E29.8223
G1 X48.41 Y38.65 E29.8746
;extrude_ratio:1
G1 E24.8746 F2700
G1 X47.61 Y37.60 F4200
G1 E29.8746 F2700
;extrude_ratio:1.25
G1 X47.61 Y37.60 F4200
G1 X45.01 Y37.60 E30.0303 F600
G1 X45.01 Y36.52 E30.0949
G1 X46.35 Y36.52 E30.1752
;extrude_ratio:1
G1 E25.1752 F2700
G1 X44.41 Y35.90 F4200
G1 E30.1752 F2700
;extrude_ratio:1.25
G1 X44.41 Y35.90 F4200
G1 X39.91 Y35.90 E30.4446 F600
;extrude_ratio:1
G1 E25.4446 F2700
G1 X39.31 Y36.52 F4200
G1 E30.4446 F2700
;extrude_ratio:1.25
G1 X39.31 Y36.52 F4200
G1 X38.45 Y36.52 E30.4961 F600
G1 X37.96 Y36.87 E30.5321
G1 X37.33 Y37.44 E30.5830
G1 X36.77 Y38.09 E30.6343
G1 X36.69 Y38.21 E30.6430
G1 X37.61 Y38.21 E30.6980
G1 X37.61 Y39.30 E30.7633
G1 X36.51 Y39.30 E30.8292
;extrude_ratio:1
G1 E25.8292 F2700
G1 X35.91 Y40.21 F4200
G1 E30.8292 F2700
;extrude_ratio:1.25
G1 X35.91 Y40.21 F4200
G1 X35.66 Y40.21 E30.8441 F600
G1 X35.60 Y40.37 E30.8544
G1 X35.41 Y41.21 E30.9059
G1 X35.31 Y41.97 E30.9518
G1 X35.31 Y42.21 E30.9662
G1 X35.91 Y42.21 E31.0021
G1 X35.91 Y44.21 E31.1218
G1 X35.55 Y44.21 E31.1434
;extrude_ratio:1
G1 E26.1434 F2700
G1 X37.61 Y45.02 F4200
G1 E31.1434 F2700
;extrude_ratio:1.25
G1 X37.61 Y45.02 F4200
G1 X36.51 Y45.02 E31.2092 F600
G1 X36.51 Y46.21 E31.2805
G1 X37.61 Y46.21 E31.3463
G1 X37.61 Y47.61 E31.4302
G1 X37.60 Y47.61 E31.4308
;support-end
;shell
;extrude_ratio:1
G1 E26.4308 F2700
G1 X32.46 Y39.19 F4200
G1 E31.4308 F2700
G1 X32.46 Y39.19 F4200
G1 X39.19 Y32.46 E31.8866 F600
G1 X45.69 Y32.40 E32.1979
G1 X52.41 Y39.12 E32.6531
G1 X52.48 Y46.27 E32.9956
G1 X157.23 Y143.94 E39.8550
G1 X164.28 Y150.99 E40.3326
G1 X186.10 Y178.44 E42.0120
G1 X187.53 Y183.78 E42.2768
G1 X183.78 Y187.53 E42.5308
G1 X178.44 Y186.10 E42.7956
G1 X150.99 Y164.28 E44.4750
G1 X143.94 Y157.23 E44.9525
G1 X46.27 Y52.48 E51.8120
G1 X39.12 Y52.41 E52.1545
G1 X32.40 Y45.69 E52.6096
G1 X32.46 Y39.19 E52.9210
G1 X32.06 Y39.02 F4200
G1 X39.02 Y32.06 E53.3924 F600
G1 X45.86 Y32.00 E53.7200
G1 X52.81 Y38.95 E54.1907
G1 X52.88 Y46.10 E54.5332
G1 X157.52 Y143.66 E61.3852
G1 X164.58 Y150.72 E61.8634
G1 X186.47 Y178.26 E63.5484
G1 X187.98 Y183.90 E63.8280
G1 X183.90 Y187.98 E64.1044
G1 X178.26 Y186.47 E64.3840
G1 X150.94 Y164.76 E66.0553
G1 X150.72 Y164.58 E66.0689
G1 X143.66 Y157.52 E66.5471
G1 X46.10 Y52.88 E73.3991
G1 X38.95 Y52.81 E73.7416
G1 X32.00 Y45.86 E74.2123
G1 X32.06 Y39.02 E74.5400
G1 X34.17 Y41.90 F4200
G1 X34.17 Y41.90
G1 X34.17 Y42.90 E74.5878 F600
G1 X34.29 Y43.89 E74.6356
G1 X34.56 Y44.96 E74.6885
G1 X34.92 Y45.87 E74.7353
G1 X35.40 Y46.75 E74.7833
G1 X35.97 Y47.56 E74.8308
G1 X36.64 Y48.30 E74.8786
G1 X37.40 Y48.96 E74.9268
G1 X38.22 Y49.51 E74.9741
G1 X39.10 Y49.96 E75.0214
G1 X40.05 Y50.30 E75.0698
G1 X41.01 Y50.53 E75.1170
G1 X42.00 Y50.64 E75.1647
G1 X43.00 Y50.63 E75.2126
G1 X43.98 Y50.49 E75.2601
G1 X44.96 Y50.24 E75.3085
G1 X45.87 Y49.88 E75.3554
G1 X46.75 Y49.41 E75.4031
G1 X47.56 Y48.83 E75.4509
G1 X48.30 Y48.16 E75.4987
G1 X48.96 Y47.41 E75.5465
G1 X49.51 Y46.59 E75.5938
G1 X49.96 Y45.70 E75.6416
G1 X50.31 Y44.75 E75.6901
G1 X50.53 Y43.79 E75.7372
G1 X50.64 Y42.80 E75.7849
G1 X50.63 Y41.81 E75.8324
G1 X50.49 Y40.82 E75.8803
G1 X50.24 Y39.85 E75.9282
G1 X49.88 Y38.93 E75.9756
G1 X49.41 Y38.05 E76.0233
G1 X48.83 Y37.24 E76.0710
G1 X48.16 Y36.50 E76.1189
G1 X47.41 Y35.85 E76.1664
G1 X46.59 Y35.29 E76.2139
G1 X45.70 Y34.84 E76.2617
G1 X44.75 Y34.50 E76.3100
G1 X43.79 Y34.27 E76.3573
G1 X42.80 Y34.17 E76.4050
G1 X41.81 Y34.18 E76.4524
G1 X40.82 Y34.31 E76.5002
G1 X39.85 Y34.56 E76.5482
G1 X38.93 Y34.92 E76.5955
G1 X38.05 Y35.40 E76.6435
G1 X37.24 Y35.97 E76.6910
G1 X36.50 Y36.64 E76.7388
G1 X35.85 Y37.40 E76.7867
G1 X35.29 Y38.22 E76.8342
G1 X34.84 Y39.10 E76.8815
G1 X34.50 Y40.05 E76.9299
G1 X34.28 Y41.00 E76.9766
G1 X34.17 Y41.90 E77.0200
G1 X34.56 Y41.93 F4200
G1 X34.56 Y42.88 E77.0655 F600
G1 X34.68 Y43.82 E77.1109
G1 X34.94 Y44.83 E77.1608
G1 X35.29 Y45.71 E77.2062
G1 X35.74 Y46.54 E77.2514
G1 X36.29 Y47.31 E77.2967
G1 X36.92 Y48.02 E77.3422
G1 X37.64 Y48.63 E77.3874
G1 X38.42 Y49.16 E77.4326
G1 X39.27 Y49.59 E77.4782
G1 X40.16 Y49.92 E77.5237
G1 X41.08 Y50.13 E77.5688
G1 X42.02 Y50.24 E77.6142
G1 X42.97 Y50.23 E77.6597
G1 X43.91 Y50.10 E77.7051
G1 X44.83 Y49.86 E77.7507
G1 X45.71 Y49.52 E77.7959
G1 X46.54 Y49.07 E77.8411
G1 X47.31 Y48.52 E77.8864
G1 X48.02 Y47.88 E77.9322
G1 X48.63 Y47.17 E77.9770
G1 X49.16 Y46.38 E78.0226
G1 X49.59 Y45.54 E78.0678
G1 X49.92 Y44.65 E78.1132
G1 X50.13 Y43.72 E78.1589
G1 X50.24 Y42.78 E78.2042
G1 X50.23 Y41.83 E78.2497
G1 X50.10 Y40.90 E78.2947
G1 X49.86 Y39.98 E78.3402
G1 X49.52 Y39.10 E78.3854
G1 X49.07 Y38.26 E78.4311
G1 X48.52 Y37.49 E78.4764
G1 X47.88 Y36.79 E78.5218
G1 X47.17 Y36.17 E78.5670
G1 X46.38 Y35.64 E78.6125
G1 X45.54 Y35.21 E78.6577
G1 X44.65 Y34.88 E78.7032
G1 X43.72 Y34.67 E78.7488
G1 X42.78 Y34.56 E78.7942
G1 X41.83 Y34.58 E78.8397
G1 X40.90 Y34.70 E78.8846
G1 X39.98 Y34.94 E78.9301
G1 X39.10 Y35.29 E78.9755
G1 X38.26 Y35.74 E79.0211
G1 X37.49 Y36.29 E79.0664
G1 X36.79 Y36.92 E79.1116
G1 X36.17 Y37.64 E79.1571
G1 X35.64 Y38.42 E79.2022
G1 X35.21 Y39.27 E79.2478
G1 X34.88 Y40.16 E79.2933
G1 X34.67 Y41.08 E79.3385
G1 X34.56 Y41.93 E79.3796
G1 X34.38 Y42.89 F4200
G1 X34.49 Y43.85
G1 X34.76 Y44.88
G1 X35.11 Y45.79
G1 X35.58 Y46.64
G1 X36.14 Y47.43
G1 X36.79 Y48.15
G1 X37.52 Y48.78
G1 X38.33 Y49.33
G1 X39.19 Y49.77
G1 X50.35 Y54.96
G1 X50.35 Y54.96
G1 X59.36 Y64.62 E80.0122 F600
G1 X64.62 Y59.36 E80.3685
G1 X54.96 Y50.35 E81.0012
G1 X50.35 Y54.96 E81.3134
G1 X50.91 Y54.97 F4200
G1 X59.37 Y64.04 E81.9075 F600
G1 X64.04 Y59.37 E82.2238
G1 X54.97 Y50.91 E82.8178
G1 X50.91 Y54.97 E83.0928
G1 X61.27 Y66.67 F4200
G1 X61.27 Y66.67
G1 X73.01 Y79.25 E83.9169 F600
G1 X79.25 Y73.01 E84.3396
G1 X66.67 Y61.27 E85.1637
G1 X61.27 Y66.67 E85.5295
G1 X61.83 Y66.68 F4200
G1 X73.02 Y78.68 E86.3153 F600
G1 X78.68 Y73.02 E86.6987
G1 X66.68 Y61.83 E87.4845
G1 X61.83 Y66.68 E87.8130
G1 X74.92 Y81.30 F4200
G1 X74.92 Y81.30
G1 X86.66 Y93.89 E88.6375 F600
G1 X93.89 Y86.66 E89.1272
G1 X81.30 Y74.92 E89.9517
G1 X74.92 Y81.30 E90.3838
G1 X75.48 Y81.31 F4200
G1 X86.67 Y93.31 E91.1697 F600
G1 X93.31 Y86.67 E91.6194
G1 X81.31 Y75.48 E92.4053
G1 X75.48 Y81.31 E92.8002
G1 X88.57 Y95.94 F4200
G1 X88.57 Y95.94
G1 X100.99 Y109.26 E93.6724 F600
G1 X109.26 Y100.99 E94.2326
G1 X95.94 Y88.57 E95.1048
G1 X88.57 Y95.94 E95.6040
G1 X89.12 Y95.95 F4200
G1 X101.00 Y108.68 E96.4380 F600
G1 X108.68 Y101.00 E96.9582
G1 X95.95 Y89.12 E97.7921
G1 X89.12 Y95.95 E98.2547
G1 X102.90 Y111.31 F4200
G1 X102.90 Y111.31
G1 X115.32 Y124.63 E99.1270 F600
G1 X124.63 Y115.32 E99.7576
G1 X111.31 Y102.90 E100.6298
G1 X102.90 Y111.31 E101.1995
G1 X103.45 Y111.32 F4200
G1 X115.33 Y124.05 E102.0334 F600
G1 X124.05 Y115.33 E102.6241
G1 X111.32 Y103.45 E103.4580
G1 X103.45 Y111.32 E103.9911
G1 X117.23 Y126.68 F4200
G1 X117.23 Y126.68
G1 X128.28 Y138.53 E104.7671 F600
G1 X138.53 Y128.28 E105.4614
G1 X126.68 Y117.23 E106.2374
G1 X117.23 Y126.68 E106.8775
G1 X117.78 Y126.69 F4200
G1 X128.29 Y137.96 E107.6155 F600
G1 X137.96 Y128.29 E108.2705
G1 X126.69 Y117.78 E109.0086
G1 X117.78 Y126.69 E109.6121
G1 X130.19 Y140.58 F4200
G1 X130.19 Y140.58
G1 X141.25 Y152.44 E110.3888 F600
G1 X152.44 Y141.25 E111.1467
G1 X140.58 Y130.19 E111.9234
G1 X130.19 Y140.58 E112.6271
G1 X130.75 Y140.59 F4200
G1 X141.26 Y151.86 E113.3652 F600
G1 X151.86 Y141.26 E114.0832
G1 X140.59 Y130.75 E114.8212
G1 X130.75 Y140.59 E115.4877
G1 X141.25 Y152.05 F4200
G1 X141.25 Y152.05
G1 X145.89 Y153.63
G1 X145.89 Y153.63
G1 X145.89 Y154.62 E115.5351 F600
G1 X146.01 Y155.61 E115.5829
G1 X146.28 Y156.68 E115.6358
G1 X146.64 Y157.60 E115.6831
G1 X147.12 Y158.48 E115.7311
G1 X147.69 Y159.29 E115.7785
G1 X148.36 Y160.02 E115.8260
G1 X149.12 Y160.68 E115.8742
G1 X149.94 Y161.23 E115.9215
G1 X150.84 Y161.69 E115.9699
G1 X151.76 Y162.03 E116.0169
G1 X152.73 Y162.25 E116.0645
G1 X153.72 Y162.36 E116.1122
G1 X154.72 Y162.35 E116.1601
G1 X155.71 Y162.22 E116.2079
G1 X156.68 Y161.97 E116.2559
G1 X157.60 Y161.61 E116.3032
G1 X158.48 Y161.13 E116.3512
G1 X159.29 Y160.55 E116.3989
G1 X160.03 Y159.88 E116.4467
G1 X160.68 Y159.13 E116.4943
G1 X161.23 Y158.31 E116.5416
G1 X161.69 Y157.41 E116.5900
G1 X162.03 Y156.49 E116.6369
G1 X162.25 Y155.51 E116.6850
G1 X162.36 Y154.52 E116.7328
G1 X162.35 Y153.53 E116.7802
G1 X162.22 Y152.54 E116.8280
G1 X161.97 Y151.57 E116.8760
G1 X161.60 Y150.65 E116.9235
G1 X161.13 Y149.77 E116.9713
G1 X160.55 Y148.96 E117.0190
G1 X159.89 Y148.23 E117.0661
G1 X159.13 Y147.57 E117.1143
G1 X158.31 Y147.02 E117.1616
G1 X157.42 Y146.57 E117.2094
G1 X156.48 Y146.22 E117.2574
G1 X155.51 Y146.00 E117.3050
G1 X154.53 Y145.89 E117.3523
G1 X153.53 Y145.90 E117.4002
G1 X152.54 Y146.03 E117.4480
G1 X151.57 Y146.28 E117.4960
G1 X150.65 Y146.65 E117.5435
G1 X149.78 Y147.12 E117.5908
G1 X148.96 Y147.69 E117.6386
G1 X148.23 Y148.36 E117.6861
G1 X147.57 Y149.12 E117.7343
G1 X147.02 Y149.94 E117.7816
G1 X146.57 Y150.83 E117.8294
G1 X146.22 Y151.77 E117.8774
G1 X146.00 Y152.72 E117.9241
G1 X145.89 Y153.63 E117.9680
G1 X146.29 Y153.65 F4200
G1 X146.29 Y154.60 E118.0135 F600
G1 X146.40 Y155.54 E118.0588
G1 X146.66 Y156.55 E118.1088
G1 X147.01 Y157.43 E118.1542
G1 X147.46 Y158.26 E118.1994
G1 X148.01 Y159.04 E118.2451
G1 X148.64 Y159.74 E118.2902
G1 X149.36 Y160.36 E118.3357
G1 X150.15 Y160.89 E118.3812
G1 X150.99 Y161.32 E118.4264
G1 X151.88 Y161.64 E118.4717
G1 X152.80 Y161.86 E118.5170
G1 X153.74 Y161.96 E118.5623
G1 X154.69 Y161.95 E118.6078
G1 X155.63 Y161.82 E118.6533
G1 X156.55 Y161.59 E118.6987
G1 X157.43 Y161.24 E118.7441
G1 X158.26 Y160.79 E118.7893
G1 X159.04 Y160.24 E118.8350
G1 X159.74 Y159.61 E118.8801
G1 X160.36 Y158.89 E118.9256
G1 X160.89 Y158.10 E118.9712
G1 X161.32 Y157.26 E119.0163
G1 X161.64 Y156.37 E119.0616
G1 X161.86 Y155.45 E119.1070
G1 X161.96 Y154.50 E119.1527
G1 X161.95 Y153.56 E119.1977
G1 X161.82 Y152.62 E119.2432
G1 X161.59 Y151.70 E119.2886
G1 X161.24 Y150.82 E119.3340
G1 X160.79 Y149.99 E119.3792
G1 X160.24 Y149.21 E119.4249
G1 X159.61 Y148.51 E119.4700
G1 X158.89 Y147.89 E119.5155
G1 X158.10 Y147.36 E119.5611
G1 X157.26 Y146.93 E119.6063
G1 X156.37 Y146.61 E119.6516
G1 X155.45 Y146.39 E119.6969
G1 X154.50 Y146.29 E119.7426
G1 X153.56 Y146.30 E119.7876
G1 X152.62 Y146.43 E119.8331
G1 X151.70 Y146.66 E119.8785
G1 X150.82 Y147.01 E119.9239
G1 X149.99 Y147.46 E119.9691
G1 X149.21 Y148.01 E120.0148
G1 X148.51 Y148.64 E120.0599
G1 X147.89 Y149.36 E120.1054
G1 X147.36 Y150.15 E120.1510
G1 X146.93 Y150.99 E120.1962
G1 X146.61 Y151.88 E120.2415
G1 X146.39 Y152.80 E120.2868
G1 X146.29 Y153.65 E120.3278
G1 X146.10 Y154.61 F4200
G1 X146.22 Y155.58
G1 X146.48 Y156.61
G1 X146.84 Y157.51
G1 X147.30 Y158.36
G1 X147.86 Y159.15
G1 X148.51 Y159.87
G1 X149.25 Y160.51
G1 X179.77 Y182.18
G1 X179.77 Y182.18
G1 X179.77 Y182.65 E120.3503 F600
G1 X179.85 Y183.11 E120.3726
G1 X180.01 Y183.54 E120.3946
G1 X180.24 Y183.94 E120.4167
G1 X180.54 Y184.29 E120.4388
G1 X180.90 Y184.59 E120.4612
G1 X181.30 Y184.82 E120.4833
G1 X181.73 Y184.97 E120.5051
G1 X182.19 Y185.05 E120.5275
G1 X182.65 Y185.05 E120.5495
G1 X183.11 Y184.97 E120.5719
G1 X183.53 Y184.81 E120.5934
G1 X183.94 Y184.57 E120.6162
G1 X184.29 Y184.28 E120.6379
G1 X184.59 Y183.92 E120.6604
G1 X184.82 Y183.52 E120.6825
G1 X184.97 Y183.08 E120.7047
G1 X185.05 Y182.63 E120.7266
G1 X185.05 Y182.17 E120.7487
G1 X184.97 Y181.71 E120.7710
G1 X184.81 Y181.28 E120.7930
G1 X184.57 Y180.88 E120.8154
G1 X184.28 Y180.53 E120.8371
G1 X183.92 Y180.23 E120.8596
G1 X183.52 Y180.00 E120.8817
G1 X183.09 Y179.85 E120.9035
G1 X182.63 Y179.77 E120.9258
G1 X182.17 Y179.77 E120.9479
G1 X181.71 Y179.85 E120.9702
G1 X181.28 Y180.01 E120.9922
G1 X180.88 Y180.24 E121.0143
G1 X180.53 Y180.54 E121.0364
G1 X180.23 Y180.90 E121.0588
G1 X180.00 Y181.30 E121.0809
G1 X179.85 Y181.73 E121.1028
G1 X179.77 Y182.18 E121.1246
G1 X180.17 Y182.21 F4200
