;generated by ffslicer 1.30.3 09/09/23 13:17:38
;right_extruder_material: PLA
;layer_height: 0.2
;perimeter_shells: 2
;top_solid_layers: 4
;bottom_solid_layers: 3
;fill_density: 15%
;fill_pattern: hexagon
;base_print_speed: 50
;travel_speed: 80
;right_extruder_temperature: 200
;left_extruder_temperature: 0
;platform_temperature: 60
;right_extruder_temperature_raft0: 0
;left_extruder_temperature_raft0: 0
;right_extruder_temperature_reset: 
;left_extruder_temperature_reset: 
;start gcode
M140 S60 T0
M104 S200 T0
M104 S0 T1
G90
G28
G1 Z50.000 F420
G161 X Y F3300
M190 S60 T0
M109 S200 T0
M109 S0 T1
G92 E.0000
;layer_count: 30
M108 T0
G1 X170.69 Y184.52 F4800
;preExtrude:0.20
;preExtruder0
M106 S255
G1 Z.200 F420
G1 X170.69 Y184.52 F4800
G1 X158.94 Y184.40 E1.5008 F1200
G1 X35.46 Y60.92 E23.8040
G1 X35.60 Y47.29 E25.5449
;raft
;layer:0.30
;shell
G1 E20.5449 F2700
G1 Z.300 F420
G1 X44.17 Y50.89 F4200
G1 E25.5449 F2700
G1 X44.17 Y50.89 F4200
G1 X50.89 Y44.17 E26.0000 F600
G1 X57.39 Y44.10 E26.3114
G1 X64.11 Y50.82 E26.7665
G1 X64.18 Y57.96 E27.1085
G1 X162.11 Y155.89 E33.7416
G1 X169.11 Y155.82 E34.0769
G1 X175.83 Y162.54 E34.5321
G1 X175.90 Y169.19 E34.8506
G1 X169.19 Y175.90 E35.3051
G1 X162.54 Y175.83 E35.6236
G1 X155.82 Y169.11 E36.0788
G1 X155.89 Y162.11 E36.4140
G1 X57.96 Y64.18 E43.0471
G1 X50.82 Y64.11 E43.3891
G1 X44.10 Y57.39 E43.8443
G1 X44.17 Y50.89 E44.1556
G1 X43.77 Y50.72 F4200
G1 X50.72 Y43.77 E44.6264 F600
G1 X57.56 Y43.70 E44.9540
G1 X64.51 Y50.65 E45.4247
G1 X64.58 Y57.79 E45.7667
G1 X162.28 Y155.49 E52.3843
G1 X169.28 Y155.42 E52.7195
G1 X176.23 Y162.37 E53.1903
G1 X176.30 Y169.35 E53.5246
G1 X169.35 Y176.30 E53.9953
G1 X162.37 Y176.23 E54.3297
G1 X155.42 Y169.28 E54.8004
G1 X155.49 Y162.28 E55.1357
G1 X57.79 Y64.58 E61.7532
G1 X50.65 Y64.51 E62.0952
G1 X43.70 Y57.56 E62.5659
G1 X43.77 Y50.72 E62.8936
G1 X49.50 Y54.27 F4200
G1 X49.50 Y54.27
G1 X49.58 Y54.97 E62.9273 F600
G1 X49.80 Y55.73 E62.9652
G1 X50.10 Y56.37 E62.9991
G1 X50.48 Y56.93 E63.0315
G1 X50.94 Y57.44 E63.0644
G1 X51.48 Y57.87 E63.0974
G1 X52.07 Y58.22 E63.1303
G1 X52.71 Y58.48 E63.1634
G1 X53.38 Y58.64 E63.1964
G1 X54.05 Y58.70 E63.2286
G1 X54.75 Y58.65 E63.2622
G1 X55.41 Y58.51 E63.2945
G1 X56.06 Y58.26 E63.3279
G1 X56.66 Y57.92 E63.3609
G1 X57.19 Y57.50 E63.3933
G1 X57.67 Y57.00 E63.4265
G1 X58.06 Y56.44 E63.4592
G1 X58.36 Y55.82 E63.4921
G1 X58.57 Y55.17 E63.5249
G1 X58.68 Y54.49 E63.5579
G1 X58.69 Y53.81 E63.5904
G1 X58.59 Y53.12 E63.6238
G1 X58.40 Y52.47 E63.6562
G1 X58.10 Y51.84 E63.6897
G1 X57.72 Y51.28 E63.7221
G1 X57.26 Y50.76 E63.7553
G1 X56.73 Y50.33 E63.7880
G1 X56.13 Y49.98 E63.8213
G1 X55.50 Y49.72 E63.8539
G1 X54.83 Y49.56 E63.8869
G1 X54.15 Y49.51 E63.9196
G1 X53.46 Y49.55 E63.9527
G1 X52.79 Y49.70 E63.9856
G1 X52.15 Y49.94 E64.0183
G1 X51.55 Y50.28 E64.0513
G1 X51.01 Y50.70 E64.0841
G1 X50.54 Y51.20 E64.1170
G1 X50.15 Y51.77 E64.1500
G1 X49.84 Y52.39 E64.1832
G1 X49.63 Y53.04 E64.2160
G1 X49.53 Y53.70 E64.2479
G1 X49.50 Y54.27 E64.2753
G1 X49.90 Y54.26 F4200
G1 X49.97 Y54.89 E64.3056 F600
G1 X50.18 Y55.60 E64.3411
G1 X50.45 Y56.16 E64.3709
G1 X50.80 Y56.68 E64.4009
G1 X51.22 Y57.15 E64.4311
G1 X51.71 Y57.54 E64.4611
G1 X52.25 Y57.86 E64.4911
G1 X52.83 Y58.10 E64.5212
G1 X53.44 Y58.24 E64.5512
G1 X54.06 Y58.30 E64.5810
G1 X54.69 Y58.26 E64.6112
G1 X55.30 Y58.12 E64.6412
G1 X55.89 Y57.90 E64.6714
G1 X56.43 Y57.59 E64.7012
G1 X56.93 Y57.20 E64.7316
G1 X57.36 Y56.75 E64.7614
G1 X57.71 Y56.23 E64.7914
G1 X57.99 Y55.67 E64.8214
G1 X58.18 Y55.07 E64.8515
G1 X58.28 Y54.46 E64.8811
G1 X58.29 Y53.83 E64.9113
G1 X58.20 Y53.21 E64.9413
G1 X58.02 Y52.61 E64.9713
G1 X57.75 Y52.04 E65.0015
G1 X57.41 Y51.52 E65.0313
G1 X56.98 Y51.05 E65.0618
G1 X56.50 Y50.66 E65.0914
G1 X55.96 Y50.34 E65.1215
G1 X55.38 Y50.11 E65.1514
G1 X54.77 Y49.96 E65.1814
G1 X54.14 Y49.91 E65.2117
G1 X53.52 Y49.95 E65.2415
G1 X52.90 Y50.08 E65.2718
G1 X52.32 Y50.31 E65.3017
G1 X51.77 Y50.61 E65.3317
G1 X51.28 Y51.00 E65.3617
G1 X50.85 Y51.46 E65.3919
G1 X50.49 Y51.97 E65.4218
G1 X50.21 Y52.53 E65.4517
G1 X50.02 Y53.13 E65.4819
G1 X49.92 Y53.75 E65.5120
G1 X49.90 Y54.26 E65.5364
G1 X49.79 Y54.92 F4200
G1 X50.01 Y55.66
G1 X50.28 Y56.26
G1 X50.65 Y56.80
G1 X51.09 Y57.29
G1 X161.23 Y166.00
G1 X161.23 Y166.00
G1 X161.30 Y166.69 E65.5696 F600
G1 X161.53 Y167.46 E65.6081
G1 X161.83 Y168.09 E65.6416
G1 X162.20 Y168.65 E65.6737
G1 X162.67 Y169.16 E65.7069
G1 X163.20 Y169.60 E65.7399
G1 X163.79 Y169.95 E65.7728
G1 X164.43 Y170.20 E65.8057
G1 X165.10 Y170.36 E65.8387
G1 X165.77 Y170.42 E65.8709
G1 X166.47 Y170.38 E65.9045
G1 X167.14 Y170.23 E65.9374
G1 X167.78 Y169.98 E65.9703
G1 X168.38 Y169.64 E66.0033
G1 X168.92 Y169.22 E66.0361
G1 X169.39 Y168.72 E66.0689
G1 X169.78 Y168.16 E66.1016
G1 X170.09 Y167.54 E66.1348
G1 X170.29 Y166.89 E66.1674
G1 X170.40 Y166.21 E66.2004
G1 X170.41 Y165.53 E66.2329
G1 X170.31 Y164.84 E66.2663
G1 X170.12 Y164.19 E66.2988
G1 X169.83 Y163.56 E66.3320
G1 X169.45 Y163.00 E66.3644
G1 X168.98 Y162.49 E66.3976
G1 X168.45 Y162.05 E66.4306
G1 X167.86 Y161.70 E66.4635
G1 X167.22 Y161.45 E66.4964
G1 X166.55 Y161.29 E66.5294
G1 X165.88 Y161.23 E66.5616
G1 X165.18 Y161.27 E66.5952
G1 X164.51 Y161.42 E66.6280
G1 X163.87 Y161.67 E66.6610
G1 X163.27 Y162.01 E66.6940
G1 X162.73 Y162.43 E66.7268
G1 X162.26 Y162.93 E66.7596
G1 X161.87 Y163.49 E66.7923
G1 X161.56 Y164.11 E66.8255
G1 X161.36 Y164.76 E66.8581
G1 X161.25 Y165.43 E66.8906
G1 X161.23 Y166.00 E66.9179
G1 X161.63 Y165.98 F4200
G1 X161.70 Y166.61 E66.9483 F600
G1 X161.91 Y167.32 E66.9837
G1 X162.17 Y167.89 E67.0137
G1 X162.52 Y168.41 E67.0438
G1 X162.94 Y168.87 E67.0736
G1 X163.43 Y169.27 E67.1039
G1 X163.97 Y169.59 E67.1340
G1 X164.55 Y169.82 E67.1638
G1 X165.16 Y169.97 E67.1939
G1 X165.78 Y170.02 E67.2237
G1 X166.41 Y169.98 E67.2540
G1 X167.02 Y169.84 E67.2839
G1 X167.61 Y169.62 E67.3141
G1 X168.15 Y169.31 E67.3439
G1 X168.65 Y168.93 E67.3740
G1 X169.08 Y168.47 E67.4041
G1 X169.44 Y167.96 E67.4340
G1 X169.71 Y167.39 E67.4643
G1 X169.90 Y166.80 E67.4939
G1 X170.00 Y166.18 E67.5240
G1 X170.01 Y165.55 E67.5542
G1 X169.92 Y164.93 E67.5842
G1 X169.74 Y164.33 E67.6142
G1 X169.48 Y163.76 E67.6442
G1 X169.13 Y163.24 E67.6742
G1 X168.71 Y162.78 E67.7041
G1 X168.22 Y162.38 E67.7344
G1 X167.68 Y162.06 E67.7644
G1 X167.10 Y161.83 E67.7943
G1 X166.49 Y161.68 E67.8244
G1 X165.87 Y161.63 E67.8542
G1 X165.24 Y161.67 E67.8844
G1 X164.63 Y161.80 E67.9143
G1 X164.04 Y162.03 E67.9446
G1 X163.50 Y162.34 E67.9744
G1 X163.00 Y162.72 E68.0045
G1 X162.57 Y163.18 E68.0347
G1 X162.21 Y163.69 E68.0646
G1 X161.94 Y164.26 E68.0948
G1 X161.75 Y164.85 E68.1245
G1 X161.65 Y165.47 E68.1546
G1 X161.63 Y165.98 E68.1790
;infill
G1 X161.38 Y167.93 F4200
G1 X156.22 Y162.78 E68.5282 F600
G1 X156.16 Y168.97 F4200
G1 X156.16 Y168.97
G1 X162.69 Y175.49 E68.9701 F600
G1 X163.26 Y175.50 E68.9974
G1 X156.17 Y168.40 E69.4780
G1 X156.17 Y167.84 E69.5048
G1 X163.84 Y175.51 E70.0243
G1 X164.41 Y175.51 E70.0516
G1 X156.18 Y167.28 E70.6091
G1 X156.18 Y166.72 E70.6359
G1 X164.99 Y175.52 E71.2323
G1 X165.56 Y175.52 E71.2596
G1 X156.19 Y166.15 E71.8942
G1 X156.20 Y165.59 E71.9211
G1 X166.13 Y175.53 E72.5940
G1 X166.71 Y175.54 E72.6218
G1 X156.20 Y165.03 E73.3337
G1 X156.21 Y164.47 E73.3605
G1 X167.28 Y175.54 E74.1103
G1 X167.86 Y175.55 E74.1381
G1 X156.21 Y163.90 E74.9272
G1 X156.22 Y163.34 E74.9540
G1 X168.43 Y175.55 E75.7810
G1 X169.01 Y175.56 E75.8088
G1 X163.74 Y170.29 E76.1658
G1 X164.33 Y170.53 E76.1963
G1 X164.61 Y170.59 E76.2100
G1 X169.31 Y175.30 E76.5287
G1 X169.60 Y175.01 E76.5483
G1 X165.31 Y170.72 E76.8389
G1 X165.91 Y170.75 E76.8677
G1 X169.88 Y174.73 E77.1369
G1 X170.16 Y174.44 E77.1562
G1 X166.44 Y170.72 E77.4082
G1 X166.91 Y170.62 E77.4312
G1 X170.45 Y174.16 E77.6710
G1 X170.73 Y173.87 E77.6903
G1 X167.36 Y170.50 E77.9185
G1 X167.78 Y170.35 E77.9399
G1 X171.02 Y173.59 E78.1593
G1 X171.30 Y173.31 E78.1783
G1 X168.16 Y170.16 E78.3913
G1 X168.52 Y169.95 E78.4113
G1 X171.59 Y173.02 E78.6192
G1 X171.87 Y172.74 E78.6382
G1 X168.84 Y169.71 E78.8434
G1 X169.16 Y169.46 E78.8629
G1 X172.15 Y172.45 E79.0654
G1 X172.44 Y172.17 E79.0847
G1 X169.44 Y169.17 E79.2879
G1 X169.70 Y168.87 E79.3069
G1 X172.72 Y171.88 E79.5111
G1 X173.01 Y171.60 E79.5305
G1 X169.94 Y168.53 E79.7384
G1 X170.15 Y168.18 E79.7579
G1 X173.29 Y171.32 E79.9706
G1 X173.58 Y171.03 E79.9903
G1 X170.34 Y167.79 E80.2097
G1 X170.49 Y167.38 E80.2306
G1 X173.86 Y170.75 E80.4589
G1 X174.14 Y170.46 E80.4782
G1 X170.63 Y166.95 E80.7159
G1 X170.71 Y166.46 E80.7397
G1 X174.43 Y170.18 E80.9917
G1 X174.71 Y169.89 E81.0110
G1 X170.75 Y165.93 E81.2792
G1 X170.75 Y165.51 E81.2993
G1 X170.73 Y165.34 E81.3075
G1 X175.00 Y169.61 E81.5967
G1 X175.28 Y169.33 E81.6157
G1 X170.61 Y164.66 E81.9320
G1 X170.44 Y164.07 E81.9614
G1 X170.30 Y163.77 E81.9773
G1 X175.56 Y169.03 E82.3336
G1 X175.55 Y168.46 E82.3609
G1 X163.31 Y156.22 E83.1899
G1 X163.87 Y156.21 E83.2167
G1 X175.55 Y167.89 E84.0079
G1 X175.54 Y167.31 E84.0356
G1 X164.44 Y156.21 E84.7875
G1 X165.00 Y156.20 E84.8143
G1 X175.54 Y166.74 E85.5282
G1 X175.53 Y166.16 E85.5560
G1 X165.56 Y156.20 E86.2310
G1 X166.12 Y156.19 E86.2578
G1 X175.52 Y165.59 E86.8945
G1 X175.52 Y165.01 E86.9223
G1 X166.69 Y156.18 E87.5203
G1 X167.25 Y156.18 E87.5472
G1 X175.51 Y164.44 E88.1066
G1 X175.51 Y163.87 E88.1339
G1 X167.81 Y156.17 E88.6555
G1 X168.38 Y156.17 E88.6828
G1 X175.50 Y163.29 E89.1650
G1 X175.49 Y162.72 E89.1923
G1 X168.94 Y156.16 E89.6363
G1 X167.86 Y161.34 F4200
G1 X167.86 Y161.34
G1 X162.75 Y156.22 E89.9828 F600
G1 X162.18 Y156.23 E90.0101
G1 X167.00 Y161.04 E90.3362
G1 X166.61 Y160.95 E90.3554
G1 X166.31 Y160.92 E90.3698
G1 X59.00 Y53.62 E97.6380
G1 X59.03 Y53.78 E97.6457
G1 X59.02 Y54.20 E97.6659
G1 X165.72 Y160.90 E104.8930
G1 X165.18 Y160.93 E104.9189
G1 X58.98 Y54.74 E112.1118
G1 X58.91 Y55.23 E112.1355
G1 X164.72 Y161.03 E119.3020
G1 X164.26 Y161.15 E119.3248
G1 X58.77 Y55.66 E126.4700
G1 X58.61 Y56.07 E126.4911
G1 X163.85 Y161.31 E133.6193
G1 X163.47 Y161.50 E133.6396
G1 X58.43 Y56.45 E140.7547
G1 X58.21 Y56.81 E140.7749
G1 X163.11 Y161.70 E147.8798
G1 X162.79 Y161.95 E147.8992
G1 X57.98 Y57.14 E154.9983
G1 X57.71 Y57.44 E155.0176
G1 X162.47 Y162.20 E162.1134
G1 X162.20 Y162.50 E162.1327
G1 X57.44 Y57.74 E169.2284
G1 X57.12 Y57.99 E169.2479
G1 X161.93 Y162.80 E176.3470
G1 X161.70 Y163.13 E176.3663
G1 X56.80 Y58.23 E183.4715
G1 X56.43 Y58.44 E183.4918
G1 X161.49 Y163.49 E190.6076
G1 X161.30 Y163.87 E190.6279
G1 X56.05 Y58.62 E197.7568
G1 X55.64 Y58.78 E197.7779
G1 X161.15 Y164.29 E204.9244
G1 X161.02 Y164.73 E204.9464
G1 X55.19 Y58.90 E212.1146
G1 X54.72 Y58.99 E212.1375
G1 X160.94 Y165.22 E219.3325
G1 X160.90 Y165.74 E219.3575
G1 X54.18 Y59.03 E226.5856
G1 X53.58 Y59.00 E226.6144
G1 X160.92 Y166.34 E233.8849
G1 X160.97 Y166.76 E233.9051
G1 X161.05 Y167.03 E233.9186
G1 X156.23 Y162.21 E234.2451
G1 X156.23 Y161.97 E234.2566
G1 X58.10 Y63.84 E240.9032
G1 X57.86 Y63.84 E240.9147
G1 X52.89 Y58.87 E241.2514
G1 X52.60 Y58.81 E241.2655
G1 X52.02 Y58.57 E241.2956
G1 X57.28 Y63.83 E241.6519
G1 X56.71 Y63.83 E241.6792
G1 X44.50 Y51.62 E242.5062
G1 X44.49 Y52.18 E242.5330
G1 X56.13 Y63.82 E243.3215
G1 X55.56 Y63.82 E243.3488
G1 X44.48 Y52.74 E244.0992
G1 X44.48 Y53.31 E244.1265
G1 X54.99 Y63.81 E244.8381
G1 X54.41 Y63.81 E244.8658
G1 X44.47 Y53.87 E245.5391
G1 X44.47 Y54.43 E245.5659
G1 X53.84 Y63.80 E246.2006
G1 X53.26 Y63.79 E246.2284
G1 X44.46 Y54.99 E246.8244
G1 X44.46 Y55.56 E246.8517
G1 X52.69 Y63.79 E247.4091
G1 X52.11 Y63.78 E247.4369
G1 X44.45 Y56.12 E247.9558
G1 X44.44 Y56.68 E247.9826
G1 X51.54 Y63.78 E248.4635
G1 X50.97 Y63.77 E248.4908
G1 X44.44 Y57.24 E248.9331
G1 X49.65 Y56.20 F4200
G1 X49.65 Y56.20
G1 X44.50 Y51.05 E249.2819 F600
G1 X44.77 Y50.76 E249.3009
G1 X49.33 Y55.31 E249.6094
G1 X49.26 Y55.07 E249.6214
G1 X49.20 Y54.62 E249.6432
G1 X45.06 Y50.47 E249.9239
G1 X45.34 Y50.19 E249.9429
G1 X49.17 Y54.02 E250.2023
G1 X49.21 Y53.49 E250.2278
G1 X45.63 Y49.91 E250.4702
G1 X45.91 Y49.62 E250.4896
G1 X49.29 Y53.00 E250.7185
G1 X49.43 Y52.57 E250.7402
G1 X46.20 Y49.34 E250.9589
G1 X46.48 Y49.05 E250.9783
G1 X49.58 Y52.15 E251.1882
G1 X49.76 Y51.77 E251.2084
G1 X46.76 Y48.77 E251.4116
G1 X47.05 Y48.48 E251.4312
G1 X49.98 Y51.41 E251.6297
G1 X50.21 Y51.08 E251.6489
G1 X47.33 Y48.20 E251.8440
G1 X47.62 Y47.92 E251.8633
G1 X50.48 Y50.78 E252.0570
G1 X50.75 Y50.48 E252.0764
G1 X47.90 Y47.63 E252.2694
G1 X48.19 Y47.35 E252.2887
G1 X51.07 Y50.23 E252.4838
G1 X51.39 Y49.98 E252.5032
G1 X48.47 Y47.06 E252.7010
G1 X48.75 Y46.78 E252.7200
G1 X51.75 Y49.77 E252.9228
G1 X52.13 Y49.58 E252.9432
G1 X49.04 Y46.49 E253.1525
G1 X49.32 Y46.21 E253.1715
G1 X52.54 Y49.43 E253.3896
G1 X52.99 Y49.31 E253.4119
G1 X49.61 Y45.93 E253.6408
G1 X49.89 Y45.64 E253.6601
G1 X53.46 Y49.21 E253.9019
G1 X53.99 Y49.18 E253.9274
G1 X50.18 Y45.36 E254.1858
G1 X50.46 Y45.07 E254.2051
G1 X54.59 Y49.20 E254.4848
G1 X54.88 Y49.23 E254.4988
G1 X55.28 Y49.32 E254.5184
G1 X50.74 Y44.79 E254.8256
G1 X51.03 Y44.50 E254.8452
G1 X56.14 Y49.61 E255.1913
G1 X56.28 Y49.67 E255.1986
G1 X56.92 Y50.05 E255.2343
G1 X57.49 Y50.52 E255.2697
G1 X57.99 Y51.07 E255.3053
G1 X58.40 Y51.67 E255.3401
G1 X58.57 Y52.05 E255.3600
G1 X63.83 Y57.31 E255.7163
G1 X63.83 Y56.74 E255.7436
G1 X51.59 Y44.50 E256.5726
G1 X52.15 Y44.49 E256.5995
G1 X63.82 Y56.16 E257.3899
G1 X63.82 Y55.59 E257.4172
G1 X52.71 Y44.49 E258.1694
G1 X53.28 Y44.48 E258.1967
G1 X63.81 Y55.01 E258.9099
G1 X63.81 Y54.44 E258.9372
G1 X53.84 Y44.47 E259.6125
G1 X54.40 Y44.47 E259.6394
G1 X63.80 Y53.87 E260.2760
G1 X63.79 Y53.29 E260.3038
G1 X54.97 Y44.46 E260.9016
G1 X55.53 Y44.46 E260.9284
G1 X63.79 Y52.72 E261.4879
G1 X63.78 Y52.14 E261.5157
G1 X56.09 Y44.45 E262.0365
G1 X56.65 Y44.44 E262.0634
G1 X63.78 Y51.57 E262.5463
G1 X63.77 Y50.99 E262.5741
G1 X57.22 Y44.44 E263.0177
G1 X58.89 Y52.93 F4200
G1 X58.89 Y52.93
G1 X63.84 Y57.89 E263.3533 F600
;percent
;layer:0.20
;shell
G1 Z.500 F420
G1 X54.59 Y58.46 F4800
G1 X53.94 Y58.49
G1 X53.29 Y58.42
G1 X52.65 Y58.24
G1 X52.05 Y57.98
G1 X51.50 Y57.63
G1 X51.00 Y57.21
G1 X44.17 Y50.89
G1 X44.17 Y50.89
G1 X50.89 Y44.17 E263.6568 F1500
G1 X57.39 Y44.10 E263.8644
G1 X64.11 Y50.82 E264.1678
G1 X64.18 Y57.96 E264.3958
G1 X162.11 Y155.89 E268.8179
G1 X169.11 Y155.82 E269.0414
G1 X175.83 Y162.54 E269.3448
G1 X175.90 Y169.19 E269.5572
G1 X169.19 Y175.90 E269.8602
G1 X162.54 Y175.83 E270.0725
G1 X155.82 Y169.11 E270.3760
G1 X155.89 Y162.11 E270.5995
G1 X57.96 Y64.18 E275.0216
G1 X50.82 Y64.11 E275.2496
G1 X44.10 Y57.39 E275.5530
G1 X44.17 Y50.89 E275.7605
G1 X43.77 Y50.72 F4800
G1 X50.72 Y43.77 E276.0744 F1500
G1 X57.56 Y43.70 E276.2928
G1 X64.51 Y50.65 E276.6066
G1 X64.58 Y57.79 E276.8346
G1 X162.28 Y155.49 E281.2463
G1 X169.28 Y155.42 E281.4699
G1 X176.23 Y162.37 E281.7837
G1 X176.30 Y169.35 E282.0066
G1 X169.35 Y176.30 E282.3204
G1 X162.37 Y176.23 E282.5433
G1 X155.42 Y169.28 E282.8571
G1 X155.49 Y162.28 E283.0807
G1 X57.79 Y64.58 E287.4924
G1 X50.65 Y64.51 E287.7203
G1 X43.70 Y57.56 E288.0342
G1 X43.77 Y50.72 E288.2526
G1 X49.50 Y54.27 F4800
G1 X49.50 Y54.27
G1 X49.58 Y54.96 E288.2748 F1500
G1 X49.76 Y55.62 E288.2966
G1 X50.03 Y56.25 E288.3185
G1 X50.40 Y56.83 E288.3405
G1 X50.85 Y57.36 E288.3627
G1 X51.37 Y57.80 E288.3844
G1 X51.95 Y58.17 E288.4064
G1 X52.58 Y58.45 E288.4284
G1 X53.25 Y58.62 E288.4505
G1 X53.93 Y58.70 E288.4723
G1 X54.62 Y58.67 E288.4944
G1 X55.30 Y58.55 E288.5165
G1 X55.94 Y58.32 E288.5382
G1 X56.55 Y58.00 E288.5602
G1 X57.10 Y57.59 E288.5821
G1 X57.59 Y57.10 E288.6042
G1 X58.00 Y56.55 E288.6261
G1 X58.32 Y55.94 E288.6481
G1 X58.55 Y55.30 E288.6698
G1 X58.67 Y54.62 E288.6919
G1 X58.70 Y53.93 E288.7139
G1 X58.62 Y53.25 E288.7358
G1 X58.45 Y52.58 E288.7579
G1 X58.17 Y51.95 E288.7799
G1 X57.80 Y51.37 E288.8019
G1 X57.36 Y50.85 E288.8236
G1 X56.83 Y50.40 E288.8458
G1 X56.25 Y50.03 E288.8677
G1 X55.62 Y49.76 E288.8896
G1 X54.96 Y49.58 E288.9115
G1 X54.27 Y49.50 E288.9337
G1 X53.59 Y49.53 E288.9554
G1 X52.91 Y49.66 E288.9775
G1 X52.27 Y49.88 E288.9991
G1 X51.65 Y50.21 E289.0215
G1 X51.10 Y50.62 E289.0434
G1 X50.62 Y51.10 E289.0651
G1 X50.21 Y51.65 E289.0870
G1 X49.88 Y52.27 E289.1094
