;generated by ffslicer 1.30.3 09/09/23 19:39:35
;right_extruder_material: PLA
;layer_height: 0.2
;perimeter_shells: 2
;top_solid_layers: 4
;bottom_solid_layers: 3
;fill_density: 15%
;fill_pattern: hexagon
;base_print_speed: 50
;travel_speed: 80
;right_extruder_temperature: 200
;left_extruder_temperature: 0
;platform_temperature: 60
;right_extruder_temperature_raft0: 0
;left_extruder_temperature_raft0: 0
;right_extruder_temperature_reset: 
;left_extruder_temperature_reset: 
;start gcode
M140 S60 T0
M104 S200 T0
M104 S0 T1
G90
G28
G1 Z50.000 F420
G161 X Y F3300
M190 S60 T0
M109 S200 T0
M109 S0 T1
G92 E.0000
;layer_count: 30
M108 T0
G1 X170.69 Y184.52 F4800
;preExtrude:0.20
;preExtruder0
M106 S255
G1 Z.200 F420
G1 X170.69 Y184.52 F4800
G1 X158.94 Y184.40 E1.5008 F1200
G1 X35.46 Y60.92 E23.8040
G1 X35.60 Y47.29 E25.5449
;raft
;layer:0.30
;support-start
;line-support
G1 E20.5449 F2700
G1 Z.300 F420
G1 X54.25 Y61.19 F4200
G1 E25.5449 F2700
;extrude_ratio:1.25
G1 X54.25 Y61.19 F4200
G1 X53.86 Y61.19 E25.5682 F600
G1 X53.22 Y61.15 E25.6066
G1 X52.46 Y61.01 E25.6529
G1 X51.70 Y60.78 E25.7004
G1 X50.99 Y60.48 E25.7465
G1 X50.48 Y60.20 E25.7814
G1 X56.53 Y60.20 E26.1436
G1 X57.74 Y60.20 E26.2160
G1 X58.05 Y59.99 E26.2384
G1 X58.05 Y59.76 E26.2522
G1 X58.39 Y59.76 E26.2726
G1 X58.99 Y59.26 E26.3193
G1 X59.52 Y58.70 E26.3655
G1 X59.75 Y58.38 E26.3891
G1 X59.75 Y58.20 E26.3999
G1 X56.95 Y58.20 E26.5675
G1 X56.95 Y56.96 E26.6417
G1 X58.65 Y56.96 E26.7435
G1 X58.65 Y56.20 E26.7890
G1 X60.87 Y56.20 E26.9219
G1 X60.96 Y55.94 E26.9384
G1 X61.12 Y55.16 E26.9860
G1 X61.20 Y54.40 E27.0318
G1 X61.19 Y54.20 E27.0438
G1 X58.65 Y54.20 E27.1959
G1 X58.65 Y52.20 E27.3156
G1 X59.09 Y52.20 E27.3419
G1 X60.93 Y52.20 E27.4521
G1 X60.90 Y52.06 E27.4607
G1 X60.65 Y51.35 E27.5057
G1 X60.29 Y50.63 E27.5539
G1 X60.02 Y50.20 E27.5843
G1 X56.95 Y50.20 E27.7681
G1 X56.95 Y49.56 E27.8064
G1 X54.71 Y49.56 E27.9405
G1 X51.25 Y49.56 E28.1477
G1 X51.25 Y50.20 E28.1860
G1 X48.18 Y50.20 E28.3698
G1 X48.43 Y50.16 E28.3849
G1 X48.47 Y49.78 E28.4078
G1 X48.95 Y49.22 E28.4520
G1 X49.51 Y48.69 E28.4981
G1 X49.82 Y48.46 E28.5212
G1 X50.15 Y48.46 E28.5410
G1 X50.18 Y48.20 E28.5567
G1 X58.03 Y48.20 E29.0266
G1 X57.57 Y47.91 E29.0592
G1 X56.87 Y47.56 E29.1060
G1 X56.12 Y47.30 E29.1536
G1 X55.36 Y47.12 E29.2003
G1 X54.60 Y47.02 E29.2462
G1 X53.70 Y47.02 E29.3001
;extrude_ratio:1
G1 E24.3001 F2700
G1 X49.55 Y52.20 F4200
G1 E29.3001 F2700
;extrude_ratio:1.25
G1 X49.55 Y52.20 F4200
G1 X47.27 Y52.20 E29.4366 F600
G1 X47.15 Y52.64 E29.4639
G1 X47.04 Y53.42 E29.5111
G1 X47.00 Y54.20 E29.5578
G1 X48.14 Y54.20 E29.6261
G1 X49.55 Y54.20 E29.7105
G1 X49.55 Y56.20 E29.8302
G1 X47.33 Y56.20 E29.9631
G1 X47.42 Y56.51 E29.9825
G1 X47.72 Y57.21 E30.0281
G1 X48.11 Y57.91 E30.0760
G1 X48.22 Y58.06 E30.0872
G1 X48.45 Y58.06 E30.1009
G1 X48.45 Y58.20 E30.1093
G1 X51.25 Y58.20 E30.2769
;support-end
;shell
;extrude_ratio:1
G1 E25.2769 F2700
G1 X44.17 Y50.89 F4200
G1 E30.2769 F2700
G1 X44.17 Y50.89 F4200
G1 X50.89 Y44.17 E30.7321 F600
G1 X57.39 Y44.10 E31.0434
G1 X64.11 Y50.82 E31.4986
G1 X64.18 Y57.96 E31.8406
G1 X162.11 Y155.89 E38.4737
G1 X169.11 Y155.82 E38.8090
G1 X175.83 Y162.54 E39.2642
G1 X175.90 Y169.19 E39.5827
G1 X169.19 Y175.90 E40.0372
G1 X162.54 Y175.83 E40.3557
G1 X155.82 Y169.11 E40.8108
G1 X155.89 Y162.11 E41.1461
G1 X57.96 Y64.18 E47.7792
G1 X50.82 Y64.11 E48.1212
G1 X44.10 Y57.39 E48.5764
G1 X44.17 Y50.89 E48.8877
G1 X43.77 Y50.72 F4200
G1 X50.72 Y43.77 E49.3585 F600
G1 X57.56 Y43.70 E49.6861
G1 X64.51 Y50.65 E50.1568
G1 X64.58 Y57.79 E50.4988
G1 X162.28 Y155.49 E57.1163
G1 X169.28 Y155.42 E57.4516
G1 X176.23 Y162.37 E57.9224
G1 X176.30 Y169.35 E58.2567
G1 X169.35 Y176.30 E58.7274
G1 X162.37 Y176.23 E59.0617
G1 X155.42 Y169.28 E59.5325
G1 X155.49 Y162.28 E59.8678
G1 X57.79 Y64.58 E66.4853
G1 X50.65 Y64.51 E66.8273
G1 X43.70 Y57.56 E67.2980
G1 X43.77 Y50.72 E67.6256
G1 X45.85 Y54.21 F4200
G1 X45.85 Y54.21
G1 X45.91 Y55.12 E67.6693 F600
G1 X46.08 Y56.02 E67.7132
G1 X46.34 Y56.89 E67.7567
G1 X46.69 Y57.73 E67.8003
G1 X47.13 Y58.52 E67.8436
G1 X47.66 Y59.26 E67.8872
G1 X48.27 Y59.94 E67.9309
G1 X48.94 Y60.54 E67.9740
G1 X49.69 Y61.07 E68.0180
G1 X50.47 Y61.51 E68.0609
G1 X51.32 Y61.87 E68.1051
G1 X52.18 Y62.13 E68.1481
G1 X53.08 Y62.29 E68.1919
G1 X53.99 Y62.35 E68.2356
G1 X54.90 Y62.31 E68.2792
G1 X55.79 Y62.18 E68.3223
G1 X56.67 Y61.94 E68.3660
G1 X57.52 Y61.61 E68.4096
G1 X58.33 Y61.19 E68.4533
G1 X59.08 Y60.68 E68.4968
G1 X59.77 Y60.10 E68.5400
G1 X60.40 Y59.44 E68.5837
G1 X60.95 Y58.70 E68.6278
G1 X61.41 Y57.93 E68.6708
G1 X61.79 Y57.10 E68.7145
G1 X62.07 Y56.24 E68.7578
G1 X62.26 Y55.34 E68.8019
G1 X62.35 Y54.45 E68.8447
G1 X62.33 Y53.54 E68.8883
G1 X62.22 Y52.63 E68.9322
G1 X62.01 Y51.76 E68.9751
G1 X61.70 Y50.89 E69.0193
G1 X61.30 Y50.07 E69.0630
G1 X60.82 Y49.31 E69.1061
G1 X60.25 Y48.60 E69.1497
G1 X59.60 Y47.95 E69.1937
G1 X58.90 Y47.39 E69.2366
G1 X58.14 Y46.90 E69.2799
G1 X57.31 Y46.50 E69.3241
G1 X56.45 Y46.19 E69.3678
G1 X55.57 Y45.98 E69.4112
G1 X54.67 Y45.87 E69.4546
G1 X53.76 Y45.86 E69.4982
G1 X52.86 Y45.94 E69.5415
G1 X51.96 Y46.13 E69.5855
G1 X51.10 Y46.42 E69.6290
G1 X50.28 Y46.79 E69.6721
G1 X49.50 Y47.26 E69.7157
G1 X48.77 Y47.81 E69.7595
G1 X48.11 Y48.43 E69.8028
G1 X47.52 Y49.13 E69.8467
G1 X47.01 Y49.88 E69.8901
G1 X46.59 Y50.69 E69.9338
G1 X46.26 Y51.53 E69.9770
G1 X46.03 Y52.41 E70.0206
G1 X45.89 Y53.30 E70.0638
G1 X45.85 Y54.21 E70.1074
G1 X46.25 Y54.21 F4200
G1 X46.31 Y55.07 E70.1487 F600
G1 X46.47 Y55.92 E70.1901
G1 X46.71 Y56.75 E70.2315
G1 X47.05 Y57.55 E70.2731
G1 X47.47 Y58.30 E70.3143
G1 X47.97 Y59.01 E70.3559
G1 X48.55 Y59.65 E70.3972
G1 X49.20 Y60.23 E70.4390
G1 X49.90 Y60.73 E70.4802
G1 X50.65 Y61.15 E70.5213
G1 X51.45 Y61.49 E70.5630
G1 X52.28 Y61.74 E70.6045
G1 X53.13 Y61.89 E70.6458
G1 X53.99 Y61.95 E70.6871
G1 X54.86 Y61.92 E70.7288
G1 X55.71 Y61.79 E70.7700
G1 X56.55 Y61.56 E70.8117
G1 X57.35 Y61.25 E70.8528
G1 X58.12 Y60.85 E70.8944
G1 X58.84 Y60.36 E70.9361
G1 X59.50 Y59.80 E70.9775
G1 X60.09 Y59.18 E71.0185
G1 X60.61 Y58.49 E71.0599
G1 X61.06 Y57.74 E71.1018
G1 X61.42 Y56.96 E71.1429
G1 X61.68 Y56.13 E71.1846
G1 X61.86 Y55.29 E71.2257
G1 X61.95 Y54.43 E71.2672
G1 X61.93 Y53.56 E71.3088
G1 X61.83 Y52.70 E71.3503
G1 X61.63 Y51.86 E71.3917
G1 X61.33 Y51.05 E71.4330
G1 X60.95 Y50.27 E71.4746
G1 X60.49 Y49.54 E71.5159
G1 X59.95 Y48.87 E71.5571
G1 X59.34 Y48.25 E71.5988
G1 X58.66 Y47.71 E71.6404
G1 X57.93 Y47.25 E71.6817
G1 X57.16 Y46.87 E71.7228
G1 X56.34 Y46.58 E71.7645
G1 X55.50 Y46.38 E71.8058
G1 X54.64 Y46.27 E71.8474
G1 X53.78 Y46.26 E71.8886
G1 X52.92 Y46.34 E71.9299
G1 X52.07 Y46.52 E71.9715
G1 X51.25 Y46.79 E72.0129
G1 X50.46 Y47.15 E72.0545
G1 X49.72 Y47.59 E72.0957
G1 X49.03 Y48.11 E72.1371
G1 X48.40 Y48.71 E72.1787
G1 X47.84 Y49.37 E72.2202
G1 X47.36 Y50.08 E72.2612
G1 X46.96 Y50.85 E72.3028
G1 X46.64 Y51.66 E72.3445
G1 X46.42 Y52.49 E72.3856
G1 X46.29 Y53.35 E72.4273
G1 X46.25 Y54.21 E72.4685
G1 X46.12 Y55.10 F4200
G1 X46.28 Y55.97
G1 X46.53 Y56.82
G1 X46.88 Y57.63
G1 X47.31 Y58.41
G1 X47.83 Y59.13
G1 X48.42 Y59.79
G1 X49.08 Y60.38
G1 X49.80 Y60.89
G1 X50.57 Y61.32
G1 X57.87 Y64.41
G1 X160.74 Y165.47
G1 X160.74 Y165.47
G1 X160.74 Y166.19 E72.5030 F600
G1 X160.84 Y166.91 E72.5378
G1 X161.05 Y167.61 E72.5728
G1 X161.35 Y168.26 E72.6071
G1 X161.74 Y168.88 E72.6422
G1 X162.22 Y169.43 E72.6772
G1 X162.77 Y169.91 E72.7121
G1 X163.38 Y170.30 E72.7468
G1 X164.04 Y170.60 E72.7815
G1 X164.74 Y170.81 E72.8165
G1 X165.47 Y170.91 E72.8518
G1 X166.19 Y170.91 E72.8863
G1 X166.91 Y170.81 E72.9211
G1 X167.61 Y170.60 E72.9561
G1 X168.26 Y170.30 E72.9904
G1 X168.88 Y169.91 E73.0255
G1 X169.43 Y169.43 E73.0604
G1 X169.91 Y168.88 E73.0954
G1 X170.30 Y168.26 E73.1305
G1 X170.60 Y167.61 E73.1648
G1 X170.81 Y166.91 E73.1998
G1 X170.91 Y166.19 E73.2346
G1 X170.91 Y165.47 E73.2691
G1 X170.81 Y164.74 E73.3043
G1 X170.60 Y164.04 E73.3393
G1 X170.30 Y163.38 E73.3741
G1 X169.91 Y162.77 E73.4088
G1 X169.43 Y162.22 E73.4437
G1 X168.88 Y161.74 E73.4787
G1 X168.26 Y161.35 E73.5138
G1 X167.61 Y161.05 E73.5480
G1 X166.91 Y160.84 E73.5830
G1 X166.19 Y160.74 E73.6179
G1 X165.47 Y160.74 E73.6523
G1 X164.74 Y160.84 E73.6876
G1 X164.04 Y161.05 E73.7226
G1 X163.38 Y161.35 E73.7574
G1 X162.77 Y161.74 E73.7920
G1 X162.22 Y162.22 E73.8270
G1 X161.74 Y162.77 E73.8620
G1 X161.35 Y163.38 E73.8966
G1 X161.05 Y164.04 E73.9314
G1 X160.84 Y164.74 E73.9664
G1 X160.74 Y165.47 E74.0017
G1 X161.14 Y165.49 F4200
G1 X161.14 Y166.16 E74.0337 F600
G1 X161.23 Y166.82 E74.0656
G1 X161.42 Y167.47 E74.0981
G1 X161.70 Y168.08 E74.1302
G1 X162.06 Y168.64 E74.1621
G1 X162.50 Y169.15 E74.1944
G1 X163.01 Y169.59 E74.2266
G1 X163.57 Y169.95 E74.2585
G1 X164.18 Y170.23 E74.2907
G1 X164.83 Y170.42 E74.3231
G1 X165.49 Y170.51 E74.3550
G1 X166.16 Y170.51 E74.3871
G1 X166.82 Y170.42 E74.4190
G1 X167.47 Y170.23 E74.4514
G1 X168.08 Y169.95 E74.4836
G1 X168.64 Y169.59 E74.5155
G1 X169.15 Y169.15 E74.5477
G1 X169.59 Y168.64 E74.5800
G1 X169.95 Y168.08 E74.6119
G1 X170.23 Y167.47 E74.6440
G1 X170.42 Y166.82 E74.6764
G1 X170.51 Y166.16 E74.7084
G1 X170.51 Y165.49 E74.7404
G1 X170.42 Y164.83 E74.7723
G1 X170.23 Y164.18 E74.8048
G1 X169.95 Y163.57 E74.8369
G1 X169.59 Y163.01 E74.8688
G1 X169.15 Y162.50 E74.9011
G1 X168.64 Y162.06 E74.9333
G1 X168.08 Y161.70 E74.9652
G1 X167.47 Y161.42 E74.9974
G1 X166.82 Y161.23 E75.0298
G1 X166.16 Y161.14 E75.0617
G1 X165.49 Y161.14 E75.0938
G1 X164.83 Y161.23 E75.1257
G1 X164.18 Y161.42 E75.1581
G1 X163.57 Y161.70 E75.1903
G1 X163.01 Y162.06 E75.2222
G1 X162.50 Y162.50 E75.2544
G1 X162.06 Y163.01 E75.2867
G1 X161.70 Y163.57 E75.3186
G1 X161.42 Y164.18 E75.3507
G1 X161.23 Y164.83 E75.3832
G1 X161.14 Y165.49 E75.4151
;infill
G1 X160.95 Y166.17 F4200
G1 X161.05 Y166.86
G1 X161.91 Y169.60
G1 X161.91 Y169.60
G1 X156.21 Y163.90 E75.8011 F600
G1 X156.22 Y163.34 E75.8280
G1 X160.83 Y167.95 E76.1402
G1 X160.73 Y167.73 E76.1518
G1 X160.54 Y167.09 E76.1838
G1 X156.22 Y162.77 E76.4764
G1 X156.16 Y168.97 F4200
G1 X156.16 Y168.97
G1 X162.69 Y175.49 E76.9183 F600
G1 X163.26 Y175.50 E76.9456
G1 X156.17 Y168.40 E77.4262
G1 X156.17 Y167.84 E77.4530
G1 X163.84 Y175.51 E77.9726
G1 X164.41 Y175.51 E77.9999
G1 X156.18 Y167.28 E78.5573
G1 X156.18 Y166.72 E78.5841
G1 X164.99 Y175.52 E79.1805
G1 X165.56 Y175.52 E79.2078
G1 X156.19 Y166.15 E79.8425
G1 X156.19 Y165.59 E79.8693
G1 X166.13 Y175.53 E80.5425
G1 X166.71 Y175.54 E80.5703
G1 X156.20 Y165.03 E81.2822
G1 X156.21 Y164.46 E81.3095
G1 X167.28 Y175.54 E82.0596
G1 X167.86 Y175.55 E82.0874
G1 X162.05 Y169.74 E82.4810
G1 X162.56 Y170.18 E82.5132
G1 X163.22 Y170.60 E82.5507
G1 X163.70 Y170.82 E82.5760
G1 X168.43 Y175.55 E82.8964
G1 X169.01 Y175.56 E82.9241
G1 X164.56 Y171.11 E83.2256
G1 X165.24 Y171.22 E83.2585
G1 X169.31 Y175.30 E83.5346
G1 X169.60 Y175.01 E83.5542
G1 X165.84 Y171.25 E83.8089
G1 X166.38 Y171.23 E83.8348
G1 X169.88 Y174.73 E84.0718
G1 X170.16 Y174.44 E84.0911
G1 X166.88 Y171.16 E84.3133
G1 X167.33 Y171.04 E84.3356
G1 X170.45 Y174.16 E84.5469
G1 X170.73 Y173.87 E84.5662
G1 X167.76 Y170.91 E84.7671
G1 X168.15 Y170.73 E84.7876
G1 X171.02 Y173.59 E84.9817
G1 X171.30 Y173.31 E85.0007
G1 X168.53 Y170.54 E85.1883
G1 X168.88 Y170.31 E85.2083
G1 X171.59 Y173.02 E85.3919
G1 X171.87 Y172.74 E85.4109
G1 X169.21 Y170.07 E85.5914
G1 X169.51 Y169.81 E85.6104
G1 X172.15 Y172.45 E85.7892
G1 X172.44 Y172.17 E85.8085
G1 X169.80 Y169.53 E85.9873
G1 X170.06 Y169.22 E86.0067
G1 X172.72 Y171.88 E86.1869
G1 X173.01 Y171.60 E86.2062
G1 X170.30 Y168.90 E86.3894
G1 X170.52 Y168.55 E86.4092
G1 X173.29 Y171.32 E86.5968
G1 X173.58 Y171.03 E86.6164
G1 X170.72 Y168.17 E86.8102
G1 X170.90 Y167.78 E86.8307
G1 X173.86 Y170.75 E87.0316
G1 X174.14 Y170.46 E87.0509
G1 X171.03 Y167.35 E87.2615
G1 X171.15 Y166.90 E87.2838
G1 X174.43 Y170.18 E87.5060
G1 X174.71 Y169.89 E87.5253
G1 X171.22 Y166.41 E87.7613
G1 X171.25 Y166.21 E87.7710
G1 X171.25 Y165.87 E87.7873
G1 X175.00 Y169.61 E88.0410
G1 X175.28 Y169.33 E88.0599
G1 X171.23 Y165.27 E88.3346
G1 X171.12 Y164.60 E88.3671
G1 X175.56 Y169.03 E88.6675
G1 X175.55 Y168.46 E88.6948
G1 X170.85 Y163.75 E89.0135
G1 X170.60 Y163.22 E89.0416
G1 X170.18 Y162.56 E89.0790
G1 X169.91 Y162.25 E89.0987
G1 X175.55 Y167.89 E89.4807
G1 X175.54 Y167.31 E89.5085
G1 X164.44 Y156.21 E90.2603
G1 X165.00 Y156.20 E90.2872
G1 X175.54 Y166.74 E91.0011
G1 X175.53 Y166.16 E91.0289
G1 X165.56 Y156.20 E91.7038
G1 X166.12 Y156.19 E91.7306
G1 X175.52 Y165.59 E92.3673
G1 X175.52 Y165.01 E92.3951
G1 X166.69 Y156.18 E92.9932
G1 X167.25 Y156.18 E93.0200
G1 X175.51 Y164.44 E93.5795
G1 X175.51 Y163.87 E93.6068
G1 X167.81 Y156.17 E94.1283
G1 X168.38 Y156.17 E94.1556
G1 X175.50 Y163.29 E94.6379
G1 X175.49 Y162.72 E94.6652
G1 X168.94 Y156.16 E95.1092
G1 X169.39 Y161.73 F4200
G1 X169.39 Y161.73
G1 X163.87 Y156.21 E95.4831 F600
G1 X163.31 Y156.22 E95.5099
G1 X167.89 Y160.80 E95.8201
G1 X167.73 Y160.73 E95.8285
G1 X167.05 Y160.52 E95.8626
G1 X162.75 Y156.22 E96.1538
G1 X162.18 Y156.23 E96.1811
G1 X166.38 Y160.42 E96.4653
G1 X165.78 Y160.40 E96.4940
G1 X62.23 Y56.84 E103.5081
G1 X62.09 Y57.27 E103.5298
G1 X165.24 Y160.42 E110.5165
G1 X164.74 Y160.49 E110.5407
G1 X61.91 Y57.66 E117.5057
G1 X61.73 Y58.05 E117.5262
G1 X164.30 Y160.61 E124.4733
G1 X163.86 Y160.75 E124.4954
G1 X61.52 Y58.41 E131.4272
G1 X61.31 Y58.76 E131.4468
G1 X163.47 Y160.93 E138.3667
G1 X163.10 Y161.12 E138.3866
G1 X61.08 Y59.10 E145.2968
G1 X60.83 Y59.42 E145.3162
G1 X162.75 Y161.35 E152.2199
G1 X162.43 Y161.59 E152.2391
G1 X60.58 Y59.74 E159.1377
G1 X60.30 Y60.03 E159.1570
G1 X162.12 Y161.85 E166.0536
G1 X161.84 Y162.13 E166.0726
G1 X60.02 Y60.32 E172.9688
G1 X59.72 Y60.59 E172.9882
G1 X161.57 Y162.44 E179.8868
G1 X161.33 Y162.77 E179.9063
G1 X59.41 Y60.85 E186.8097
G1 X59.08 Y61.09 E186.8293
G1 X161.11 Y163.12 E193.7401
G1 X160.92 Y163.49 E193.7600
G1 X58.74 Y61.32 E200.6806
G1 X58.40 Y61.54 E200.7000
G1 X160.74 Y163.88 E207.6318
G1 X160.61 Y164.32 E207.6538
G1 X58.02 Y61.73 E214.6026
G1 X57.65 Y61.93 E214.6227
G1 X160.49 Y164.77 E221.5884
G1 X160.42 Y165.27 E221.6126
G1 X57.24 Y62.08 E228.6016
G1 X56.83 Y62.24 E228.6227
G1 X160.40 Y165.81 E235.6378
G1 X160.40 Y166.21 E235.6570
G1 X160.42 Y166.41 E235.6666
G1 X156.23 Y162.21 E235.9507
G1 X156.23 Y161.97 E235.9622
G1 X58.10 Y63.84 E242.6089
G1 X57.86 Y63.84 E242.6204
G1 X56.39 Y62.37 E242.7200
G1 X55.94 Y62.50 E242.7424
G1 X57.28 Y63.83 E242.8328
G1 X56.71 Y63.83 E242.8601
G1 X55.45 Y62.57 E242.9455
G1 X54.96 Y62.65 E242.9693
G1 X56.13 Y63.82 E243.0485
G1 X55.56 Y63.82 E243.0758
G1 X54.42 Y62.67 E243.1534
G1 X53.86 Y62.68 E243.1802
G1 X54.99 Y63.81 E243.2567
G1 X54.41 Y63.81 E243.2845
G1 X53.25 Y62.64 E243.3634
G1 X53.03 Y62.63 E243.3739
G1 X52.58 Y62.54 E243.3959
G1 X53.84 Y63.80 E243.4813
G1 X53.26 Y63.79 E243.5091
G1 X51.85 Y62.38 E243.6046
G1 X51.20 Y62.19 E243.6370
G1 X51.00 Y62.10 E243.6475
G1 X52.69 Y63.79 E243.7620
G1 X52.11 Y63.78 E243.7897
G1 X49.93 Y61.59 E243.9377
G1 X44.44 Y57.24 F4200
G1 X44.44 Y57.24
G1 X50.97 Y63.77 E244.3800 F600
G1 X51.54 Y63.78 E244.4073
G1 X44.44 Y56.68 E244.8882
G1 X44.45 Y56.12 E244.9151
G1 X46.60 Y58.27 E245.0607
G1 X46.38 Y57.88 E245.0822
G1 X46.10 Y57.20 E245.1174
G1 X44.46 Y55.56 E245.2285
G1 X44.46 Y54.99 E245.2557
G1 X45.82 Y56.35 E245.3479
G1 X45.75 Y56.13 E245.3589
G1 X45.66 Y55.62 E245.3837
G1 X44.47 Y54.43 E245.4643
G1 X44.47 Y53.87 E245.4911
G1 X45.56 Y54.95 E245.5646
G1 X45.52 Y54.35 E245.5934
G1 X44.48 Y53.31 E245.6639
G1 X44.48 Y52.74 E245.6912
G1 X45.53 Y53.79 E245.7623
G1 X45.55 Y53.24 E245.7886
G1 X44.49 Y52.18 E245.8605
G1 X44.50 Y51.62 E245.8873
G1 X45.63 Y52.75 E245.9638
G1 X45.71 Y52.27 E245.9871
G1 X44.50 Y51.05 E246.0694
G1 X44.77 Y50.76 E246.0884
G1 X45.83 Y51.82 E246.1602
G1 X45.96 Y51.37 E246.1826
G1 X45.06 Y50.47 E246.2436
G1 X45.34 Y50.19 E246.2626
G1 X46.12 Y50.96 E246.3151
G1 X46.28 Y50.55 E246.3361
G1 X45.63 Y49.91 E246.3798
G1 X45.91 Y49.62 E246.3991
G1 X46.47 Y50.18 E246.4371
G1 X46.67 Y49.81 E246.4572
G1 X46.20 Y49.34 E246.4890
G1 X46.48 Y49.05 E246.5084
G1 X46.89 Y49.46 E246.5361
G1 X47.11 Y49.12 E246.5555
G1 X46.76 Y48.77 E246.5792
