;generated by ffslicer 1.30.3 09/11/23 10:26:41
;right_extruder_material: PLA
;layer_height: 0.2
;perimeter_shells: 2
;top_solid_layers: 4
;bottom_solid_layers: 3
;fill_density: 15%
;fill_pattern: hexagon
;base_print_speed: 50
;travel_speed: 80
;right_extruder_temperature: 200
;left_extruder_temperature: 0
;platform_temperature: 60
;right_extruder_temperature_raft0: 0
;left_extruder_temperature_raft0: 0
;right_extruder_temperature_reset: 
;left_extruder_temperature_reset: 
;start gcode
M140 S60 T0
M104 S200 T0
M104 S0 T1
G90
G28
G1 Z50.000 F420
G161 X Y F3300
M190 S60 T0
M109 S200 T0
M109 S0 T1
G92 E.0000
;layer_count: 55
M108 T0
G1 X84.89 Y84.40 F4800
;preExtrude:0.20
;preExtruder0
M106 S255
G1 Z.200 F420
G1 X84.89 Y84.40 F4800
G1 X85.91 Y84.21 E.1325 F1200
G1 X86.95 Y84.09 E.2662
G1 X87.85 Y84.06 E.3812
G1 X132.23 Y84.06 E6.0494
G1 X133.51 Y84.13 E6.2131
G1 X134.63 Y84.30 E6.3578
G1 X135.67 Y84.54 E6.4941
G1 X136.68 Y84.86 E6.6294
G1 X137.66 Y85.25 E6.7642
G1 X138.61 Y85.71 E6.8990
G1 X139.53 Y86.25 E7.0352
G1 X140.41 Y86.85 E7.1712
G1 X141.23 Y87.52 E7.3065
G1 X142.00 Y88.25 E7.4420
G1 X142.71 Y89.03 E7.5767
G1 X143.36 Y89.86 E7.7114
G1 X143.95 Y90.75 E7.8477
G1 X144.47 Y91.68 E7.9838
G1 X144.91 Y92.64 E8.1187
G1 X145.29 Y93.63 E8.2541
G1 X145.58 Y94.65 E8.3896
G1 X145.80 Y95.68 E8.5241
G1 X145.94 Y96.73 E8.6594
G1 X146.00 Y97.79 E8.7950
G1 X145.98 Y98.85 E8.9304
G1 X145.88 Y99.90 E9.0651
G1 X145.70 Y100.95 E9.2012
G1 X145.44 Y101.99 E9.3381
G1 X145.11 Y102.98 E9.4714
G1 X144.70 Y103.96 E9.6070
G1 X144.22 Y104.91 E9.7430
G1 X143.66 Y105.81 E9.8784
G1 X143.04 Y106.67 E10.0138
G1 X142.36 Y107.48 E10.1488
G1 X141.79 Y108.06 E10.2527
G1 X135.00 Y114.80 E11.4746
G1 X135.00 Y135.00 E14.0545
G1 X111.52 Y135.00 E17.0534
G1 X110.81 Y135.22 E17.1483
G1 X109.77 Y135.48 E17.2852
G1 X108.71 Y135.68 E17.4230
G1 X107.63 Y135.83 E17.5623
G1 X106.55 Y135.92 E17.7007
G1 X105.47 Y135.95 E17.8387
G1 X104.39 Y135.92 E17.9766
G1 X103.31 Y135.83 E18.1151
G1 X102.23 Y135.68 E18.2543
G1 X101.17 Y135.48 E18.3921
G1 X100.12 Y135.22 E18.5302
G1 X99.41 Y135.00 E18.6252
G1 X85.00 Y135.00 E20.4656
G1 X85.00 Y120.59 E22.3060
G1 X75.82 Y104.95 E24.6222
G1 X75.38 Y104.13 E24.7411
G1 X74.96 Y103.17 E24.8749
G1 X74.62 Y102.18 E25.0086
G1 X74.35 Y101.18 E25.1409
G1 X74.15 Y100.15 E25.2749
G1 X74.03 Y99.10 E25.4099
G1 X73.99 Y98.06 E25.5428
;raft
;layer:0.30
;support-start
;line-support
G1 E20.5428 F2700
G1 Z.300 F420
G1 X88.22 Y101.49 F4200
G1 E25.5428 F2700
;extrude_ratio:1.25
G1 X88.22 Y101.49 F4200
G1 X87.70 Y101.49 E25.5739 F600
G1 X87.06 Y101.37 E25.6129
G1 X86.76 Y101.27 E25.6319
G1 X86.19 Y100.99 E25.6699
G1 X85.91 Y100.80 E25.6901
G1 X85.65 Y100.57 E25.7109
G1 X85.65 Y100.50 E25.7151
G1 X88.66 Y100.50 E25.8953
G1 X90.15 Y100.50 E25.9845
G1 X90.15 Y100.31 E25.9959
G1 X90.60 Y100.31 E26.0228
G1 X90.97 Y99.81 E26.0601
G1 X91.25 Y99.22 E26.0992
G1 X91.40 Y98.60 E26.1374
G1 X91.41 Y98.50 E26.1434
G1 X89.68 Y98.50 E26.2469
G1 X84.58 Y98.50 E26.5523
G1 X84.55 Y97.98 E26.5835
G1 X84.63 Y97.34 E26.6221
G1 X84.70 Y97.04 E26.6405
G1 X84.92 Y96.50 E26.6754
G1 X89.27 Y96.50 E26.9359
G1 X91.07 Y96.50 E27.0436
G1 X90.86 Y96.13 E27.0691
G1 X90.61 Y95.81 E27.0934
G1 X90.15 Y95.81 E27.1209
G1 X90.15 Y95.37 E27.1473
G1 X89.68 Y95.04 E27.1817
G1 X89.40 Y94.90 E27.2004
G1 X88.78 Y94.70 E27.2394
G1 X88.25 Y94.62 E27.2715
G1 X87.73 Y94.62 E27.3026
;extrude_ratio:1
G1 E22.3026 F2700
G1 X131.73 Y94.62 F4200
G1 E27.3026 F2700
;extrude_ratio:1.25
G1 X131.73 Y94.62 F4200
G1 X132.25 Y94.62 E27.3338 F600
G1 X132.78 Y94.70 E27.3658
G1 X133.40 Y94.90 E27.4048
G1 X133.95 Y95.21 E27.4426
G1 X134.35 Y95.55 E27.4741
G1 X134.35 Y95.81 E27.4896
G1 X134.61 Y95.81 E27.5052
G1 X134.86 Y96.13 E27.5295
G1 X135.07 Y96.50 E27.5550
G1 X133.50 Y96.50 E27.6490
G1 X128.92 Y96.50 E27.9232
G1 X128.70 Y97.04 E27.9581
G1 X128.63 Y97.34 E27.9765
G1 X128.55 Y97.98 E28.0151
G1 X128.58 Y98.50 E28.0463
G1 X133.21 Y98.50 E28.3235
G1 X135.41 Y98.50 E28.4552
G1 X135.40 Y98.60 E28.4612
G1 X135.25 Y99.22 E28.4994
G1 X134.97 Y99.81 E28.5385
G1 X134.60 Y100.31 E28.5758
G1 X134.39 Y100.31 E28.5883
G1 X134.35 Y100.50 E28.6000
G1 X133.18 Y100.50 E28.6700
G1 X129.85 Y100.50 E28.8694
G1 X129.85 Y100.74 E28.8837
G1 X130.19 Y100.99 E28.9090
G1 X130.76 Y101.27 E28.9470
G1 X131.06 Y101.37 E28.9660
G1 X131.70 Y101.49 E29.0049
G1 X132.22 Y101.49 E29.0361
;support-end
;shell
;extrude_ratio:1
G1 E24.0361 F2700
G1 X82.60 Y98.06 F4200
G1 E29.0361 F2700
G1 X82.60 Y98.06 F4200
G1 X82.62 Y97.66 E29.0553 F600
G1 X82.66 Y97.25 E29.0750
G1 X82.74 Y96.86 E29.0941
G1 X82.84 Y96.47 E29.1133
G1 X82.98 Y96.08 E29.1332
G1 X83.14 Y95.71 E29.1525
G1 X83.33 Y95.35 E29.1720
G1 X83.53 Y95.02 E29.1905
G1 X83.77 Y94.70 E29.2096
G1 X84.06 Y94.37 E29.2307
G1 X84.32 Y94.11 E29.2483
G1 X84.64 Y93.83 E29.2686
G1 X84.97 Y93.59 E29.2882
G1 X85.30 Y93.38 E29.3069
G1 X85.66 Y93.19 E29.3264
G1 X86.02 Y93.03 E29.3453
G1 X86.42 Y92.89 E29.3656
G1 X86.79 Y92.79 E29.3839
G1 X87.19 Y92.72 E29.4034
G1 X87.60 Y92.67 E29.4232
G1 X88.03 Y92.66 E29.4438
G1 X131.98 Y92.66 E31.5487
G1 X132.62 Y92.69 E31.5794
G1 X133.02 Y92.75 E31.5988
G1 X133.41 Y92.84 E31.6180
G1 X133.80 Y92.97 E31.6377
G1 X134.19 Y93.12 E31.6577
G1 X134.55 Y93.30 E31.6769
G1 X134.91 Y93.51 E31.6969
G1 X135.23 Y93.73 E31.7155
G1 X135.57 Y94.00 E31.7363
G1 X135.85 Y94.27 E31.7549
G1 X136.12 Y94.57 E31.7743
G1 X136.37 Y94.89 E31.7937
G1 X136.61 Y95.25 E31.8144
G1 X136.80 Y95.59 E31.8331
G1 X136.98 Y95.97 E31.8532
G1 X137.12 Y96.35 E31.8726
G1 X137.24 Y96.73 E31.8917
G1 X137.32 Y97.15 E31.9122
G1 X137.37 Y97.54 E31.9310
G1 X137.40 Y97.96 E31.9512
G1 X137.39 Y98.36 E31.9703
G1 X137.35 Y98.78 E31.9906
G1 X137.29 Y99.16 E32.0090
G1 X137.18 Y99.57 E32.0293
G1 X137.05 Y99.96 E32.0490
G1 X136.90 Y100.33 E32.0681
G1 X136.71 Y100.69 E32.0876
G1 X136.49 Y101.05 E32.1078
G1 X136.26 Y101.37 E32.1267
G1 X136.00 Y101.69 E32.1464
G1 X135.70 Y101.99 E32.1668
G1 X135.40 Y102.25 E32.1858
G1 X135.08 Y102.49 E32.2049
G1 X134.74 Y102.71 E32.2243
G1 X134.37 Y102.91 E32.2445
G1 X133.99 Y103.07 E32.2642
G1 X133.61 Y103.21 E32.2836
G1 X133.22 Y103.32 E32.3030
G1 X132.82 Y103.39 E32.3225
G1 X132.40 Y103.44 E32.3427
G1 X131.97 Y103.46 E32.3634
G1 X122.45 Y103.46 E32.8193
G1 X121.99 Y103.48 E32.8414
G1 X121.53 Y103.53 E32.8635
G1 X121.08 Y103.63 E32.8856
G1 X120.64 Y103.76 E32.9076
G1 X120.21 Y103.93 E32.9297
G1 X119.79 Y104.14 E32.9522
G1 X119.39 Y104.38 E32.9745
G1 X119.02 Y104.64 E32.9962
G1 X118.66 Y104.95 E33.0190
G1 X118.34 Y105.27 E33.0406
G1 X118.04 Y105.63 E33.0631
G1 X117.78 Y106.00 E33.0847
G1 X117.54 Y106.40 E33.1071
G1 X117.33 Y106.82 E33.1296
G1 X117.17 Y107.25 E33.1515
G1 X117.04 Y107.69 E33.1735
G1 X116.94 Y108.15 E33.1961
G1 X116.89 Y108.60 E33.2177
G1 X116.87 Y109.05 E33.2393
G1 X116.87 Y115.92 E33.5684
G1 X116.85 Y116.57 E33.5995
G1 X116.80 Y117.17 E33.6283
G1 X116.72 Y117.79 E33.6583
G1 X116.60 Y118.39 E33.6876
G1 X116.45 Y118.99 E33.7172
G1 X116.27 Y119.58 E33.7467
G1 X116.06 Y120.16 E33.7763
G1 X115.81 Y120.73 E33.8061
G1 X115.54 Y121.29 E33.8359
G1 X115.24 Y121.82 E33.8650
G1 X114.91 Y122.33 E33.8941
G1 X114.54 Y122.84 E33.9243
G1 X114.16 Y123.32 E33.9536
G1 X113.74 Y123.79 E33.9838
G1 X113.32 Y124.21 E34.0123
G1 X112.84 Y124.64 E34.0431
G1 X112.37 Y125.02 E34.0721
G1 X111.86 Y125.38 E34.1020
G1 X111.34 Y125.71 E34.1315
G1 X110.81 Y126.01 E34.1606
G1 X110.26 Y126.29 E34.1902
G1 X109.68 Y126.53 E34.2203
G1 X109.10 Y126.75 E34.2500
G1 X108.51 Y126.93 E34.2795
G1 X107.91 Y127.08 E34.3091
G1 X107.32 Y127.19 E34.3379
G1 X106.69 Y127.28 E34.3684
G1 X106.10 Y127.33 E34.3967
G1 X105.47 Y127.34 E34.4269
G1 X104.83 Y127.33 E34.4576
G1 X104.24 Y127.28 E34.4859
G1 X103.61 Y127.19 E34.5164
G1 X103.02 Y127.08 E34.5451
G1 X102.42 Y126.93 E34.5748
G1 X101.83 Y126.75 E34.6043
G1 X101.25 Y126.53 E34.6340
G1 X100.68 Y126.29 E34.6636
G1 X100.12 Y126.01 E34.6936
G1 X99.59 Y125.71 E34.7228
G1 X99.07 Y125.38 E34.7523
G1 X98.56 Y125.02 E34.7822
G1 X98.09 Y124.63 E34.8114
G1 X97.62 Y124.22 E34.8413
G1 X97.20 Y123.80 E34.8698
G1 X96.77 Y123.31 E34.9010
G1 X96.39 Y122.84 E34.9299
G1 X96.03 Y122.33 E34.9598
G1 X95.69 Y121.82 E34.9892
G1 X95.40 Y121.29 E35.0181
G1 X95.12 Y120.73 E35.0481
G1 X94.87 Y120.16 E35.0779
G1 X94.66 Y119.58 E35.1075
G1 X94.48 Y118.99 E35.1370
G1 X94.33 Y118.39 E35.1666
G1 X94.22 Y117.79 E35.1958
G1 X94.13 Y117.17 E35.2259
G1 X94.08 Y116.58 E35.2542
G1 X94.07 Y115.95 E35.2844
G1 X94.07 Y109.03 E35.6158
G1 X94.05 Y108.58 E35.6374
G1 X93.99 Y108.13 E35.6591
G1 X93.89 Y107.67 E35.6817
G1 X93.76 Y107.22 E35.7041
G1 X93.59 Y106.80 E35.7258
G1 X93.38 Y106.38 E35.7483
G1 X93.15 Y105.98 E35.7704
G1 X92.88 Y105.61 E35.7923
G1 X92.58 Y105.25 E35.8148
G1 X92.25 Y104.93 E35.8368
G1 X91.89 Y104.63 E35.8592
G1 X91.53 Y104.37 E35.8805
G1 X91.12 Y104.12 E35.9035
G1 X90.70 Y103.92 E35.9258
G1 X90.28 Y103.76 E35.9473
G1 X89.83 Y103.63 E35.9698
G1 X89.38 Y103.53 E35.9918
G1 X88.91 Y103.47 E36.0145
G1 X87.60 Y103.44 E36.0773
G1 X87.20 Y103.40 E36.0965
G1 X86.79 Y103.32 E36.1165
G1 X86.40 Y103.21 E36.1359
G1 X86.03 Y103.08 E36.1547
G1 X85.66 Y102.92 E36.1740
G1 X85.30 Y102.73 E36.1935
G1 X84.96 Y102.52 E36.2127
G1 X84.65 Y102.29 E36.2312
G1 X84.32 Y102.00 E36.2522
G1 X84.05 Y101.74 E36.2702
G1 X83.77 Y101.41 E36.2909
G1 X83.53 Y101.09 E36.3100
G1 X83.33 Y100.76 E36.3285
G1 X83.13 Y100.39 E36.3487
G1 X82.98 Y100.05 E36.3665
G1 X82.84 Y99.64 E36.3872
G1 X82.74 Y99.25 E36.4065
G1 X82.66 Y98.87 E36.4251
G1 X82.62 Y98.45 E36.4453
G1 X82.60 Y98.06 E36.4640
G1 X82.20 Y98.06 F4200
G1 X82.22 Y97.63 E36.4846 F600
G1 X82.27 Y97.18 E36.5063
G1 X82.34 Y96.77 E36.5262
G1 X82.46 Y96.35 E36.5471
G1 X82.60 Y95.93 E36.5683
G1 X82.77 Y95.55 E36.5883
G1 X82.98 Y95.15 E36.6099
G1 X83.20 Y94.80 E36.6297
G1 X83.46 Y94.45 E36.6506
G1 X83.75 Y94.11 E36.6720
G1 X84.05 Y93.81 E36.6923
G1 X84.39 Y93.52 E36.7137
G1 X84.74 Y93.26 E36.7346
G1 X85.09 Y93.04 E36.7544
G1 X85.49 Y92.83 E36.7761
G1 X85.87 Y92.66 E36.7960
G1 X86.30 Y92.51 E36.8178
G1 X86.72 Y92.40 E36.8386
G1 X87.13 Y92.32 E36.8586
G1 X87.57 Y92.27 E36.8798
G1 X88.01 Y92.26 E36.9009
G1 X131.99 Y92.26 E39.0073
G1 X132.66 Y92.29 E39.0394
G1 X133.09 Y92.36 E39.0603
G1 X133.52 Y92.46 E39.0814
G1 X133.94 Y92.59 E39.1025
G1 X134.34 Y92.75 E39.1231
G1 X134.74 Y92.95 E39.1445
G1 X135.13 Y93.17 E39.1660
G1 X135.48 Y93.42 E39.1866
G1 X135.83 Y93.70 E39.2081
G1 X136.14 Y93.99 E39.2284
G1 X136.43 Y94.31 E39.2491
G1 X136.70 Y94.66 E39.2702
G1 X136.95 Y95.04 E39.2920
G1 X137.16 Y95.42 E39.3128
G1 X137.35 Y95.80 E39.3332
G1 X137.50 Y96.22 E39.3545
G1 X137.62 Y96.64 E39.3755
G1 X137.72 Y97.08 E39.3971
G1 X137.77 Y97.50 E39.4173
G1 X137.80 Y97.95 E39.4389
G1 X137.79 Y98.39 E39.4600
G1 X137.75 Y98.82 E39.4807
G1 X137.68 Y99.25 E39.5016
G1 X137.57 Y99.67 E39.5223
G1 X137.43 Y100.10 E39.5440
G1 X137.26 Y100.51 E39.5653
G1 X137.06 Y100.89 E39.5858
G1 X136.83 Y101.27 E39.6071
G1 X136.58 Y101.62 E39.6277
G1 X136.29 Y101.96 E39.6491
G1 X135.98 Y102.27 E39.6701
G1 X135.66 Y102.56 E39.6908
G1 X135.30 Y102.82 E39.7121
G1 X134.93 Y103.06 E39.7332
G1 X134.55 Y103.27 E39.7540
G1 X134.14 Y103.45 E39.7754
G1 X133.73 Y103.59 E39.7962
G1 X133.30 Y103.71 E39.8175
G1 X132.88 Y103.79 E39.8380
G1 X132.43 Y103.84 E39.8597
G1 X131.99 Y103.86 E39.8808
G1 X122.45 Y103.86 E40.3377
G1 X122.03 Y103.88 E40.3579
G1 X121.60 Y103.93 E40.3786
G1 X121.18 Y104.02 E40.3992
G1 X120.77 Y104.14 E40.4196
G1 X120.37 Y104.30 E40.4403
G1 X119.98 Y104.49 E40.4610
G1 X119.61 Y104.71 E40.4816
G1 X119.27 Y104.96 E40.5019
G1 X118.94 Y105.24 E40.5226
G1 X118.63 Y105.54 E40.5432
G1 X118.36 Y105.87 E40.5637
G1 X118.11 Y106.22 E40.5843
G1 X117.89 Y106.59 E40.6049
G1 X117.70 Y106.98 E40.6257
G1 X117.55 Y107.38 E40.6461
G1 X117.42 Y107.79 E40.6667
G1 X117.34 Y108.21 E40.6872
G1 X117.28 Y108.64 E40.7080
G1 X117.27 Y109.05 E40.7276
G1 X117.27 Y115.94 E41.0576
G1 X117.25 Y116.59 E41.0888
G1 X117.20 Y117.21 E41.1186
G1 X117.11 Y117.85 E41.1495
G1 X116.99 Y118.48 E41.1802
G1 X116.84 Y119.09 E41.2103
G1 X116.65 Y119.71 E41.2414
G1 X116.43 Y120.31 E41.2720
G1 X116.17 Y120.90 E41.3029
G1 X115.89 Y121.47 E41.3333
G1 X115.58 Y122.02 E41.3635
G1 X115.24 Y122.56 E41.3941
G1 X114.86 Y123.08 E41.4249
G1 X114.46 Y123.58 E41.4556
G1 X114.03 Y124.06 E41.4865
G1 X113.58 Y124.51 E41.5169
G1 X113.10 Y124.94 E41.5478
G1 X112.61 Y125.34 E41.5781
G1 X112.09 Y125.71 E41.6087
G1 X111.55 Y126.05 E41.6392
G1 X111.00 Y126.37 E41.6697
G1 X110.43 Y126.65 E41.7001
G1 X109.83 Y126.91 E41.7314
G1 X109.23 Y127.13 E41.7621
G1 X108.62 Y127.31 E41.7925
G1 X108.00 Y127.47 E41.8232
G1 X107.38 Y127.59 E41.8534
G1 X106.74 Y127.68 E41.8844
G1 X106.11 Y127.73 E41.9147
G1 X105.47 Y127.74 E41.9453
G1 X104.82 Y127.73 E41.9764
G1 X104.19 Y127.68 E42.0067
G1 X103.55 Y127.59 E42.0377
G1 X102.93 Y127.47 E42.0679
G1 X102.31 Y127.31 E42.0986
G1 X101.70 Y127.13 E42.1290
G1 X101.10 Y126.91 E42.1597
G1 X100.51 Y126.65 E42.1905
G1 X99.93 Y126.37 E42.2214
G1 X99.38 Y126.05 E42.2519
G1 X98.85 Y125.71 E42.2820
G1 X98.33 Y125.34 E42.3126
G1 X97.83 Y124.94 E42.3432
G1 X97.35 Y124.51 E42.3741
G1 X96.90 Y124.06 E42.4046
G1 X96.47 Y123.58 E42.4355
G1 X96.07 Y123.08 E42.4661
G1 X95.70 Y122.56 E42.4967
G1 X95.35 Y122.02 E42.5275
G1 X95.04 Y121.47 E42.5577
G1 X94.76 Y120.90 E42.5882
G1 X94.50 Y120.31 E42.6190
G1 X94.28 Y119.71 E42.6496
G1 X94.09 Y119.09 E42.6807
G1 X93.94 Y118.48 E42.7108
G1 X93.82 Y117.85 E42.7415
G1 X93.73 Y117.21 E42.7725
G1 X93.68 Y116.59 E42.8023
G1 X93.67 Y115.94 E42.8334
G1 X93.67 Y109.04 E43.1639
G1 X93.65 Y108.62 E43.1840
G1 X93.59 Y108.19 E43.2048
G1 X93.51 Y107.77 E43.2253
G1 X93.38 Y107.36 E43.2459
G1 X93.22 Y106.96 E43.2665
G1 X93.03 Y106.57 E43.2873
G1 X92.81 Y106.20 E43.3079
G1 X92.56 Y105.86 E43.3281
G1 X92.29 Y105.53 E43.3485
G1 X91.98 Y105.22 E43.3695
G1 X91.65 Y104.95 E43.3900
G1 X91.30 Y104.70 E43.4106
G1 X90.93 Y104.48 E43.4312
G1 X90.55 Y104.29 E43.4515
G1 X90.15 Y104.14 E43.4720
G1 X89.73 Y104.01 E43.4930
G1 X89.31 Y103.93 E43.5135
G1 X88.88 Y103.87 E43.5343
G1 X87.57 Y103.84 E43.5971
G1 X87.14 Y103.79 E43.6178
G1 X86.70 Y103.71 E43.6392
G1 X86.30 Y103.60 E43.6591
G1 X85.87 Y103.45 E43.6809
G1 X85.49 Y103.29 E43.7006
G1 X85.09 Y103.08 E43.7223
G1 X84.74 Y102.85 E43.7423
G1 X84.39 Y102.59 E43.7632
G1 X84.05 Y102.30 E43.7846
G1 X83.75 Y102.01 E43.8046
G1 X83.46 Y101.67 E43.8260
G1 X83.20 Y101.32 E43.8469
G1 X82.98 Y100.96 E43.8671
G1 X82.77 Y100.57 E43.8883
G1 X82.60 Y100.18 E43.9087
G1 X82.46 Y99.76 E43.9299
G1 X82.34 Y99.34 E43.9508
G1 X82.27 Y98.93 E43.9707
G1 X82.22 Y98.48 E43.9924
G1 X82.20 Y98.06 E44.0126
G1 X83.40 Y97.96 F4200
G1 X83.41 Y98.41 E44.0341 F600
G1 X83.47 Y98.83 E44.0544
G1 X83.56 Y99.26 E44.0755
G1 X83.69 Y99.66 E44.0956
G1 X83.86 Y100.07 E44.1169
G1 X84.07 Y100.45 E44.1377
G1 X84.31 Y100.80 E44.1580
G1 X84.58 Y101.14 E44.1788
G1 X84.89 Y101.44 E44.1994
G1 X85.21 Y101.72 E44.2198
G1 X85.58 Y101.97 E44.2412
G1 X85.94 Y102.17 E44.2609
G1 X86.35 Y102.35 E44.2824
G1 X86.76 Y102.49 E44.3031
G1 X87.17 Y102.58 E44.3232
G1 X87.60 Y102.64 E44.3440
G1 X88.03 Y102.66 E44.3646
G1 X88.47 Y102.63 E44.3858
G1 X88.88 Y102.57 E44.4056
G1 X89.31 Y102.46 E44.4269
G1 X89.72 Y102.33 E44.4475
G1 X90.11 Y102.15 E44.4680
G1 X90.48 Y101.93 E44.4886
G1 X90.83 Y101.68 E44.5093
G1 X91.16 Y101.40 E44.5300
G1 X91.46 Y101.09 E44.5506
G1 X91.73 Y100.75 E44.5714
G1 X91.96 Y100.39 E44.5919
G1 X92.17 Y100.00 E44.6131
G1 X92.33 Y99.62 E44.6329
G1 X92.46 Y99.19 E44.6544
G1 X92.54 Y98.78 E44.6744
G1 X92.59 Y98.35 E44.6951
G1 X92.60 Y97.92 E44.7157
G1 X92.56 Y97.48 E44.7369
G1 X92.49 Y97.06 E44.7573
G1 X92.38 Y96.65 E44.7776
G1 X92.23 Y96.25 E44.7981
G1 X92.04 Y95.85 E44.8193
G1 X91.82 Y95.49 E44.8395
G1 X91.56 Y95.14 E44.8604
G1 X91.27 Y94.82 E44.8810
G1 X90.96 Y94.53 E44.9014
G1 X90.60 Y94.26 E44.9229
G1 X90.23 Y94.04 E44.9435
G1 X89.86 Y93.85 E44.9635
G1 X89.45 Y93.69 E44.9845
G1 X89.04 Y93.58 E45.0049
G1 X88.61 Y93.50 E45.0258
G1 X88.19 Y93.46 E45.0460
G1 X87.75 Y93.46 E45.0671
G1 X87.32 Y93.51 E45.0878
G1 X86.90 Y93.59 E45.1083
G1 X86.49 Y93.71 E45.1288
G1 X86.08 Y93.88 E45.1500
G1 X85.71 Y94.07 E45.1700
G1 X85.34 Y94.30 E45.1908
G1 X85.00 Y94.57 E45.2116
G1 X84.69 Y94.86 E45.2320
