;generated by ffslicer 1.30.3 09/13/23 17:33:41
;right_extruder_material: PLA
;layer_height: 0.2
;perimeter_shells: 2
;top_solid_layers: 4
;bottom_solid_layers: 3
;fill_density: 15%
;fill_pattern: hexagon
;base_print_speed: 50
;travel_speed: 80
;right_extruder_temperature: 200
;left_extruder_temperature: 0
;platform_temperature: 60
;right_extruder_temperature_raft0: 0
;left_extruder_temperature_raft0: 0
;right_extruder_temperature_reset: 
;left_extruder_temperature_reset: 
;start gcode
M140 S60 T0
M104 S200 T0
M104 S0 T1
G90
G28
G1 Z50.000 F420
G161 X Y F3300
M190 S60 T0
M109 S200 T0
M109 S0 T1
G92 E.0000
;layer_count: 75
M108 T0
G1 X75.50 Y94.50 F4800
;preExtrude:0.20
;preExtruder0
M106 S255
G1 Z.200 F420
G1 X75.50 Y94.50 F4800
G1 X144.50 Y94.50 E8.8126 F1200
G1 X144.50 Y125.50 E12.7719
G1 X75.50 Y125.50 E21.5845
G1 X75.50 Y94.50 E25.5438
;raft
;layer:0.30
;shell
G1 E20.5438 F2700
G1 Z.300 F420
G1 X84.10 Y103.10 F4200
G1 E25.5438 F2700
G1 X84.10 Y103.10 F4200
G1 X135.90 Y103.10 E28.0247 F600
G1 X135.90 Y116.90 E28.6857
G1 X84.10 Y116.90 E31.1666
G1 X84.10 Y103.10 E31.8276
G1 X83.70 Y102.70 F4200
G1 X136.30 Y102.70 E34.3468 F600
G1 X136.30 Y117.30 E35.0461
G1 X83.70 Y117.30 E37.5653
G1 X83.70 Y102.70 E38.2646
G1 X108.39 Y107.30 F4200
G1 X108.39 Y107.30
G1 X108.48 Y107.84 E38.2908 F600
G1 X108.73 Y108.34 E38.3176
G1 X109.12 Y108.72 E38.3437
G1 X109.61 Y108.97 E38.3700
G1 X110.15 Y109.06 E38.3962
G1 X110.69 Y108.97 E38.4224
G1 X111.19 Y108.72 E38.4492
G1 X111.57 Y108.33 E38.4753
G1 X111.82 Y107.84 E38.5016
G1 X111.91 Y107.30 E38.5279
G1 X111.82 Y106.76 E38.5541
G1 X111.57 Y106.26 E38.5809
G1 X111.18 Y105.88 E38.6069
G1 X110.69 Y105.63 E38.6333
G1 X110.15 Y105.54 E38.6595
G1 X109.61 Y105.63 E38.6857
G1 X109.11 Y105.88 E38.7125
G1 X108.73 Y106.27 E38.7386
G1 X108.48 Y106.76 E38.7649
G1 X108.39 Y107.30 E38.7911
G1 X108.80 Y107.30 F4200
G1 X108.86 Y107.72 E38.8115 F600
G1 X109.06 Y108.10 E38.8320
G1 X109.36 Y108.40 E38.8523
G1 X109.73 Y108.59 E38.8723
G1 X110.15 Y108.65 E38.8926
G1 X110.57 Y108.59 E38.9129
G1 X110.95 Y108.39 E38.9335
G1 X111.25 Y108.09 E38.9538
G1 X111.44 Y107.72 E38.9737
G1 X111.50 Y107.30 E38.9940
G1 X111.44 Y106.88 E39.0144
G1 X111.24 Y106.50 E39.0349
G1 X110.94 Y106.20 E39.0552
G1 X110.57 Y106.01 E39.0752
G1 X110.15 Y105.95 E39.0955
G1 X109.73 Y106.01 E39.1158
G1 X109.35 Y106.21 E39.1364
G1 X109.05 Y106.51 E39.1567
G1 X108.86 Y106.88 E39.1766
G1 X108.80 Y107.30 E39.1969
G1 X108.68 Y106.83 F4200
G1 X108.90 Y106.39
G1 X109.24 Y106.05
G1 X109.67 Y105.83
G1 X110.15 Y105.76
G1 X110.62 Y105.83
G1 X118.09 Y107.30
G1 X118.09 Y107.30
G1 X118.18 Y107.84 E39.2232 F600
G1 X118.43 Y108.34 E39.2499
G1 X118.82 Y108.72 E39.2760
G1 X119.31 Y108.97 E39.3024
G1 X119.85 Y109.06 E39.3286
G1 X120.39 Y108.97 E39.3548
G1 X120.89 Y108.72 E39.3816
G1 X121.27 Y108.33 E39.4076
G1 X121.52 Y107.84 E39.4340
G1 X121.61 Y107.30 E39.4602
G1 X121.52 Y106.76 E39.4864
G1 X121.27 Y106.26 E39.5132
G1 X120.88 Y105.88 E39.5393
G1 X120.39 Y105.63 E39.5656
G1 X119.85 Y105.54 E39.5918
G1 X119.31 Y105.63 E39.6181
G1 X118.81 Y105.88 E39.6448
G1 X118.43 Y106.27 E39.6709
G1 X118.18 Y106.76 E39.6973
G1 X118.09 Y107.30 E39.7235
G1 X118.50 Y107.30 F4200
G1 X118.56 Y107.72 E39.7438 F600
G1 X118.76 Y108.10 E39.7644
G1 X119.06 Y108.40 E39.7847
G1 X119.43 Y108.59 E39.8046
G1 X119.85 Y108.65 E39.8249
G1 X120.27 Y108.59 E39.8453
G1 X120.65 Y108.39 E39.8658
G1 X120.95 Y108.09 E39.8861
G1 X121.14 Y107.72 E39.9061
G1 X121.20 Y107.30 E39.9264
G1 X121.14 Y106.88 E39.9467
G1 X120.94 Y106.50 E39.9673
G1 X120.64 Y106.20 E39.9876
G1 X120.27 Y106.01 E40.0075
G1 X119.85 Y105.95 E40.0278
G1 X119.43 Y106.01 E40.0482
G1 X119.05 Y106.21 E40.0687
G1 X118.75 Y106.51 E40.0890
G1 X118.56 Y106.88 E40.1090
G1 X118.50 Y107.30 E40.1293
;infill
G1 X118.38 Y107.78 F4200
G1 X119.39 Y109.33
G1 X119.39 Y109.33
G1 X126.62 Y116.56 E40.6190 F600
G1 X127.19 Y116.56 E40.6463
G1 X120.01 Y109.38 E41.1326
G1 X120.50 Y109.30 E41.1564
G1 X127.76 Y116.56 E41.6481
G1 X128.33 Y116.56 E41.6754
G1 X120.87 Y109.10 E42.1807
G1 X121.11 Y108.97 E42.1938
G1 X121.21 Y108.87 E42.2006
G1 X128.90 Y116.56 E42.7214
G1 X129.47 Y116.56 E42.7487
G1 X121.50 Y108.59 E43.2886
G1 X121.71 Y108.23 E43.3085
G1 X130.04 Y116.56 E43.8728
G1 X130.61 Y116.56 E43.9001
G1 X121.87 Y107.82 E44.4920
G1 X121.95 Y107.33 E44.5158
G1 X131.18 Y116.56 E45.1410
G1 X131.75 Y116.56 E45.1683
G1 X121.85 Y106.66 E45.8389
G1 X120.32 Y105.83 F4200
G1 X119.85 Y105.76
G1 X110.81 Y105.31
G1 X110.81 Y105.31
G1 X108.94 Y103.44 E45.9655 F600
G1 X108.37 Y103.44 E45.9928
G1 X110.14 Y105.20 E46.1124
G1 X109.64 Y105.28 E46.1366
G1 X107.80 Y103.44 E46.2612
G1 X107.23 Y103.44 E46.2885
G1 X109.23 Y105.44 E46.4240
G1 X108.87 Y105.64 E46.4437
G1 X106.66 Y103.44 E46.5931
G1 X106.09 Y103.44 E46.6204
G1 X108.58 Y105.93 E46.7890
G1 X108.45 Y106.07 E46.7982
G1 X108.35 Y106.26 E46.8085
G1 X105.52 Y103.44 E46.9998
G1 X104.95 Y103.44 E47.0271
G1 X108.16 Y106.64 E47.2442
G1 X108.07 Y107.13 E47.2681
G1 X104.38 Y103.44 E47.5180
G1 X103.81 Y103.44 E47.5453
G1 X108.12 Y107.74 E47.8369
G1 X84.44 Y116.55 F4200
G1 X84.44 Y116.55
G1 X85.02 Y116.56 E47.8647 F600
G1 X84.44 Y115.98 E47.9040
G1 X84.44 Y115.41 E47.9313
G1 X85.59 Y116.56 E48.0092
G1 X86.16 Y116.56 E48.0365
G1 X84.44 Y114.84 E48.1530
G1 X84.44 Y114.27 E48.1803
G1 X86.73 Y116.56 E48.3354
G1 X87.30 Y116.56 E48.3627
G1 X84.44 Y113.70 E48.5564
G1 X84.44 Y113.13 E48.5837
G1 X87.87 Y116.56 E48.8160
G1 X88.44 Y116.56 E48.8433
G1 X84.44 Y112.56 E49.1142
G1 X84.44 Y111.99 E49.1415
G1 X89.01 Y116.56 E49.4511
G1 X89.58 Y116.56 E49.4784
G1 X84.44 Y111.42 E49.8265
G1 X84.44 Y110.85 E49.8538
G1 X90.15 Y116.56 E50.2406
G1 X90.72 Y116.56 E50.2679
G1 X84.44 Y110.28 E50.6933
G1 X84.44 Y109.71 E50.7206
G1 X91.29 Y116.56 E51.1845
G1 X91.86 Y116.56 E51.2118
G1 X84.44 Y109.14 E51.7144
G1 X84.44 Y108.57 E51.7417
G1 X92.43 Y116.56 E52.2829
G1 X93.00 Y116.56 E52.3102
G1 X84.44 Y108.00 E52.8900
G1 X84.44 Y107.43 E52.9173
G1 X93.57 Y116.56 E53.5357
G1 X94.14 Y116.56 E53.5630
G1 X84.44 Y106.86 E54.2200
G1 X84.44 Y106.29 E54.2473
G1 X94.71 Y116.56 E54.9429
G1 X95.28 Y116.56 E54.9702
G1 X84.44 Y105.72 E55.7045
G1 X84.44 Y105.15 E55.7318
G1 X95.85 Y116.56 E56.5046
G1 X96.42 Y116.56 E56.5319
G1 X84.44 Y104.58 E57.3433
G1 X84.44 Y104.01 E57.3706
G1 X96.99 Y116.56 E58.2207
G1 X97.56 Y116.56 E58.2480
G1 X84.44 Y103.44 E59.1367
G1 X85.01 Y103.44 E59.1640
G1 X98.13 Y116.56 E60.0526
G1 X98.70 Y116.56 E60.0799
G1 X85.58 Y103.44 E60.9686
G1 X86.15 Y103.44 E60.9959
G1 X99.27 Y116.56 E61.8845
G1 X99.83 Y116.56 E61.9114
G1 X86.72 Y103.44 E62.7997
G1 X87.29 Y103.44 E62.8270
G1 X100.40 Y116.56 E63.7153
G1 X100.97 Y116.56 E63.7426
G1 X87.86 Y103.44 E64.6309
G1 X88.43 Y103.44 E64.6582
G1 X101.54 Y116.56 E65.5466
G1 X102.11 Y116.56 E65.5738
G1 X89.00 Y103.44 E66.4622
G1 X89.56 Y103.44 E66.4890
G1 X102.68 Y116.56 E67.3776
G1 X103.25 Y116.56 E67.4049
G1 X90.13 Y103.44 E68.2936
G1 X90.70 Y103.44 E68.3209
G1 X103.82 Y116.56 E69.2096
G1 X104.39 Y116.56 E69.2369
G1 X91.27 Y103.44 E70.1255
G1 X91.84 Y103.44 E70.1528
G1 X104.96 Y116.56 E71.0415
G1 X105.53 Y116.56 E71.0688
G1 X92.41 Y103.44 E71.9574
G1 X92.98 Y103.44 E71.9847
G1 X106.10 Y116.56 E72.8734
G1 X106.67 Y116.56 E72.9007
G1 X93.55 Y103.44 E73.7893
G1 X94.12 Y103.44 E73.8166
G1 X107.24 Y116.56 E74.7053
G1 X107.81 Y116.56 E74.7326
G1 X94.69 Y103.44 E75.6212
G1 X95.26 Y103.44 E75.6485
G1 X108.38 Y116.56 E76.5372
G1 X108.95 Y116.56 E76.5645
G1 X95.83 Y103.44 E77.4531
G1 X96.40 Y103.44 E77.4804
G1 X109.52 Y116.56 E78.3691
G1 X110.09 Y116.56 E78.3964
G1 X96.97 Y103.44 E79.2850
G1 X97.54 Y103.44 E79.3123
G1 X110.66 Y116.56 E80.2010
G1 X111.23 Y116.56 E80.2283
G1 X98.11 Y103.44 E81.1169
G1 X98.68 Y103.44 E81.1442
G1 X111.80 Y116.56 E82.0329
G1 X112.37 Y116.56 E82.0602
G1 X99.25 Y103.44 E82.9488
G1 X99.82 Y103.44 E82.9761
G1 X112.94 Y116.56 E83.8648
G1 X113.51 Y116.56 E83.8921
G1 X100.39 Y103.44 E84.7807
G1 X100.96 Y103.44 E84.8080
G1 X114.08 Y116.56 E85.6967
G1 X114.65 Y116.56 E85.7240
G1 X101.53 Y103.44 E86.6127
G1 X102.10 Y103.44 E86.6400
G1 X115.22 Y116.56 E87.5286
G1 X115.79 Y116.56 E87.5559
G1 X102.67 Y103.44 E88.4446
G1 X103.24 Y103.44 E88.4719
G1 X116.36 Y116.56 E89.3605
G1 X116.93 Y116.56 E89.3878
G1 X109.70 Y109.33 E89.8775
G1 X110.17 Y109.40 E89.9003
G1 X110.32 Y109.38 E89.9075
G1 X117.50 Y116.56 E90.3939
G1 X118.07 Y116.56 E90.4212
G1 X110.81 Y109.29 E90.9132
G1 X111.18 Y109.10 E90.9332
G1 X118.64 Y116.56 E91.4384
G1 X119.21 Y116.56 E91.4657
G1 X111.52 Y108.87 E91.9866
G1 X111.80 Y108.58 E92.0059
G1 X119.78 Y116.56 E92.5464
G1 X120.35 Y116.56 E92.5737
G1 X112.01 Y108.22 E93.1386
G1 X112.15 Y107.95 E93.1532
G1 X112.17 Y107.81 E93.1600
G1 X120.92 Y116.56 E93.7526
G1 X121.49 Y116.56 E93.7799
G1 X112.25 Y107.32 E94.4058
G1 X112.16 Y106.66 E94.4377
G1 X112.14 Y106.64 E94.4390
G1 X122.06 Y116.56 E95.1109
G1 X122.63 Y116.56 E95.1382
G1 X109.51 Y103.44 E96.0269
G1 X110.08 Y103.44 E96.0542
G1 X123.20 Y116.56 E96.9429
G1 X123.77 Y116.56 E96.9701
G1 X110.65 Y103.44 E97.8588
G1 X111.22 Y103.44 E97.8861
G1 X124.34 Y116.56 E98.7748
G1 X124.91 Y116.56 E98.8021
G1 X111.79 Y103.44 E99.6907
G1 X112.36 Y103.44 E99.7180
G1 X125.48 Y116.56 E100.6067
G1 X126.05 Y116.56 E100.6340
G1 X112.93 Y103.44 E101.5226
G1 X113.50 Y103.44 E101.5499
G1 X117.82 Y107.76 E101.8425
G1 X117.75 Y107.30 E101.8648
G1 X117.77 Y107.14 E101.8725
G1 X114.07 Y103.44 E102.1231
G1 X114.64 Y103.44 E102.1504
G1 X117.85 Y106.65 E102.3679
G1 X118.04 Y106.27 E102.3882
G1 X115.21 Y103.44 E102.5799
G1 X115.78 Y103.44 E102.6072
G1 X118.28 Y105.93 E102.7762
G1 X118.56 Y105.65 E102.7952
G1 X116.35 Y103.44 E102.9449
G1 X116.92 Y103.44 E102.9721
G1 X118.92 Y105.44 E103.1076
G1 X119.20 Y105.30 E103.1226
G1 X119.33 Y105.28 E103.1289
G1 X117.49 Y103.44 E103.2535
G1 X118.06 Y103.44 E103.2808
G1 X119.83 Y105.21 E103.4007
G1 X120.49 Y105.30 E103.4326
G1 X118.63 Y103.44 E103.5586
G1 X119.20 Y103.44 E103.5859
G1 X132.32 Y116.56 E104.4746
G1 X132.89 Y116.56 E104.5019
G1 X119.77 Y103.44 E105.3905
G1 X120.34 Y103.44 E105.4178
G1 X133.46 Y116.56 E106.3065
G1 X134.03 Y116.56 E106.3338
G1 X120.91 Y103.44 E107.2224
G1 X121.48 Y103.44 E107.2497
G1 X134.60 Y116.56 E108.1384
G1 X135.17 Y116.56 E108.1657
G1 X122.05 Y103.44 E109.0543
G1 X122.62 Y103.44 E109.0816
G1 X135.56 Y116.38 E109.9581
G1 X135.56 Y115.81 E109.9854
G1 X123.19 Y103.44 E110.8233
G1 X123.76 Y103.44 E110.8506
G1 X135.56 Y115.24 E111.6498
G1 X135.56 Y114.67 E111.6771
G1 X124.33 Y103.44 E112.4377
G1 X124.90 Y103.44 E112.4650
G1 X135.56 Y114.10 E113.1871
G1 X135.56 Y113.53 E113.2144
G1 X125.47 Y103.44 E113.8978
G1 X126.04 Y103.44 E113.9251
G1 X135.56 Y112.96 E114.5699
G1 X135.56 Y112.39 E114.5972
G1 X126.61 Y103.44 E115.2034
G1 X127.18 Y103.44 E115.2307
G1 X135.56 Y111.82 E115.7983
G1 X135.56 Y111.25 E115.8256
G1 X127.75 Y103.44 E116.3546
G1 X128.32 Y103.44 E116.3819
G1 X135.56 Y110.68 E116.8723
G1 X135.56 Y110.11 E116.8996
G1 X128.89 Y103.44 E117.3514
G1 X129.46 Y103.44 E117.3787
G1 X135.56 Y109.54 E117.7919
G1 X135.56 Y108.97 E117.8192
G1 X130.03 Y103.44 E118.1937
G1 X130.60 Y103.44 E118.2210
G1 X135.56 Y108.40 E118.5570
G1 X135.56 Y107.83 E118.5843
G1 X131.17 Y103.44 E118.8816
G1 X131.74 Y103.44 E118.9089
G1 X135.56 Y107.26 E119.1677
G1 X135.56 Y106.69 E119.1950
G1 X132.31 Y103.44 E119.4151
G1 X132.88 Y103.44 E119.4424
G1 X135.56 Y106.12 E119.6239
G1 X135.56 Y105.55 E119.6512
G1 X133.45 Y103.44 E119.7941
G1 X134.02 Y103.44 E119.8214
G1 X135.56 Y104.98 E119.9257
G1 X135.56 Y104.41 E119.9530
G1 X134.59 Y103.44 E120.0187
G1 X135.16 Y103.44 E120.0460
G1 X135.56 Y103.84 E120.0731
;percent
;layer:0.20
;shell
G1 Z.500 F420
G1 X84.10 Y103.10 F4800
G1 X84.10 Y103.10
G1 X135.90 Y103.10 E121.7271 F1500
G1 X135.90 Y116.90 E122.1677
G1 X84.10 Y116.90 E123.8217
G1 X84.10 Y103.10 E124.2623
G1 X83.70 Y102.70 F4800
G1 X136.30 Y102.70 E125.9418 F1500
G1 X136.30 Y117.30 E126.4080
G1 X83.70 Y117.30 E128.0875
G1 X83.70 Y102.70 E128.5536
G1 X108.39 Y107.30 F4800
G1 X108.39 Y107.30
G1 X108.48 Y107.85 E128.5714 F1500
G1 X108.73 Y108.34 E128.5890
G1 X109.13 Y108.73 E128.6068
G1 X109.62 Y108.97 E128.6243
G1 X110.16 Y109.06 E128.6417
G1 X110.70 Y108.97 E128.6592
G1 X111.19 Y108.72 E128.6768
G1 X111.58 Y108.32 E128.6946
G1 X111.82 Y107.83 E128.7120
G1 X111.91 Y107.29 E128.7295
G1 X111.82 Y106.75 E128.7470
G1 X111.57 Y106.26 E128.7645
G1 X111.18 Y105.87 E128.7822
G1 X110.68 Y105.63 E128.7999
G1 X110.14 Y105.54 E128.8173
G1 X109.60 Y105.63 E128.8348
G1 X109.11 Y105.88 E128.8524
G1 X108.72 Y106.28 E128.8702
G1 X108.48 Y106.76 E128.8874
G1 X108.39 Y107.30 E128.9048
G1 X108.80 Y107.30 F4800
G1 X108.87 Y107.72 E128.9184 F1500
G1 X109.06 Y108.10 E128.9320
G1 X109.36 Y108.40 E128.9455
G1 X109.74 Y108.59 E128.9591
G1 X110.16 Y108.65 E128.9726
G1 X110.57 Y108.58 E128.9859
G1 X110.95 Y108.39 E128.9995
G1 X111.25 Y108.09 E129.0130
G1 X111.44 Y107.71 E129.0266
G1 X111.50 Y107.29 E129.0402
G1 X111.43 Y106.88 E129.0534
G1 X111.24 Y106.50 E129.0670
G1 X110.94 Y106.20 E129.0805
G1 X110.56 Y106.01 E129.0941
G1 X110.14 Y105.95 E129.1076
G1 X109.73 Y106.02 E129.1209
G1 X109.35 Y106.21 E129.1345
G1 X109.05 Y106.51 E129.1480
G1 X108.86 Y106.89 E129.1616
G1 X108.80 Y107.30 E129.1748
G1 X108.68 Y106.83 F4800
G1 X108.90 Y106.40
G1 X109.24 Y106.06
G1 X109.67 Y105.84
G1 X110.14 Y105.76
G1 X110.62 Y105.83
G1 X118.09 Y107.30
G1 X118.09 Y107.30
G1 X118.18 Y107.85 E129.1926 F1500
G1 X118.43 Y108.34 E129.2102
G1 X118.83 Y108.73 E129.2280
G1 X119.32 Y108.97 E129.2455
G1 X119.86 Y109.06 E129.2629
G1 X120.40 Y108.97 E129.2804
G1 X120.89 Y108.72 E129.2980
G1 X121.28 Y108.32 E129.3158
G1 X121.52 Y107.83 E129.3332
G1 X121.61 Y107.29 E129.3507
G1 X121.52 Y106.75 E129.3682
G1 X121.27 Y106.26 E129.3857
G1 X120.88 Y105.87 E129.4034
G1 X120.38 Y105.63 E129.4211
G1 X119.84 Y105.54 E129.4385
G1 X119.30 Y105.63 E129.4560
G1 X118.81 Y105.88 E129.4736
G1 X118.42 Y106.28 E129.4914
G1 X118.18 Y106.76 E129.5086
G1 X118.09 Y107.30 E129.5260
G1 X118.50 Y107.30 F4800
G1 X118.57 Y107.72 E129.5396 F1500
G1 X118.76 Y108.10 E129.5532
G1 X119.06 Y108.40 E129.5667
G1 X119.44 Y108.59 E129.5803
G1 X119.86 Y108.65 E129.5938
G1 X120.27 Y108.58 E129.6071
G1 X120.65 Y108.39 E129.6207
G1 X120.95 Y108.09 E129.6342
G1 X121.14 Y107.71 E129.6478
G1 X121.20 Y107.29 E129.6613
G1 X121.13 Y106.88 E129.6746
G1 X120.94 Y106.50 E129.6882
G1 X120.64 Y106.20 E129.7017
G1 X120.26 Y106.01 E129.7153
G1 X119.84 Y105.95 E129.7288
G1 X119.43 Y106.02 E129.7421
G1 X119.05 Y106.21 E129.7557
G1 X118.75 Y106.51 E129.7692
G1 X118.56 Y106.89 E129.7828
G1 X118.50 Y107.30 E129.7960
;infill
G1 X117.80 Y106.95 F4800
G1 X108.20 Y116.56 E130.2297 F2100
G1 X108.77 Y116.56 E130.2479
G1 X117.79 Y107.54 E130.6552
G1 X117.88 Y108.01 E130.6705
G1 X109.34 Y116.56 E131.0564
G1 X109.91 Y116.56 E131.0746
G1 X118.08 Y108.39 E131.4435
G1 X118.16 Y108.55 E131.4492
G1 X118.32 Y108.71 E131.4564
G1 X110.48 Y116.56 E131.8107
G1 X111.05 Y116.56 E131.8289
G1 X118.61 Y108.99 E132.1705
G1 X118.99 Y109.19 E132.1842
G1 X111.62 Y116.56 E132.5170
G1 X112.19 Y116.56 E132.5352
G1 X119.41 Y109.33 E132.8615
G1 X119.92 Y109.39 E132.8778
G1 X112.76 Y116.56 E133.2014
G1 X113.33 Y116.56 E133.2196
G1 X120.68 Y109.20 E133.5517
G1 X112.04 Y108.15 F4800
G1 X112.04 Y108.15
G1 X116.76 Y103.44 E133.7646 F2100
G1 X116.19 Y103.44 E133.7828
G1 X112.24 Y107.39 E133.9612
G1 X112.25 Y107.29 E133.9644
G1 X112.18 Y106.87 E133.9780
G1 X115.62 Y103.44 E134.1331
G1 X115.05 Y103.44 E134.1513
G1 X112.04 Y106.44 E134.2870
G1 X111.85 Y106.07 E134.3003
G1 X114.48 Y103.44 E134.4190
G1 X113.91 Y103.44 E134.4372
G1 X111.56 Y105.78 E134.5431
G1 X111.38 Y105.59 E134.5515
G1 X111.25 Y105.53 E134.5561
G1 X113.34 Y103.44 E134.6504
G1 X112.77 Y103.44 E134.6686
G1 X110.87 Y105.34 E134.7544
G1 X110.79 Y105.30 E134.7573
G1 X110.40 Y105.24 E134.7699
G1 X112.20 Y103.44 E134.8512
G1 X111.63 Y103.44 E134.8694
G1 X109.81 Y105.25 E134.9513
G1 X84.84 Y103.44 F4800
G1 X84.84 Y103.44
G1 X84.44 Y103.84 E134.9694 F2100
G1 X84.44 Y104.41 E134.9876
G1 X85.41 Y103.44 E135.0314
G1 X85.98 Y103.44 E135.0496
G1 X84.44 Y104.98 E135.1191
G1 X84.44 Y105.55 E135.1373
G1 X86.55 Y103.44 E135.2326
