;generated by ffslicer 1.30.3 09/06/23 19:03:11
;right_extruder_material: PLA
;layer_height: 0.2
;perimeter_shells: 2
;top_solid_layers: 4
;bottom_solid_layers: 3
;fill_density: 15%
;fill_pattern: hexagon
;base_print_speed: 50
;travel_speed: 80
;right_extruder_temperature: 200
;left_extruder_temperature: 0
;platform_temperature: 60
;right_extruder_temperature_raft0: 0
;left_extruder_temperature_raft0: 0
;right_extruder_temperature_reset: 
;left_extruder_temperature_reset: 
;start gcode
M140 S60 T0
M104 S200 T0
M104 S0 T1
G90
G28
G1 Z50.000 F420
G161 X Y F3300
M190 S60 T0
M109 S200 T0
M109 S0 T1
G92 E.0000
;layer_count: 17
M108 T0
G1 X85.00 Y85.00 F4800
;preExtrude:0.20
;preExtruder0
M106 S255
G1 Z.200 F420
G1 X85.00 Y85.00 F4800
G1 X135.00 Y85.00 E6.3859 F1200
G1 X135.00 Y135.00 E12.7719
G1 X85.00 Y135.00 E19.1578
G1 X85.00 Y85.00 E25.5438
;raft
;layer:0.30
;shell
G1 E20.5438 F2700
G1 Z.300 F420
G1 X93.63 Y97.92 F4200
G1 E25.5438 F2700
G1 X93.63 Y97.92 F4200
G1 X93.67 Y97.43 E25.5673 F600
G1 X93.77 Y96.92 E25.5922
G1 X93.92 Y96.44 E25.6163
G1 X94.14 Y95.97 E25.6412
G1 X94.40 Y95.53 E25.6656
G1 X94.71 Y95.13 E25.6899
G1 X95.07 Y94.77 E25.7143
G1 X95.47 Y94.45 E25.7388
G1 X95.90 Y94.17 E25.7634
G1 X96.36 Y93.96 E25.7876
G1 X96.84 Y93.79 E25.8120
G1 X97.34 Y93.68 E25.8365
G1 X97.84 Y93.63 E25.8606
G1 X98.36 Y93.64 E25.8855
G1 X98.86 Y93.71 E25.9097
G1 X99.36 Y93.84 E25.9344
G1 X99.84 Y94.02 E25.9590
G1 X100.29 Y94.26 E25.9834
G1 X100.70 Y94.55 E26.0074
G1 X101.09 Y94.89 E26.0322
G1 X101.44 Y95.27 E26.0570
G1 X101.73 Y95.67 E26.0806
G1 X101.98 Y96.13 E26.1057
G1 X102.17 Y96.60 E26.1300
G1 X102.31 Y97.09 E26.1544
G1 X102.39 Y97.59 E26.1786
G1 X102.41 Y98.11 E26.2036
G1 X102.37 Y98.61 E26.2276
G1 X102.27 Y99.12 E26.2525
G1 X102.12 Y99.60 E26.2766
G1 X101.90 Y100.06 E26.3010
G1 X101.64 Y100.50 E26.3255
G1 X101.32 Y100.91 E26.3504
G1 X100.97 Y101.27 E26.3744
G1 X100.57 Y101.59 E26.3990
G1 X100.14 Y101.86 E26.4233
G1 X99.68 Y102.08 E26.4477
G1 X99.20 Y102.25 E26.4721
G1 X98.70 Y102.36 E26.4966
G1 X98.20 Y102.40 E26.5206
G1 X97.68 Y102.40 E26.5455
G1 X97.18 Y102.33 E26.5697
G1 X96.68 Y102.20 E26.5945
G1 X96.20 Y102.01 E26.6192
G1 X95.75 Y101.78 E26.6434
G1 X95.34 Y101.49 E26.6674
G1 X94.94 Y101.15 E26.6926
G1 X94.60 Y100.77 E26.7170
G1 X94.31 Y100.36 E26.7411
G1 X94.06 Y99.91 E26.7657
G1 X93.87 Y99.44 E26.7900
G1 X93.73 Y98.94 E26.8149
G1 X93.65 Y98.45 E26.8386
G1 X93.63 Y97.92 E26.8640
G1 X93.23 Y97.92 F4200
G1 X93.27 Y97.37 E26.8904 F600
G1 X93.38 Y96.82 E26.9173
G1 X93.55 Y96.30 E26.9435
G1 X93.78 Y95.78 E26.9707
G1 X94.07 Y95.31 E26.9972
G1 X94.41 Y94.87 E27.0238
G1 X94.80 Y94.47 E27.0506
G1 X95.23 Y94.12 E27.0771
G1 X95.70 Y93.83 E27.1036
G1 X96.21 Y93.58 E27.1308
G1 X96.74 Y93.40 E27.1576
G1 X97.28 Y93.29 E27.1840
G1 X97.83 Y93.23 E27.2105
G1 X98.39 Y93.24 E27.2373
G1 X98.94 Y93.32 E27.2639
G1 X99.48 Y93.46 E27.2907
G1 X100.01 Y93.66 E27.3178
G1 X100.49 Y93.92 E27.3439
G1 X100.95 Y94.23 E27.3705
G1 X101.38 Y94.60 E27.3977
G1 X101.75 Y95.01 E27.4241
G1 X102.07 Y95.46 E27.4506
G1 X102.34 Y95.95 E27.4774
G1 X102.55 Y96.47 E27.5042
G1 X102.70 Y97.00 E27.5306
G1 X102.79 Y97.56 E27.5578
G1 X102.81 Y98.12 E27.5846
G1 X102.77 Y98.66 E27.6105
G1 X102.66 Y99.22 E27.6379
G1 X102.49 Y99.74 E27.6641
G1 X102.26 Y100.25 E27.6909
G1 X101.97 Y100.72 E27.7173
G1 X101.63 Y101.17 E27.7443
G1 X101.24 Y101.57 E27.7711
G1 X100.81 Y101.91 E27.7974
G1 X100.34 Y102.21 E27.8241
G1 X99.83 Y102.45 E27.8511
G1 X99.30 Y102.63 E27.8779
G1 X98.76 Y102.75 E27.9044
G1 X98.21 Y102.81 E27.9309
G1 X97.65 Y102.79 E27.9577
G1 X97.10 Y102.72 E27.9842
G1 X96.56 Y102.58 E28.0110
G1 X96.03 Y102.38 E28.0381
G1 X95.55 Y102.12 E28.0642
G1 X95.09 Y101.81 E28.0908
G1 X94.66 Y101.43 E28.1183
G1 X94.29 Y101.03 E28.1444
G1 X93.97 Y100.57 E28.1712
G1 X93.70 Y100.08 E28.1980
G1 X93.49 Y99.58 E28.2240
G1 X93.34 Y99.03 E28.2513
G1 X93.25 Y98.48 E28.2780
G1 X93.23 Y97.92 E28.3048
G1 E23.3048 F2700
G1 X95.77 Y97.86 F4200
G1 E28.3048 F2700
G1 X95.77 Y97.86 F4200
G1 X95.84 Y98.59 E28.3400 F600
G1 X96.08 Y99.17 E28.3700
G1 X96.46 Y99.64 E28.3990
G1 X96.95 Y100.00 E28.4281
G1 X97.51 Y100.22 E28.4569
G1 X98.12 Y100.27 E28.4862
G1 X98.72 Y100.16 E28.5154
G1 X99.26 Y99.90 E28.5441
G1 X99.72 Y99.50 E28.5733
G1 X100.05 Y98.99 E28.6024
G1 X100.24 Y98.42 E28.6312
G1 X100.27 Y97.81 E28.6605
G1 X100.13 Y97.22 E28.6895
G1 X99.84 Y96.68 E28.7189
G1 X99.41 Y96.25 E28.7480
G1 X98.89 Y95.94 E28.7770
G1 X98.30 Y95.78 E28.8063
G1 X97.70 Y95.79 E28.8350
G1 X97.11 Y95.96 E28.8644
G1 X96.60 Y96.27 E28.8930
G1 X96.18 Y96.72 E28.9225
G1 X95.90 Y97.26 E28.9516
G1 X95.77 Y97.86 E28.9810
G1 X96.17 Y97.88 F4200
G1 X96.23 Y98.50 E29.0108 F600
G1 X96.43 Y98.96 E29.0349
G1 X96.74 Y99.35 E29.0587
G1 X97.14 Y99.64 E29.0824
G1 X97.60 Y99.82 E29.1060
G1 X98.10 Y99.87 E29.1301
G1 X98.59 Y99.78 E29.1540
G1 X99.04 Y99.56 E29.1780
G1 X99.42 Y99.23 E29.2021
G1 X99.69 Y98.82 E29.2256
G1 X99.84 Y98.34 E29.2497
G1 X99.86 Y97.84 E29.2736
G1 X99.75 Y97.36 E29.2972
G1 X99.51 Y96.92 E29.3212
G1 X99.16 Y96.56 E29.3453
G1 X98.73 Y96.31 E29.3691
G1 X98.25 Y96.18 E29.3929
G1 X97.75 Y96.19 E29.4169
G1 X97.27 Y96.32 E29.4407
G1 X96.85 Y96.58 E29.4643
G1 X96.51 Y96.95 E29.4884
G1 X96.28 Y97.39 E29.5122
G1 X96.17 Y97.88 E29.5362
;infill
G1 E24.5362 F2700
G1 X96.05 Y98.54 F4200
G1 X96.92 Y100.35
G1 E29.5362 F2700
G1 X96.92 Y100.35 F4200
G1 X98.59 Y102.02 E29.6494 F600
G1 X99.07 Y101.93 E29.6727
G1 X97.72 Y100.57 E29.7645
G1 X98.14 Y100.61 E29.7847
G1 X98.30 Y100.58 E29.7925
G1 X99.50 Y101.78 E29.8738
G1 X99.89 Y101.60 E29.8944
G1 X98.78 Y100.50 E29.9692
G1 X99.17 Y100.32 E29.9898
G1 X100.25 Y101.39 E30.0626
G1 X100.57 Y101.15 E30.0818
G1 X99.54 Y100.11 E30.1519
G1 X99.84 Y99.84 E30.1712
G1 X100.88 Y100.88 E30.2416
G1 X101.15 Y100.58 E30.2610
G1 X100.10 Y99.53 E30.3321
G1 X100.33 Y99.19 E30.3518
G1 X101.39 Y100.25 E30.4236
G1 X101.61 Y99.89 E30.4438
G1 X100.48 Y98.77 E30.5200
G1 X100.58 Y98.48 E30.5347
G1 X100.58 Y98.30 E30.5433
G1 X101.78 Y99.50 E30.6246
G1 X101.93 Y99.07 E30.6464
G1 X100.60 Y97.75 E30.7361
G1 E25.7361 F2700
G1 X100.99 Y95.28 F4200
G1 E30.7361 F2700
G1 X100.99 Y95.28 F4200
G1 X100.49 Y94.81 E30.7690 F600
G1 X100.12 Y94.55 E30.7906
G1 X99.70 Y94.33 E30.8133
G1 X99.33 Y94.19 E30.8323
G1 X101.85 Y96.71 E31.0030
G1 X101.98 Y97.16 E31.0254
G1 X102.02 Y97.45 E31.0394
G1 X98.58 Y94.01 E31.2724
G1 X97.97 Y93.98 E31.3017
G1 X102.07 Y98.07 E31.5791
G1 X102.02 Y98.60 E31.6046
G1 X100.36 Y96.94 E31.7170
G1 X100.11 Y96.48 E31.7421
G1 X99.63 Y95.97 E31.7756
G1 X99.08 Y95.66 E31.8058
G1 X97.44 Y94.01 E31.9173
G1 X96.96 Y94.11 E31.9408
G1 X98.30 Y95.44 E32.0312
G1 X97.73 Y95.44 E32.0585
G1 X96.53 Y94.25 E32.1394
G1 X96.14 Y94.43 E32.1600
G1 X97.27 Y95.55 E32.2362
G1 X96.97 Y95.64 E32.2512
G1 X96.85 Y95.71 E32.2578
G1 X95.79 Y94.65 E32.3296
G1 X95.46 Y94.89 E32.3492
G1 X96.50 Y95.93 E32.4196
G1 X96.20 Y96.20 E32.4390
G1 X95.16 Y95.16 E32.5094
G1 X94.89 Y95.46 E32.5287
G1 X95.92 Y96.49 E32.5985
G1 X95.72 Y96.86 E32.6186
G1 X94.64 Y95.79 E32.6915
G1 X94.43 Y96.15 E32.7114
G1 X95.55 Y97.27 E32.7873
G1 X95.45 Y97.74 E32.8103
G1 X94.25 Y96.54 E32.8916
G1 X94.11 Y96.97 E32.9132
G1 X95.47 Y98.33 E33.0054
G1 X95.50 Y98.68 E33.0222
G1 X95.69 Y99.12 E33.0451
G1 X94.01 Y97.44 E33.1589
G1 X93.98 Y97.98 E33.1848
G1 X98.06 Y102.06 E33.4612
G1 X97.70 Y102.05 E33.4784
G1 X97.44 Y102.02 E33.4910
G1 X94.02 Y98.59 E33.7230
G1 X94.06 Y98.87 E33.7365
G1 X94.19 Y99.34 E33.7599
G1 X96.69 Y101.84 E33.9292
G1 X96.34 Y101.70 E33.9472
G1 X95.93 Y101.49 E33.9693
G1 X95.54 Y101.22 E33.9920
G1 X95.11 Y100.83 E34.0198
;shell
G1 E29.0198 F2700
G1 X93.63 Y109.90 F4200
G1 E34.0198 F2700
G1 X93.63 Y109.90 F4200
G1 X93.67 Y109.41 E34.0434 F600
G1 X93.77 Y108.90 E34.0683
G1 X93.92 Y108.42 E34.0924
G1 X94.14 Y107.95 E34.1172
G1 X94.40 Y107.52 E34.1413
G1 X94.71 Y107.12 E34.1655
G1 X95.07 Y106.75 E34.1902
G1 X95.47 Y106.43 E34.2148
G1 X95.90 Y106.16 E34.2391
G1 X96.36 Y105.93 E34.2637
G1 X96.83 Y105.77 E34.2875
G1 X97.35 Y105.66 E34.3130
G1 X97.85 Y105.61 E34.3370
G1 X98.36 Y105.62 E34.3615
G1 X98.86 Y105.69 E34.3856
G1 X99.36 Y105.82 E34.4104
G1 X99.84 Y106.00 E34.4349
G1 X100.29 Y106.25 E34.4596
G1 X100.71 Y106.53 E34.4838
G1 X101.09 Y106.87 E34.5082
G1 X101.43 Y107.24 E34.5322
G1 X101.74 Y107.67 E34.5576
G1 X101.98 Y108.10 E34.5812
G1 X102.18 Y108.58 E34.6061
G1 X102.31 Y109.07 E34.6304
G1 X102.39 Y109.57 E34.6547
G1 X102.41 Y110.10 E34.6801
G1 X102.37 Y110.59 E34.7036
G1 X102.27 Y111.10 E34.7285
G1 X102.12 Y111.58 E34.7526
G1 X101.91 Y112.04 E34.7768
G1 X101.64 Y112.48 E34.8015
G1 X101.32 Y112.89 E34.8264
G1 X100.97 Y113.25 E34.8505
G1 X100.57 Y113.57 E34.8750
G1 X100.14 Y113.84 E34.8993
G1 X99.68 Y114.07 E34.9240
G1 X99.20 Y114.23 E34.9482
G1 X98.70 Y114.34 E34.9727
G1 X98.20 Y114.39 E34.9968
G1 X97.68 Y114.38 E35.0217
G1 X97.18 Y114.31 E35.0459
G1 X96.68 Y114.18 E35.0706
G1 X96.20 Y114.00 E35.0952
G1 X95.75 Y113.76 E35.1196
G1 X95.33 Y113.47 E35.1440
G1 X94.95 Y113.13 E35.1685
G1 X94.60 Y112.76 E35.1929
G1 X94.31 Y112.34 E35.2173
G1 X94.06 Y111.89 E35.2420
G1 X93.87 Y111.43 E35.2658
G1 X93.73 Y110.93 E35.2907
G1 X93.65 Y110.43 E35.3149
G1 X93.63 Y109.90 E35.3403
G1 X93.23 Y109.90 F4200
G1 X93.27 Y109.35 E35.3667 F600
G1 X93.38 Y108.80 E35.3936
G1 X93.55 Y108.28 E35.4198
G1 X93.78 Y107.76 E35.4470
G1 X94.07 Y107.29 E35.4735
G1 X94.41 Y106.85 E35.5001
G1 X94.80 Y106.45 E35.5269
G1 X95.23 Y106.10 E35.5534
G1 X95.71 Y105.80 E35.5805
G1 X96.21 Y105.57 E35.6069
G1 X96.73 Y105.39 E35.6332
G1 X97.28 Y105.27 E35.6602
G1 X97.83 Y105.21 E35.6867
G1 X98.39 Y105.22 E35.7135
G1 X98.94 Y105.30 E35.7402
G1 X99.48 Y105.44 E35.7669
G1 X100.01 Y105.64 E35.7940
G1 X100.49 Y105.90 E35.8202
G1 X100.96 Y106.21 E35.8471
G1 X101.38 Y106.58 E35.8739
G1 X101.75 Y106.99 E35.9004
G1 X102.08 Y107.45 E35.9275
G1 X102.34 Y107.93 E35.9536
G1 X102.55 Y108.45 E35.9805
G1 X102.70 Y108.98 E36.0069
G1 X102.79 Y109.54 E36.0340
G1 X102.81 Y110.10 E36.0609
G1 X102.77 Y110.65 E36.0873
G1 X102.66 Y111.20 E36.1141
G1 X102.49 Y111.72 E36.1404
G1 X102.26 Y112.24 E36.1676
G1 X101.97 Y112.70 E36.1936
G1 X101.63 Y113.15 E36.2206
G1 X101.24 Y113.55 E36.2474
G1 X100.81 Y113.90 E36.2740
G1 X100.33 Y114.20 E36.3011
G1 X99.83 Y114.43 E36.3274
G1 X99.30 Y114.62 E36.3544
G1 X98.76 Y114.73 E36.3808
G1 X98.21 Y114.79 E36.4073
G1 X97.65 Y114.78 E36.4341
G1 X97.10 Y114.70 E36.4607
G1 X96.56 Y114.56 E36.4874
G1 X96.03 Y114.36 E36.5146
G1 X95.55 Y114.10 E36.5407
G1 X95.08 Y113.79 E36.5677
G1 X94.66 Y113.42 E36.5945
G1 X94.29 Y113.01 E36.6209
G1 X93.97 Y112.55 E36.6478
G1 X93.70 Y112.06 E36.6746
G1 X93.49 Y111.56 E36.7006
G1 X93.34 Y111.01 E36.7279
G1 X93.25 Y110.46 E36.7546
G1 X93.23 Y109.90 E36.7814
G1 E31.7814 F2700
G1 X95.77 Y109.84 F4200
G1 E36.7814 F2700
G1 X95.77 Y109.84 F4200
G1 X95.84 Y110.58 E36.8170 F600
G1 X96.08 Y111.15 E36.8466
G1 X96.46 Y111.62 E36.8756
G1 X96.95 Y111.98 E36.9047
G1 X97.51 Y112.20 E36.9335
G1 X98.12 Y112.25 E36.9628
G1 X98.72 Y112.14 E36.9920
G1 X99.26 Y111.88 E37.0207
G1 X99.72 Y111.48 E37.0499
G1 X100.05 Y110.97 E37.0790
G1 X100.24 Y110.40 E37.1078
G1 X100.27 Y109.79 E37.1370
G1 X100.13 Y109.20 E37.1661
G1 X99.84 Y108.66 E37.1954
G1 X99.42 Y108.23 E37.2242
G1 X98.89 Y107.92 E37.2536
G1 X98.30 Y107.76 E37.2829
G1 X97.70 Y107.77 E37.3117
G1 X97.11 Y107.94 E37.3411
G1 X96.60 Y108.25 E37.3697
G1 X96.18 Y108.70 E37.3991
G1 X95.90 Y109.24 E37.4283
G1 X95.77 Y109.84 E37.4577
G1 X96.17 Y109.86 F4200
G1 X96.23 Y110.48 E37.4875 F600
G1 X96.43 Y110.94 E37.5115
G1 X96.74 Y111.33 E37.5354
G1 X97.14 Y111.63 E37.5593
G1 X97.60 Y111.80 E37.5828
G1 X98.10 Y111.85 E37.6069
G1 X98.59 Y111.76 E37.6307
G1 X99.04 Y111.54 E37.6547
G1 X99.42 Y111.22 E37.6785
G1 X99.69 Y110.80 E37.7024
G1 X99.84 Y110.32 E37.7265
G1 X99.86 Y109.83 E37.7500
G1 X99.75 Y109.34 E37.7741
G1 X99.51 Y108.90 E37.7981
G1 X99.16 Y108.54 E37.8221
G1 X98.73 Y108.29 E37.8459
G1 X98.25 Y108.16 E37.8698
G1 X97.75 Y108.17 E37.8937
G1 X97.27 Y108.31 E37.9177
G1 X96.85 Y108.57 E37.9413
G1 X96.51 Y108.93 E37.9650
G1 X96.28 Y109.37 E37.9888
G1 X96.17 Y109.86 E38.0129
;infill
G1 E33.0129 F2700
G1 X96.05 Y110.52 F4200
G1 X96.92 Y112.34
G1 E38.0129 F2700
G1 X96.92 Y112.34 F4200
G1 X98.59 Y114.01 E38.1260 F600
G1 X99.06 Y113.90 E38.1491
G1 X97.72 Y112.56 E38.2399
G1 X98.14 Y112.60 E38.2601
G1 X98.29 Y112.57 E38.2674
G1 X99.50 Y113.77 E38.3490
G1 X99.89 Y113.59 E38.3696
G1 X98.78 Y112.48 E38.4448
G1 X99.17 Y112.30 E38.4653
G1 X100.25 Y113.37 E38.5382
G1 X100.57 Y113.13 E38.5573
G1 X99.54 Y112.09 E38.6274
G1 X99.84 Y111.83 E38.6464
G1 X100.88 Y112.86 E38.7165
G1 X101.15 Y112.56 E38.7359
G1 X100.10 Y111.52 E38.8066
G1 X100.33 Y111.17 E38.8267
G1 X101.39 Y112.23 E38.8985
G1 X101.61 Y111.88 E38.9183
G1 X100.48 Y110.75 E38.9948
G1 X100.58 Y110.46 E39.0095
G1 X100.58 Y110.28 E39.0182
G1 X101.78 Y111.48 E39.0994
G1 X101.93 Y111.06 E39.1208
G1 X100.60 Y109.73 E39.2109
G1 E34.2109 F2700
G1 X101.03 Y107.31 F4200
G1 E39.2109 F2700
G1 X101.03 Y107.31 F4200
G1 X100.51 Y106.80 E39.2458 F600
G1 X100.11 Y106.54 E39.2686
G1 X99.71 Y106.32 E39.2905
G1 X99.33 Y106.17 E39.3100
G1 X101.85 Y108.70 E39.4811
G1 X101.98 Y109.14 E39.5030
G1 X102.02 Y109.44 E39.5175
G1 X98.58 Y106.00 E39.7505
G1 X97.97 Y105.96 E39.7798
G1 X102.07 Y110.05 E40.0572
G1 X102.02 Y110.58 E40.0827
G1 X100.36 Y108.92 E40.1951
G1 X100.11 Y108.46 E40.2202
G1 X99.63 Y107.96 E40.2534
G1 X99.08 Y107.63 E40.2841
G1 X97.44 Y105.99 E40.3952
G1 X96.96 Y106.09 E40.4187
G1 X98.29 Y107.42 E40.5088
G1 X97.72 Y107.43 E40.5361
G1 X96.53 Y106.23 E40.6170
G1 X96.14 Y106.41 E40.6376
G1 X97.26 Y107.54 E40.7138
G1 X96.97 Y107.62 E40.7282
G1 X96.85 Y107.69 E40.7348
G1 X95.78 Y106.63 E40.8070
G1 X95.46 Y106.87 E40.8261
G1 X96.50 Y107.91 E40.8966
G1 X96.19 Y108.18 E40.9163
G1 X95.16 Y107.14 E40.9864
G1 X94.89 Y107.44 E41.0057
G1 X95.92 Y108.48 E41.0758
G1 X95.72 Y108.85 E41.0960
G1 X94.64 Y107.77 E41.1691
G1 X94.43 Y108.13 E41.1891
G1 X95.55 Y109.25 E41.2649
G1 X95.45 Y109.72 E41.2879
G1 X94.25 Y108.52 E41.3692
G1 X94.11 Y108.95 E41.3909
G1 X95.47 Y110.31 E41.4830
G1 X95.50 Y110.66 E41.4998
G1 X95.69 Y111.10 E41.5228
G1 X94.01 Y109.43 E41.6362
G1 X93.98 Y109.96 E41.6617
G1 X98.05 Y114.04 E41.9377
G1 X97.44 Y114.00 E41.9669
G1 X94.02 Y110.57 E42.1989
G1 X94.06 Y110.85 E42.2125
G1 X94.19 Y111.32 E42.2358
G1 X96.69 Y113.82 E42.4052
G1 X96.34 Y113.69 E42.4231
G1 X95.92 Y113.47 E42.4458
G1 X95.54 Y113.20 E42.4681
G1 X95.12 Y112.81 E42.4955
;shell
G1 E37.4955 F2700
G1 X93.63 Y121.88 F4200
G1 E42.4955 F2700
G1 X93.63 Y121.88 F4200
G1 X93.67 Y121.39 E42.5191 F600
G1 X93.77 Y120.88 E42.5440
G1 X93.92 Y120.41 E42.5676
G1 X94.14 Y119.93 E42.5929
G1 X94.39 Y119.51 E42.6163
G1 X94.71 Y119.10 E42.6412
G1 X95.07 Y118.73 E42.6659
G1 X95.47 Y118.41 E42.6905
G1 X95.90 Y118.14 E42.7148
G1 X96.36 Y117.92 E42.7392
G1 X96.84 Y117.75 E42.7636
G1 X97.34 Y117.64 E42.7881
G1 X97.84 Y117.60 E42.8121
G1 X98.36 Y117.60 E42.8370
G1 X98.86 Y117.67 E42.8612
G1 X99.36 Y117.80 E42.8860
G1 X99.84 Y117.99 E42.9107
G1 X100.29 Y118.22 E42.9349
G1 X100.71 Y118.51 E42.9593
G1 X101.09 Y118.85 E42.9838
G1 X101.44 Y119.23 E43.0085
G1 X101.73 Y119.64 E43.0326
G1 X101.98 Y120.09 E43.0572
G1 X102.17 Y120.56 E43.0815
G1 X102.31 Y121.05 E43.1059
G1 X102.39 Y121.55 E43.1302
G1 X102.41 Y122.08 E43.1556
G1 X102.37 Y122.57 E43.1791
G1 X102.27 Y123.08 E43.2040
G1 X102.12 Y123.56 E43.2281
G1 X101.90 Y124.03 E43.2529
G1 X101.64 Y124.46 E43.2770
G1 X101.33 Y124.86 E43.3012
G1 X100.97 Y125.23 E43.3260
G1 X100.57 Y125.55 E43.3505
G1 X100.14 Y125.83 E43.3751
G1 X99.68 Y126.05 E43.3995
G1 X99.20 Y126.21 E43.4237
G1 X98.70 Y126.32 E43.4483
G1 X98.20 Y126.37 E43.4723
G1 X97.68 Y126.36 E43.4972
G1 X97.18 Y126.29 E43.5214
G1 X96.68 Y126.16 E43.5462
G1 X96.20 Y125.98 E43.5707
G1 X95.75 Y125.74 E43.5951
G1 X95.33 Y125.45 E43.6196
G1 X94.95 Y125.12 E43.6437
G1 X94.61 Y124.74 E43.6681
G1 X94.30 Y124.32 E43.6931
G1 X94.06 Y123.88 E43.7171
G1 X93.87 Y123.40 E43.7418
G1 X93.73 Y122.91 E43.7662
G1 X93.65 Y122.41 E43.7905
G1 X93.63 Y121.88 E43.8159
G1 X93.23 Y121.88 F4200
G1 X93.27 Y121.34 E43.8418 F600
G1 X93.38 Y120.78 E43.8692
G1 X93.55 Y120.26 E43.8954
