;generated by ffslicer 1.30.3 09/07/23 00:05:00
;right_extruder_material: PLA
;layer_height: 0.2
;perimeter_shells: 2
;top_solid_layers: 4
;bottom_solid_layers: 3
;fill_density: 15%
;fill_pattern: hexagon
;base_print_speed: 50
;travel_speed: 80
;right_extruder_temperature: 200
;left_extruder_temperature: 0
;platform_temperature: 60
;right_extruder_temperature_raft0: 0
;left_extruder_temperature_raft0: 0
;right_extruder_temperature_reset: 
;left_extruder_temperature_reset: 
;start gcode
M140 S60 T0
M104 S200 T0
M104 S0 T1
G90
G28
G1 Z50.000 F420
G161 X Y F3300
M190 S60 T0
M109 S200 T0
M109 S0 T1
G92 E.0000
;layer_count: 263
M108 T0
G1 X153.50 Y135.75 F4800
;preExtrude:0.20
;preExtruder0
M106 S255
G1 Z.200 F420
G1 X153.50 Y135.75 F4800
G1 X153.50 Y156.25 E2.6182 F1200
G1 X66.50 Y156.25 E13.7298
G1 X66.50 Y63.75 E25.5438
;raft
;layer:0.30
;shell
G1 E20.5438 F2700
G1 Z.300 F420
G1 X75.10 Y72.35 F4200
G1 E25.5438 F2700
G1 X75.10 Y72.35 F4200
G1 X144.90 Y72.35 E28.8868 F600
G1 X144.90 Y147.65 E32.4933
G1 X75.10 Y147.65 E35.8363
G1 X75.10 Y72.35 E39.4428
G1 X74.70 Y71.95 F4200
G1 X145.30 Y71.95 E42.8242 F600
G1 X145.30 Y148.05 E46.4689
G1 X74.70 Y148.05 E49.8503
G1 X74.70 Y71.95 E53.4951
;infill
G1 X144.56 Y72.74 F4200
G1 X144.56 Y72.74
G1 X144.51 Y72.69 E53.4985 F600
G1 X143.95 Y72.69 E53.5253
G1 X144.56 Y73.30 E53.5666
G1 X144.56 Y73.87 E53.5939
G1 X143.38 Y72.69 E53.6738
G1 X142.82 Y72.69 E53.7006
G1 X144.56 Y74.43 E53.8185
G1 X144.56 Y75.00 E53.8458
G1 X142.25 Y72.69 E54.0023
G1 X141.68 Y72.69 E54.0296
G1 X144.56 Y75.56 E54.2243
G1 X144.56 Y76.13 E54.2516
G1 X141.12 Y72.69 E54.4846
G1 X140.55 Y72.69 E54.5119
G1 X144.56 Y76.70 E54.7835
G1 X144.56 Y77.26 E54.8103
G1 X139.99 Y72.69 E55.1199
G1 X139.42 Y72.69 E55.1472
G1 X144.56 Y77.83 E55.4953
G1 X144.56 Y78.39 E55.5221
G1 X138.86 Y72.69 E55.9082
G1 X138.29 Y72.69 E55.9355
G1 X144.56 Y78.96 E56.3602
G1 X144.56 Y79.52 E56.3870
G1 X137.72 Y72.69 E56.8500
G1 X137.16 Y72.69 E56.8768
G1 X144.56 Y80.09 E57.3780
G1 X144.56 Y80.66 E57.4053
G1 X136.59 Y72.69 E57.9452
G1 X136.03 Y72.69 E57.9720
G1 X144.56 Y81.22 E58.5498
G1 X144.56 Y81.79 E58.5771
G1 X135.46 Y72.69 E59.1934
G1 X134.90 Y72.69 E59.2202
G1 X144.56 Y82.35 E59.8745
G1 X144.56 Y82.92 E59.9019
G1 X134.33 Y72.69 E60.5948
G1 X133.76 Y72.69 E60.6221
G1 X144.56 Y83.48 E61.3532
G1 X144.56 Y84.05 E61.3805
G1 X133.20 Y72.69 E62.1500
G1 X132.63 Y72.69 E62.1773
G1 X144.56 Y84.62 E62.9854
G1 X144.56 Y85.18 E63.0122
G1 X132.07 Y72.69 E63.8582
G1 X131.50 Y72.69 E63.8855
G1 X144.56 Y85.75 E64.7701
G1 X144.56 Y86.31 E64.7969
G1 X130.94 Y72.69 E65.7194
G1 X130.37 Y72.69 E65.7467
G1 X144.56 Y86.88 E66.7078
G1 X144.56 Y87.44 E66.7347
G1 X129.80 Y72.69 E67.7341
G1 X129.24 Y72.69 E67.7609
G1 X144.56 Y88.01 E68.7985
G1 X144.56 Y88.58 E68.8258
G1 X128.67 Y72.69 E69.9021
G1 X128.11 Y72.69 E69.9290
G1 X144.56 Y89.14 E71.0432
G1 X144.56 Y89.71 E71.0705
G1 X127.54 Y72.69 E72.2233
G1 X126.98 Y72.69 E72.2501
G1 X144.56 Y90.27 E73.4408
G1 X144.56 Y90.84 E73.4681
G1 X126.41 Y72.69 E74.6975
G1 X125.84 Y72.69 E74.7248
G1 X144.56 Y91.40 E75.9924
G1 X144.56 Y91.97 E76.0197
G1 X125.28 Y72.69 E77.3256
G1 X124.71 Y72.69 E77.3529
G1 X144.56 Y92.54 E78.6974
G1 X144.56 Y93.10 E78.7242
G1 X124.15 Y72.69 E80.1067
G1 X123.58 Y72.69 E80.1340
G1 X144.56 Y93.67 E81.5550
G1 X144.56 Y94.23 E81.5818
G1 X123.02 Y72.69 E83.0408
G1 X122.45 Y72.69 E83.0681
G1 X144.56 Y94.80 E84.5657
G1 X144.56 Y95.36 E84.5925
G1 X121.88 Y72.69 E86.1284
G1 X121.32 Y72.69 E86.1552
G1 X144.56 Y95.93 E87.7293
G1 X144.56 Y96.50 E87.7566
G1 X120.75 Y72.69 E89.3693
G1 X120.19 Y72.69 E89.3961
G1 X144.56 Y97.06 E91.0468
G1 X144.56 Y97.63 E91.0741
G1 X119.62 Y72.69 E92.7634
G1 X119.06 Y72.69 E92.7902
G1 X144.56 Y98.19 E94.5174
G1 X144.56 Y98.76 E94.5447
G1 X118.49 Y72.69 E96.3105
G1 X117.92 Y72.69 E96.3378
G1 X144.56 Y99.32 E98.1418
G1 X144.56 Y99.89 E98.1691
G1 X117.36 Y72.69 E100.0115
G1 X116.79 Y72.69 E100.0388
G1 X144.56 Y100.46 E101.9197
G1 X144.56 Y101.02 E101.9466
G1 X116.23 Y72.69 E103.8654
G1 X115.66 Y72.69 E103.8927
G1 X144.56 Y101.59 E105.8502
G1 X144.56 Y102.15 E105.8770
G1 X115.10 Y72.69 E107.8725
G1 X114.53 Y72.69 E107.8998
G1 X144.56 Y102.72 E109.9338
G1 X144.56 Y103.28 E109.9606
G1 X113.97 Y72.69 E112.0326
G1 X113.40 Y72.69 E112.0599
G1 X144.56 Y103.85 E114.1704
G1 X144.56 Y104.41 E114.1973
G1 X112.83 Y72.69 E116.3461
G1 X112.27 Y72.69 E116.3729
G1 X144.56 Y104.98 E118.5600
G1 X144.56 Y105.55 E118.5873
G1 X111.70 Y72.69 E120.8130
G1 X111.14 Y72.69 E120.8398
G1 X144.56 Y106.11 E123.1035
G1 X144.56 Y106.68 E123.1308
G1 X110.57 Y72.69 E125.4330
G1 X110.01 Y72.69 E125.4599
G1 X144.56 Y107.24 E127.8000
G1 X144.56 Y107.81 E127.8273
G1 X109.44 Y72.69 E130.2061
G1 X108.87 Y72.69 E130.2334
G1 X144.56 Y108.37 E132.6505
G1 X144.56 Y108.94 E132.6778
G1 X108.31 Y72.69 E135.1331
G1 X107.74 Y72.69 E135.1604
G1 X144.56 Y109.51 E137.6543
G1 X144.56 Y110.07 E137.6812
G1 X107.18 Y72.69 E140.2130
G1 X106.61 Y72.69 E140.2403
G1 X144.56 Y110.64 E142.8108
G1 X144.56 Y111.20 E142.8376
G1 X106.05 Y72.69 E145.4460
G1 X105.48 Y72.69 E145.4733
G1 X144.56 Y111.77 E148.1203
G1 X144.56 Y112.34 E148.1476
G1 X104.91 Y72.69 E150.8333
G1 X104.35 Y72.69 E150.8601
G1 X144.56 Y112.90 E153.5836
G1 X144.56 Y113.47 E153.6109
G1 X103.78 Y72.69 E156.3731
G1 X103.22 Y72.69 E156.3999
G1 X144.56 Y114.03 E159.2000
G1 X144.56 Y114.60 E159.2273
G1 X102.65 Y72.69 E162.0660
G1 X102.09 Y72.69 E162.0928
G1 X144.56 Y115.16 E164.9695
G1 X144.56 Y115.73 E164.9968
G1 X101.52 Y72.69 E167.9120
G1 X100.95 Y72.69 E167.9393
G1 X144.56 Y116.30 E170.8931
G1 X144.56 Y116.86 E170.9200
G1 X100.39 Y72.69 E173.9117
G1 X99.82 Y72.69 E173.9390
G1 X144.56 Y117.43 E176.9694
G1 X144.56 Y117.99 E176.9962
G1 X99.26 Y72.69 E180.0646
G1 X98.69 Y72.69 E180.0918
G1 X144.56 Y118.56 E183.1988
G1 X144.56 Y119.12 E183.2256
G1 X98.13 Y72.69 E186.3705
G1 X97.56 Y72.69 E186.3978
G1 X144.56 Y119.69 E189.5812
G1 X144.56 Y120.25 E189.6080
G1 X96.99 Y72.69 E192.8298
G1 X96.43 Y72.69 E192.8566
G1 X144.56 Y120.82 E196.1166
G1 X144.56 Y121.39 E196.1439
G1 X95.86 Y72.69 E199.4425
G1 X95.30 Y72.69 E199.4693
G1 X144.56 Y121.95 E202.8059
G1 X144.56 Y122.52 E202.8332
G1 X94.73 Y72.69 E206.2083
G1 X94.17 Y72.69 E206.2351
G1 X144.56 Y123.08 E209.6482
G1 X144.56 Y123.65 E209.6755
G1 X93.60 Y72.69 E213.1272
G1 X93.03 Y72.69 E213.1545
G1 X144.56 Y124.21 E216.6445
G1 X144.56 Y124.78 E216.6718
G1 X92.47 Y72.69 E220.2000
G1 X91.90 Y72.69 E220.2273
G1 X144.56 Y125.35 E223.7941
G1 X144.56 Y125.91 E223.8209
G1 X91.34 Y72.69 E227.4257
G1 X90.77 Y72.69 E227.4530
G1 X144.56 Y126.48 E231.0964
G1 X144.56 Y127.04 E231.1232
G1 X90.21 Y72.69 E234.8045
G1 X89.64 Y72.69 E234.8318
G1 X144.56 Y127.61 E238.5517
G1 X144.56 Y128.17 E238.5785
G1 X89.07 Y72.69 E242.3367
G1 X88.51 Y72.69 E242.3635
G1 X144.56 Y128.74 E246.1600
G1 X144.56 Y129.30 E246.1868
G1 X87.94 Y72.69 E250.0215
G1 X87.38 Y72.69 E250.0483
G1 X144.56 Y129.87 E253.9213
G1 X144.56 Y130.44 E253.9486
G1 X86.81 Y72.69 E257.8602
G1 X86.25 Y72.69 E257.8870
G1 X144.56 Y131.00 E261.8365
G1 X144.56 Y131.57 E261.8638
G1 X85.68 Y72.69 E265.8520
G1 X85.12 Y72.69 E265.8788
G1 X144.56 Y132.13 E269.9049
G1 X144.56 Y132.70 E269.9322
G1 X84.55 Y72.69 E273.9968
G1 X83.98 Y72.69 E274.0242
G1 X144.56 Y133.27 E278.1274
G1 X144.56 Y133.83 E278.1542
G1 X83.42 Y72.69 E282.2955
G1 X82.85 Y72.69 E282.3228
G1 X144.56 Y134.40 E286.5026
G1 X144.56 Y134.96 E286.5294
G1 X82.29 Y72.69 E290.7471
G1 X81.72 Y72.69 E290.7745
G1 X144.56 Y135.53 E295.0308
G1 X144.56 Y136.09 E295.0576
G1 X81.16 Y72.69 E299.3519
G1 X80.59 Y72.69 E299.3792
G1 X144.56 Y136.66 E303.7121
G1 X144.56 Y137.23 E303.7394
G1 X80.02 Y72.69 E308.1109
G1 X79.46 Y72.69 E308.1377
G1 X144.56 Y137.79 E312.5472
G1 X144.56 Y138.36 E312.5745
G1 X78.89 Y72.69 E317.0225
G1 X78.33 Y72.69 E317.0493
G1 X144.56 Y138.92 E321.5353
G1 X144.56 Y139.49 E321.5626
G1 X77.76 Y72.69 E326.0872
G1 X77.20 Y72.69 E326.1140
G1 X144.56 Y140.05 E330.6765
G1 X144.56 Y140.62 E330.7038
G1 X76.63 Y72.69 E335.3049
G1 X76.06 Y72.69 E335.3322
G1 X144.56 Y141.19 E339.9719
G1 X144.56 Y141.75 E339.9988
G1 X75.50 Y72.69 E344.6764
G1 X75.44 Y72.69 E344.6793
G1 X75.44 Y73.20 E344.7037
G1 X144.56 Y142.32 E349.3854
G1 X144.56 Y142.88 E349.4123
G1 X75.44 Y73.76 E354.0940
G1 X75.44 Y74.33 E354.1213
G1 X144.56 Y143.45 E358.8030
G1 X144.56 Y144.01 E358.8298
G1 X75.44 Y74.89 E363.5115
G1 X75.44 Y75.46 E363.5389
G1 X144.56 Y144.58 E368.2206
G1 X144.56 Y145.14 E368.2474
G1 X75.44 Y76.02 E372.9291
G1 X75.44 Y76.59 E372.9564
G1 X144.56 Y145.71 E377.6381
G1 X144.56 Y146.28 E377.6654
G1 X75.44 Y77.16 E382.3472
G1 X75.44 Y77.72 E382.3740
G1 X144.56 Y146.84 E387.0557
G1 X144.56 Y147.31 E387.0782
G1 X144.46 Y147.31 E387.0830
G1 X75.44 Y78.29 E391.7579
G1 X75.44 Y78.85 E391.7847
G1 X143.90 Y147.31 E396.4217
G1 X143.33 Y147.31 E396.4490
G1 X75.44 Y79.42 E401.0474
G1 X75.44 Y79.98 E401.0743
G1 X142.76 Y147.31 E405.6344
G1 X142.20 Y147.31 E405.6612
G1 X75.44 Y80.55 E410.1831
G1 X75.44 Y81.12 E410.2104
G1 X141.63 Y147.31 E414.6936
G1 X141.07 Y147.31 E414.7204
G1 X75.44 Y81.68 E419.1658
G1 X75.44 Y82.25 E419.1931
G1 X140.50 Y147.31 E423.5998
G1 X139.94 Y147.31 E423.6266
G1 X75.44 Y82.81 E427.9954
G1 X75.44 Y83.38 E428.0227
G1 X139.37 Y147.31 E432.3529
G1 X138.80 Y147.31 E432.3802
G1 X75.44 Y83.94 E436.6721
G1 X75.44 Y84.51 E436.6995
G1 X138.24 Y147.31 E440.9531
G1 X137.67 Y147.31 E440.9804
G1 X75.44 Y85.08 E445.1955
G1 X75.44 Y85.64 E445.2223
G1 X137.11 Y147.31 E449.3994
G1 X136.54 Y147.31 E449.4267
G1 X75.44 Y86.21 E453.5652
G1 X75.44 Y86.77 E453.5920
G1 X135.98 Y147.31 E457.6926
G1 X135.41 Y147.31 E457.7199
G1 X75.44 Y87.34 E461.7818
G1 X75.44 Y87.90 E461.8086
G1 X134.84 Y147.31 E465.8323
G1 X134.28 Y147.31 E465.8592
G1 X75.44 Y88.47 E469.8446
G1 X75.44 Y89.04 E469.8719
G1 X133.71 Y147.31 E473.8187
G1 X133.15 Y147.31 E473.8455
G1 X75.44 Y89.60 E477.7544
G1 X75.44 Y90.17 E477.7817
G1 X132.58 Y147.31 E481.6520
G1 X132.02 Y147.31 E481.6788
G1 X75.44 Y90.73 E485.5111
G1 X75.44 Y91.30 E485.5384
G1 X131.45 Y147.31 E489.3322
G1 X130.88 Y147.31 E489.3595
G1 X75.44 Y91.86 E493.1150
G1 X75.44 Y92.43 E493.1423
G1 X130.32 Y147.31 E496.8595
G1 X129.75 Y147.31 E496.8868
G1 X75.44 Y93.00 E500.5654
G1 X75.44 Y93.56 E500.5922
G1 X129.19 Y147.31 E504.2328
G1 X128.62 Y147.31 E504.2602
G1 X75.44 Y94.13 E507.8622
G1 X75.44 Y94.69 E507.8890
G1 X128.06 Y147.31 E511.4531
G1 X127.49 Y147.31 E511.4805
G1 X75.44 Y95.26 E515.0059
G1 X75.44 Y95.82 E515.0328
G1 X126.92 Y147.31 E518.5200
G1 X126.36 Y147.31 E518.5468
G1 X75.44 Y96.39 E521.9958
G1 X75.44 Y96.95 E522.0226
G1 X125.79 Y147.31 E525.4333
G1 X125.23 Y147.31 E525.4602
G1 X75.44 Y97.52 E528.8326
G1 X75.44 Y98.09 E528.8599
G1 X124.66 Y147.31 E532.1937
G1 X124.10 Y147.31 E532.2205
G1 X75.44 Y98.65 E535.5164
G1 X75.44 Y99.22 E535.5437
G1 X123.53 Y147.31 E538.8011
G1 X122.97 Y147.31 E538.8278
G1 X75.44 Y99.78 E542.0472
G1 X75.44 Y100.35 E542.0745
G1 X122.40 Y147.31 E545.2553
G1 X121.83 Y147.31 E545.2826
G1 X75.44 Y100.91 E548.4251
G1 X75.44 Y101.48 E548.4524
G1 X121.27 Y147.31 E551.5566
G1 X120.70 Y147.31 E551.5839
G1 X75.44 Y102.05 E554.6495
G1 X75.44 Y102.61 E554.6764
G1 X120.14 Y147.31 E557.7040
G1 X119.57 Y147.31 E557.7313
G1 X75.44 Y103.18 E560.7204
G1 X75.44 Y103.74 E560.7472
G1 X119.01 Y147.31 E563.6983
G1 X118.44 Y147.31 E563.7257
G1 X75.44 Y104.31 E566.6381
G1 X75.44 Y104.87 E566.6649
G1 X117.87 Y147.31 E569.5392
G1 X117.31 Y147.31 E569.5660
G1 X75.44 Y105.44 E572.4020
G1 X75.44 Y106.01 E572.4293
G1 X116.74 Y147.31 E575.2267
G1 X116.18 Y147.31 E575.2535
G1 X75.44 Y106.57 E578.0130
G1 X75.44 Y107.14 E578.0402
G1 X115.61 Y147.31 E580.7611
G1 X115.05 Y147.31 E580.7879
G1 X75.44 Y107.70 E583.4709
G1 X75.44 Y108.27 E583.4981
G1 X114.48 Y147.31 E586.1425
G1 X113.91 Y147.31 E586.1698
G1 X75.44 Y108.83 E588.7758
G1 X75.44 Y109.40 E588.8031
G1 X113.35 Y147.31 E591.3709
G1 X112.78 Y147.31 E591.3982
G1 X75.44 Y109.97 E593.9274
G1 X75.44 Y110.53 E593.9542
G1 X112.22 Y147.31 E596.4455
G1 X111.65 Y147.31 E596.4728
G1 X75.44 Y111.10 E598.9254
G1 X75.44 Y111.66 E598.9522
G1 X111.09 Y147.31 E601.3669
G1 X110.52 Y147.31 E601.3942
G1 X75.44 Y112.23 E603.7703
G1 X75.44 Y112.79 E603.7971
G1 X109.95 Y147.31 E606.1349
G1 X109.39 Y147.31 E606.1617
G1 X75.44 Y113.36 E608.4613
G1 X75.44 Y113.93 E608.4886
G1 X108.82 Y147.31 E610.7495
G1 X108.26 Y147.31 E610.7763
G1 X75.44 Y114.49 E612.9994
G1 X75.44 Y115.06 E613.0266
G1 X107.69 Y147.31 E615.2110
G1 X107.13 Y147.31 E615.2378
G1 X75.44 Y115.62 E617.3843
G1 X75.44 Y116.19 E617.4116
G1 X106.56 Y147.31 E619.5194
G1 X105.99 Y147.31 E619.5468
G1 X75.44 Y116.75 E621.6164
G1 X75.44 Y117.32 E621.6436
G1 X105.43 Y147.31 E623.6750
G1 X104.86 Y147.31 E623.7023
G1 X75.44 Y117.89 E625.6950
G1 X75.44 Y118.45 E625.7218
G1 X104.30 Y147.31 E627.6765
G1 X103.73 Y147.31 E627.7038
G1 X75.44 Y119.02 E629.6200
G1 X75.44 Y119.58 E629.6468
G1 X103.17 Y147.31 E631.5251
G1 X102.60 Y147.31 E631.5524
G1 X75.44 Y120.15 E633.3921
G1 X75.44 Y120.71 E633.4188
G1 X102.03 Y147.31 E635.2202
G1 X101.47 Y147.31 E635.2470
G1 X75.44 Y121.28 E637.0102
G1 X75.44 Y121.85 E637.0374
G1 X100.90 Y147.31 E638.7620
G1 X100.34 Y147.31 E638.7888
G1 X75.44 Y122.41 E640.4754
G1 X75.44 Y122.98 E640.5026
G1 X99.77 Y147.31 E642.1506
G1 X99.21 Y147.31 E642.1774
G1 X75.44 Y123.54 E643.7874
G1 X75.44 Y124.11 E643.8147
G1 X98.64 Y147.31 E645.3861
G1 X98.08 Y147.31 E645.4130
G1 X75.44 Y124.67 E646.9464
G1 X75.44 Y125.24 E646.9738
G1 X97.51 Y147.31 E648.4687
G1 X96.94 Y147.31 E648.4959
G1 X75.44 Y125.81 E649.9522
G1 X75.44 Y126.37 E649.9790
G1 X96.38 Y147.31 E651.3974
G1 X95.81 Y147.31 E651.4246
G1 X75.44 Y126.94 E652.8044
G1 X75.44 Y127.50 E652.8312
G1 X95.25 Y147.31 E654.1730
G1 X94.68 Y147.31 E654.2003
G1 X75.44 Y128.07 E655.5035
G1 X75.44 Y128.63 E655.5304
G1 X94.12 Y147.31 E656.7956
G1 X93.55 Y147.31 E656.8229
G1 X75.44 Y129.20 E658.0495
G1 X75.44 Y129.77 E658.0768
G1 X92.98 Y147.31 E659.2649
G1 X92.42 Y147.31 E659.2917
G1 X75.44 Y130.33 E660.4419
G1 X75.44 Y130.90 E660.4691
G1 X91.85 Y147.31 E661.5807
G1 X91.29 Y147.31 E661.6074
G1 X75.44 Y131.46 E662.6811
G1 X75.44 Y132.03 E662.7083
G1 X90.72 Y147.31 E663.7433
G1 X90.16 Y147.31 E663.7701
G1 X75.44 Y132.59 E664.7672
G1 X75.44 Y133.16 E664.7945
G1 X89.59 Y147.31 E665.7529
G1 X89.02 Y147.31 E665.7802
G1 X75.44 Y133.73 E666.7000
G1 X75.44 Y134.29 E666.7268
G1 X88.46 Y147.31 E667.6087
G1 X87.89 Y147.31 E667.6360
G1 X75.44 Y134.86 E668.4793
G1 X75.44 Y135.42 E668.5061
G1 X87.33 Y147.31 E669.3115
G1 X86.76 Y147.31 E669.3388
G1 X75.44 Y135.99 E670.1056
G1 X75.44 Y136.55 E670.1323
G1 X86.20 Y147.31 E670.8612
G1 X85.63 Y147.31 E670.8885
G1 X75.44 Y137.12 E671.5786
G1 X75.44 Y137.69 E671.6060
G1 X85.06 Y147.31 E672.2575
G1 X84.50 Y147.31 E672.2843
G1 X75.44 Y138.25 E672.8980
G1 X75.44 Y138.82 E672.9253
G1 X83.93 Y147.31 E673.5004
G1 X83.37 Y147.31 E673.5272
G1 X75.44 Y139.38 E674.0644
G1 X75.44 Y139.95 E674.0916
G1 X82.80 Y147.31 E674.5902
G1 X82.24 Y147.31 E674.6170
G1 X75.44 Y140.51 E675.0775
G1 X75.44 Y141.08 E675.1048
G1 X81.67 Y147.31 E675.5268
G1 X81.10 Y147.31 E675.5542
G1 X75.44 Y141.64 E675.9378
G1 X75.44 Y142.21 E675.9652
G1 X80.54 Y147.31 E676.3106
G1 X79.97 Y147.31 E676.3379
G1 X75.44 Y142.78 E676.6447
G1 X75.44 Y143.34 E676.6715
G1 X79.41 Y147.31 E676.9404
G1 X78.84 Y147.31 E676.9677
G1 X75.44 Y143.91 E677.1980
G1 X75.44 Y144.47 E677.2248
G1 X78.28 Y147.31 E677.4172
G1 X77.71 Y147.31 E677.4445
G1 X75.44 Y145.04 E677.5983
G1 X75.44 Y145.60 E677.6251
G1 X77.14 Y147.31 E677.7406
G1 X76.58 Y147.31 E677.7674
G1 X75.44 Y146.17 E677.8446
G1 X75.44 Y146.74 E677.8719
G1 X76.01 Y147.31 E677.9105
G1 X75.44 Y147.30 E677.9378
;layer:0.20
;shell
G1 Z.500 F420
G1 X75.10 Y72.35 F4800
G1 X75.10 Y72.35
G1 X144.90 Y72.35 E680.1665 F1500
G1 X144.90 Y147.65 E682.5708
G1 X75.10 Y147.65 E684.7995
G1 X75.10 Y72.35 E687.2038
G1 X74.70 Y71.95 F4800
G1 X145.30 Y71.95 E689.4581 F1500
G1 X145.30 Y148.05 E691.8880
G1 X74.70 Y148.05 E694.1422
G1 X74.70 Y71.95 E696.5721
;infill
G1 X75.49 Y72.69 F4800
G1 X75.44 Y72.74 E696.5744 F2100
G1 X75.44 Y73.31 E696.5926
G1 X76.05 Y72.69 E696.6203
G1 X76.62 Y72.69 E696.6385
