;generated by ffslicer 1.30.3 09/11/23 20:13:31
;right_extruder_material: PLA
;layer_height: 0.2
;perimeter_shells: 2
;top_solid_layers: 4
;bottom_solid_layers: 3
;fill_density: 15%
;fill_pattern: hexagon
;base_print_speed: 50
;travel_speed: 80
;right_extruder_temperature: 200
;left_extruder_temperature: 0
;platform_temperature: 60
;right_extruder_temperature_raft0: 0
;left_extruder_temperature_raft0: 0
;right_extruder_temperature_reset: 
;left_extruder_temperature_reset: 
;start gcode
M140 S60 T0
M104 S200 T0
M104 S0 T1
G90
G28
G1 Z50.000 F420
G161 X Y F3300
M190 S60 T0
M109 S200 T0
M109 S0 T1
G92 E.0000
;layer_count: 60
M108 T0
G1 X139.50 Y154.50 F4800
;preExtrude:0.20
;preExtruder0
M106 S255
G1 Z.200 F420
G1 X139.50 Y154.50 F4800
G1 X28.50 Y154.50 E14.1768 F1200
G1 X28.50 Y65.50 E25.5438
;raft
;layer:0.30
;shell
G1 E20.5438 F2700
G1 Z.300 F420
G1 X37.10 Y74.10 F4200
G1 E25.5438 F2700
G1 X37.10 Y74.10 F4200
G1 X182.90 Y74.10 E32.5268 F600
G1 X182.90 Y145.90 E35.9657
G1 X37.10 Y145.90 E42.9487
G1 X37.10 Y74.10 E46.3875
G1 X36.70 Y73.70 F4200
G1 X183.30 Y73.70 E53.4089 F600
G1 X183.30 Y146.30 E56.8860
G1 X36.70 Y146.30 E63.9074
G1 X36.70 Y73.70 E67.3845
G1 X81.40 Y88.72 F4200
G1 X81.40 Y88.72
G1 X81.43 Y89.94 E67.4430 F600
G1 X81.55 Y91.05 E67.4964
G1 X81.75 Y92.18 E67.5514
G1 X82.04 Y93.26 E67.6049
G1 X82.41 Y94.34 E67.6596
G1 X82.86 Y95.37 E67.7135
G1 X83.35 Y96.29 E67.7634
G1 X97.36 Y120.56 E69.1055
G1 X98.01 Y121.57 E69.1631
G1 X98.69 Y122.48 E69.2175
G1 X99.44 Y123.33 E69.2718
G1 X100.25 Y124.12 E69.3260
G1 X101.12 Y124.84 E69.3800
G1 X102.04 Y125.49 E69.4340
G1 X103.02 Y126.07 E69.4885
G1 X104.04 Y126.57 E69.5429
G1 X105.08 Y126.99 E69.5967
G1 X106.17 Y127.33 E69.6513
G1 X107.27 Y127.59 E69.7055
G1 X108.38 Y127.76 E69.7593
G1 X109.52 Y127.84 E69.8140
G1 X110.64 Y127.83 E69.8676
G1 X111.78 Y127.74 E69.9224
G1 X112.90 Y127.56 E69.9767
G1 X114.00 Y127.29 E70.0310
G1 X115.07 Y126.94 E70.0849
G1 X116.11 Y126.51 E70.1388
G1 X117.13 Y125.99 E70.1936
G1 X118.09 Y125.40 E70.2476
G1 X119.01 Y124.74 E70.3018
G1 X119.88 Y124.00 E70.3565
G1 X120.67 Y123.21 E70.4101
G1 X121.42 Y122.34 E70.4651
G1 X122.08 Y121.44 E70.5185
G1 X122.64 Y120.56 E70.5685
G1 X136.65 Y96.29 E71.9107
G1 X137.20 Y95.22 E71.9683
G1 X137.65 Y94.18 E72.0225
G1 X138.01 Y93.10 E72.0771
G1 X138.29 Y92.00 E72.1314
G1 X138.47 Y90.89 E72.1853
G1 X138.58 Y89.77 E72.2392
G1 X138.59 Y88.64 E72.2933
G1 X138.52 Y87.51 E72.3475
G1 X138.36 Y86.38 E72.4022
G1 X138.11 Y85.27 E72.4567
G1 X137.78 Y84.19 E72.5108
G1 X137.37 Y83.15 E72.5643
G1 X136.88 Y82.13 E72.6185
G1 X136.30 Y81.14 E72.6735
G1 X135.66 Y80.22 E72.7272
G1 X134.94 Y79.34 E72.7816
G1 X134.16 Y78.52 E72.8358
G1 X133.31 Y77.76 E72.8904
G1 X132.41 Y77.07 E72.9447
G1 X131.47 Y76.46 E72.9984
G1 X130.48 Y75.92 E73.0524
G1 X129.44 Y75.46 E73.1069
G1 X128.37 Y75.07 E73.1614
G1 X127.29 Y74.78 E73.2150
G1 X126.17 Y74.57 E73.2696
G1 X125.05 Y74.44 E73.3236
G1 X124.01 Y74.40 E73.3734
G1 X95.99 Y74.40 E74.7154
G1 X94.78 Y74.45 E74.7734
G1 X93.66 Y74.59 E74.8275
G1 X92.56 Y74.81 E74.8812
G1 X91.46 Y75.13 E74.9361
G1 X90.40 Y75.52 E74.9902
G1 X89.37 Y76.00 E75.0446
G1 X88.39 Y76.54 E75.0982
G1 X87.44 Y77.18 E75.1530
G1 X86.56 Y77.87 E75.2066
G1 X85.72 Y78.64 E75.2612
G1 X84.95 Y79.46 E75.3150
G1 X84.24 Y80.35 E75.3696
G1 X83.60 Y81.29 E75.4240
G1 X83.04 Y82.28 E75.4785
G1 X82.57 Y83.29 E75.5319
G1 X82.16 Y84.36 E75.5867
G1 X81.84 Y85.43 E75.6402
G1 X81.61 Y86.54 E75.6945
G1 X81.46 Y87.67 E75.7491
G1 X81.40 Y88.72 E75.7995
G1 X81.80 Y88.73 F4200
G1 X81.83 Y89.91 E75.8560 F600
G1 X81.94 Y91.00 E75.9085
G1 X82.14 Y92.09 E75.9616
G1 X82.42 Y93.15 E76.0141
G1 X82.79 Y94.19 E76.0670
G1 X83.23 Y95.20 E76.1197
G1 X83.70 Y96.10 E76.1684
G1 X97.70 Y120.35 E77.5095
G1 X98.34 Y121.35 E77.5663
G1 X99.00 Y122.23 E77.6190
G1 X99.73 Y123.05 E77.6716
G1 X100.52 Y123.82 E77.7244
G1 X101.37 Y124.52 E77.7772
G1 X102.27 Y125.16 E77.8301
G1 X103.21 Y125.72 E77.8825
G1 X104.20 Y126.21 E77.9354
G1 X105.22 Y126.62 E77.9880
G1 X106.27 Y126.95 E78.0407
G1 X107.34 Y127.20 E78.0934
G1 X108.43 Y127.36 E78.1461
G1 X109.53 Y127.44 E78.1989
G1 X110.63 Y127.43 E78.2516
G1 X111.73 Y127.34 E78.3045
G1 X112.82 Y127.16 E78.3574
G1 X113.89 Y126.90 E78.4101
G1 X114.93 Y126.56 E78.4626
G1 X115.95 Y126.14 E78.5154
G1 X116.93 Y125.64 E78.5681
G1 X117.87 Y125.07 E78.6207
G1 X118.76 Y124.42 E78.6735
G1 X119.60 Y123.71 E78.7262
G1 X120.38 Y122.93 E78.7790
G1 X121.10 Y122.10 E78.8316
G1 X121.75 Y121.21 E78.8844
G1 X122.30 Y120.35 E78.9333
G1 X136.30 Y96.10 E80.2744
G1 X136.84 Y95.05 E80.3310
G1 X137.27 Y94.04 E80.3835
G1 X137.62 Y92.99 E80.4365
G1 X137.89 Y91.92 E80.4894
G1 X138.08 Y90.84 E80.5419
G1 X138.18 Y89.74 E80.5948
G1 X138.19 Y88.64 E80.6475
G1 X138.12 Y87.54 E80.7003
G1 X137.97 Y86.45 E80.7530
G1 X137.73 Y85.38 E80.8055
G1 X137.41 Y84.33 E80.8581
G1 X137.00 Y83.30 E80.9112
G1 X136.52 Y82.31 E80.9639
G1 X135.97 Y81.36 E81.0165
G1 X135.34 Y80.46 E81.0691
G1 X134.64 Y79.60 E81.1222
G1 X133.88 Y78.81 E81.1747
G1 X133.06 Y78.07 E81.2276
G1 X132.19 Y77.40 E81.2802
G1 X131.26 Y76.80 E81.3332
G1 X130.30 Y76.28 E81.3855
G1 X129.29 Y75.83 E81.4384
G1 X128.26 Y75.46 E81.4908
G1 X127.19 Y75.17 E81.5439
G1 X126.11 Y74.96 E81.5966
G1 X125.02 Y74.84 E81.6492
G1 X124.00 Y74.80 E81.6980
G1 X96.00 Y74.80 E83.0391
G1 X94.82 Y74.85 E83.0957
G1 X93.73 Y74.99 E83.1483
G1 X92.65 Y75.20 E83.2010
G1 X91.59 Y75.50 E83.2537
G1 X90.55 Y75.89 E83.3069
G1 X89.55 Y76.35 E83.3597
G1 X88.59 Y76.89 E83.4124
G1 X87.68 Y77.50 E83.4649
G1 X86.81 Y78.18 E83.5178
G1 X86.00 Y78.92 E83.5703
G1 X85.25 Y79.73 E83.6232
G1 X84.56 Y80.59 E83.6760
G1 X83.95 Y81.50 E83.7285
G1 X83.40 Y82.46 E83.7814
G1 X82.93 Y83.45 E83.8339
G1 X82.54 Y84.48 E83.8867
G1 X82.23 Y85.54 E83.9396
G1 X82.00 Y86.61 E83.9920
G1 X81.86 Y87.71 E84.0451
G1 X81.80 Y88.73 E84.0940
;infill
G1 X81.67 Y87.69 F4200
G1 X81.82 Y86.58
G1 X82.05 Y85.49
G1 X82.36 Y84.42
G1 X82.76 Y83.38
G1 X83.23 Y82.37
G1 X83.79 Y81.40
G1 X84.41 Y80.48
G1 X85.11 Y79.60
G1 X85.87 Y78.79
G1 X86.69 Y78.03
G1 X91.34 Y74.44
G1 X91.34 Y74.44
G1 X91.43 Y74.78 E84.1109 F600
G1 X91.20 Y74.86 E84.1225
G1 X90.78 Y74.44 E84.1510
G1 X90.21 Y74.44 E84.1783
G1 X90.79 Y75.01 E84.2172
G1 X90.37 Y75.16 E84.2386
G1 X89.65 Y74.44 E84.2874
G1 X89.08 Y74.44 E84.3147
G1 X89.98 Y75.34 E84.3756
G1 X89.59 Y75.52 E84.3962
G1 X88.51 Y74.44 E84.4693
G1 X87.95 Y74.44 E84.4962
G1 X89.21 Y75.70 E84.5815
G1 X88.84 Y75.90 E84.6016
G1 X87.38 Y74.44 E84.7005
G1 X86.82 Y74.44 E84.7273
G1 X88.48 Y76.10 E84.8398
G1 X88.12 Y76.31 E84.8597
G1 X86.25 Y74.44 E84.9864
G1 X85.69 Y74.44 E85.0132
G1 X87.78 Y76.54 E85.1551
G1 X87.44 Y76.76 E85.1745
G1 X85.12 Y74.44 E85.3317
G1 X84.56 Y74.44 E85.3585
G1 X87.11 Y77.00 E85.5316
G1 X86.80 Y77.25 E85.5506
G1 X83.99 Y74.44 E85.7409
G1 X83.42 Y74.44 E85.7682
G1 X86.48 Y77.49 E85.9752
G1 X86.17 Y77.75 E85.9945
G1 X82.86 Y74.44 E86.2187
G1 X82.29 Y74.44 E86.2460
G1 X85.88 Y78.03 E86.4892
G1 X85.59 Y78.30 E86.5082
G1 X81.73 Y74.44 E86.7696
G1 X81.16 Y74.44 E86.7969
G1 X85.30 Y78.58 E87.0773
G1 X85.03 Y78.87 E87.0963
G1 X80.60 Y74.44 E87.3964
G1 X80.03 Y74.44 E87.4237
G1 X84.76 Y79.17 E87.7440
G1 X84.50 Y79.48 E87.7634
G1 X79.46 Y74.44 E88.1048
G1 X78.90 Y74.44 E88.1316
G1 X84.25 Y79.79 E88.4940
G1 X84.00 Y80.11 E88.5134
G1 X78.33 Y74.44 E88.8975
G1 X77.77 Y74.44 E88.9243
G1 X83.77 Y80.44 E89.3307
G1 X83.54 Y80.78 E89.3504
G1 X77.20 Y74.44 E89.7798
G1 X76.64 Y74.44 E89.8066
G1 X83.31 Y81.12 E90.2587
G1 X83.11 Y81.48 E90.2784
G1 X76.07 Y74.44 E90.7553
G1 X75.50 Y74.44 E90.7826
G1 X82.90 Y81.84 E91.2838
G1 X82.70 Y82.20 E91.3035
G1 X74.94 Y74.44 E91.8292
G1 X74.37 Y74.44 E91.8564
G1 X82.52 Y82.59 E92.4085
G1 X82.34 Y82.97 E92.4286
G1 X73.81 Y74.44 E93.0064
G1 X73.24 Y74.44 E93.0337
G1 X82.17 Y83.37 E93.6385
G1 X82.02 Y83.78 E93.6594
G1 X72.68 Y74.44 E94.2921
G1 X72.11 Y74.44 E94.3194
G1 X81.86 Y84.19 E94.9798
G1 X81.73 Y84.62 E95.0013
G1 X71.54 Y74.44 E95.6911
G1 X70.98 Y74.44 E95.7180
G1 X81.60 Y85.06 E96.4373
G1 X81.48 Y85.51 E96.4596
G1 X70.41 Y74.44 E97.2094
G1 X69.85 Y74.44 E97.2362
G1 X81.38 Y85.97 E98.0172
G1 X81.28 Y86.44 E98.0402
G1 X69.28 Y74.44 E98.8530
G1 X68.71 Y74.44 E98.8803
G1 X81.21 Y86.94 E99.7269
G1 X81.15 Y87.44 E99.7511
G1 X68.15 Y74.44 E100.6316
G1 X67.58 Y74.44 E100.6589
G1 X81.11 Y87.96 E101.5750
G1 X81.07 Y88.50 E101.6009
G1 X67.02 Y74.44 E102.5529
G1 X66.45 Y74.44 E102.5802
G1 X81.07 Y89.06 E103.5705
G1 X81.08 Y89.63 E103.5978
G1 X65.89 Y74.44 E104.6266
G1 X65.32 Y74.44 E104.6539
G1 X81.12 Y90.24 E105.7241
G1 X81.19 Y90.87 E105.7545
G1 X64.76 Y74.44 E106.8673
G1 X64.19 Y74.44 E106.8946
G1 X81.29 Y91.54 E108.0529
G1 X81.42 Y92.23 E108.0865
G1 X63.62 Y74.44 E109.2918
G1 X63.06 Y74.44 E109.3186
G1 X81.62 Y93.00 E110.5758
G1 X81.71 Y93.36 E110.5935
G1 X81.87 Y93.82 E110.6169
G1 X62.49 Y74.44 E111.9295
G1 X61.93 Y74.44 E111.9564
G1 X82.21 Y94.72 E113.3300
G1 X82.56 Y95.52 E113.3718
G1 X82.69 Y95.77 E113.3853
G1 X61.36 Y74.44 E114.8301
G1 X60.80 Y74.44 E114.8569
G1 X83.38 Y97.02 E116.3863
G1 X84.15 Y98.36 E116.4603
G1 X60.23 Y74.44 E118.0805
G1 X59.66 Y74.44 E118.1078
G1 X84.92 Y99.70 E119.8187
G1 X85.70 Y101.04 E119.8930
G1 X59.10 Y74.44 E121.6947
G1 X58.53 Y74.44 E121.7220
G1 X86.47 Y102.37 E123.6141
G1 X87.24 Y103.71 E123.6881
G1 X57.97 Y74.44 E125.6707
G1 X57.40 Y74.44 E125.6980
G1 X88.01 Y105.05 E127.7713
G1 X88.79 Y106.39 E127.8455
G1 X56.84 Y74.44 E130.0096
G1 X56.27 Y74.44 E130.0369
G1 X89.56 Y107.73 E132.2918
G1 X90.33 Y109.07 E132.3658
G1 X55.71 Y74.44 E134.7110
G1 X55.14 Y74.44 E134.7383
G1 X91.11 Y110.41 E137.1747
G1 X91.88 Y111.74 E137.2483
G1 X54.57 Y74.44 E139.7751
G1 X54.01 Y74.44 E139.8019
G1 X92.65 Y113.08 E142.4191
G1 X93.42 Y114.42 E142.4931
G1 X53.44 Y74.44 E145.2011
G1 X52.88 Y74.44 E145.2279
G1 X94.20 Y115.76 E148.0267
G1 X94.97 Y117.10 E148.1007
G1 X52.31 Y74.44 E150.9902
G1 X51.75 Y74.44 E151.0170
G1 X95.74 Y118.44 E153.9969
G1 X96.52 Y119.77 E154.0708
G1 X51.18 Y74.44 E157.1415
G1 X50.61 Y74.44 E157.1688
G1 X97.35 Y121.18 E160.3346
G1 X83.53 Y96.19 F4200
G1 X83.06 Y95.28
G1 X82.61 Y94.26
G1 X82.24 Y93.21
G1 X81.96 Y92.13
G1 X81.76 Y91.03
G1 X81.64 Y89.92
G1 X81.61 Y88.72
G1 X81.67 Y87.69
G1 X81.82 Y86.58
G1 X82.05 Y85.49
G1 X82.36 Y84.42
G1 X82.76 Y83.38
G1 X83.23 Y82.37
G1 X83.79 Y81.40
G1 X84.41 Y80.48
G1 X85.11 Y79.60
G1 X85.87 Y78.79
G1 X86.69 Y78.03
G1 X87.57 Y77.34
G1 X91.69 Y74.57
G1 X91.69 Y74.57
G1 X92.78 Y74.43 E160.3872 F600
G1 X92.97 Y74.41 F4200
G1 X93.70 Y74.34 E160.4224 F600
G1 X126.29 Y74.34 F4200
G1 X126.29 Y74.34
G1 X127.06 Y74.41 E160.4594 F600
G1 X127.26 Y74.43 F4200
G1 X128.30 Y74.57 E160.5097 F600
G1 X129.27 Y75.03 F4200
G1 X128.68 Y74.44 E160.5496 F600
G1 X129.24 Y74.44 E160.5765
G1 X130.25 Y75.44 E160.6445
G1 X130.63 Y75.61 E160.6645
G1 X131.41 Y76.04 E160.7071
G1 X129.81 Y74.44 E160.8155
G1 X130.38 Y74.44 E160.8428
G1 X133.12 Y77.19 E161.0287
G1 X182.56 Y74.58 F4200
G1 X182.56 Y74.58
G1 X182.42 Y74.44 E161.0382 F600
G1 X181.85 Y74.44 E161.0655
G1 X182.56 Y75.14 E161.1133
G1 X182.56 Y75.71 E161.1406
G1 X181.29 Y74.44 E161.2266
G1 X180.72 Y74.44 E161.2539
G1 X182.56 Y76.28 E161.3785
G1 X182.56 Y76.84 E161.4053
G1 X180.16 Y74.44 E161.5679
G1 X179.59 Y74.44 E161.5952
G1 X182.56 Y77.41 E161.7963
G1 X182.56 Y77.97 E161.8232
G1 X179.03 Y74.44 E162.0623
G1 X178.46 Y74.44 E162.0896
G1 X182.56 Y78.54 E162.3673
G1 X182.56 Y79.10 E162.3941
G1 X177.89 Y74.44 E162.7101
G1 X177.33 Y74.44 E162.7369
G1 X182.56 Y79.67 E163.0911
G1 X182.56 Y80.24 E163.1184
G1 X176.76 Y74.44 E163.5113
G1 X176.20 Y74.44 E163.5381
G1 X182.56 Y80.80 E163.9689
G1 X182.56 Y81.37 E163.9962
G1 X175.63 Y74.44 E164.4656
G1 X175.07 Y74.44 E164.4924
G1 X182.56 Y81.93 E164.9998
G1 X182.56 Y82.50 E165.0271
G1 X174.50 Y74.44 E165.5730
G1 X173.93 Y74.44 E165.6003
G1 X182.56 Y83.06 E166.1845
G1 X182.56 Y83.63 E166.2118
G1 X173.37 Y74.44 E166.8342
G1 X172.80 Y74.44 E166.8615
G1 X182.56 Y84.20 E167.5226
G1 X182.56 Y84.76 E167.5494
G1 X172.24 Y74.44 E168.2484
G1 X171.67 Y74.44 E168.2757
G1 X182.56 Y85.33 E169.0133
G1 X182.56 Y85.89 E169.0402
G1 X171.11 Y74.44 E169.8157
G1 X170.54 Y74.44 E169.8430
G1 X182.56 Y86.46 E170.6572
G1 X182.56 Y87.02 E170.6840
G1 X169.97 Y74.44 E171.5364
G1 X169.41 Y74.44 E171.5633
G1 X182.56 Y87.59 E172.4539
G1 X182.56 Y88.16 E172.4812
G1 X168.84 Y74.44 E173.4105
G1 X168.28 Y74.44 E173.4374
G1 X182.56 Y88.72 E174.4046
G1 X182.56 Y89.29 E174.4319
G1 X167.71 Y74.44 E175.4377
G1 X167.15 Y74.44 E175.4646
G1 X182.56 Y89.85 E176.5083
G1 X182.56 Y90.42 E176.5356
G1 X166.58 Y74.44 E177.6180
G1 X166.01 Y74.44 E177.6453
G1 X182.56 Y90.98 E178.7659
G1 X182.56 Y91.55 E178.7932
G1 X165.45 Y74.44 E179.9522
G1 X164.88 Y74.44 E179.9795
G1 X182.56 Y92.12 E181.1770
G1 X182.56 Y92.68 E181.2038
G1 X164.32 Y74.44 E182.4393
G1 X163.75 Y74.44 E182.4666
G1 X182.56 Y93.25 E183.7406
G1 X182.56 Y93.81 E183.7674
G1 X163.19 Y74.44 E185.0794
G1 X162.62 Y74.44 E185.1067
G1 X182.56 Y94.38 E186.4573
G1 X182.56 Y94.94 E186.4842
G1 X162.05 Y74.44 E187.8730
G1 X161.49 Y74.44 E187.8998
G1 X182.56 Y95.51 E189.3270
G1 X182.56 Y96.08 E189.3543
G1 X160.92 Y74.44 E190.8200
G1 X160.36 Y74.44 E190.8469
G1 X182.56 Y96.64 E192.3505
G1 X182.56 Y97.21 E192.3778
G1 X159.79 Y74.44 E193.9201
G1 X159.23 Y74.44 E193.9469
G1 X182.56 Y97.77 E195.5272
G1 X182.56 Y98.34 E195.5545
G1 X158.66 Y74.44 E197.1733
G1 X158.09 Y74.44 E197.2006
G1 X182.56 Y98.90 E198.8577
G1 X182.56 Y99.47 E198.8850
G1 X157.53 Y74.44 E200.5803
G1 X156.96 Y74.44 E200.6076
G1 X182.56 Y100.04 E202.3416
G1 X182.56 Y100.60 E202.3684
G1 X156.40 Y74.44 E204.1403
G1 X155.83 Y74.44 E204.1676
G1 X182.56 Y101.17 E205.9781
G1 X182.56 Y101.73 E206.0050
G1 X155.27 Y74.44 E207.8534
G1 X154.70 Y74.44 E207.8807
G1 X182.56 Y102.30 E209.7678
G1 X182.56 Y102.86 E209.7946
G1 X154.13 Y74.44 E211.7199
G1 X153.57 Y74.44 E211.7467
G1 X182.56 Y103.43 E213.7103
G1 X182.56 Y103.99 E213.7371
G1 X153.00 Y74.44 E215.7390
G1 X152.44 Y74.44 E215.7658
G1 X182.56 Y104.56 E217.8060
G1 X182.56 Y105.13 E217.8332
G1 X151.87 Y74.44 E219.9120
G1 X151.31 Y74.44 E219.9388
G1 X182.56 Y105.69 E222.0555
G1 X182.56 Y106.26 E222.0828
G1 X150.74 Y74.44 E224.2380
G1 X150.18 Y74.44 E224.2649
G1 X182.56 Y106.82 E226.4581
G1 X182.56 Y107.39 E226.4853
G1 X149.61 Y74.44 E228.7172
G1 X149.04 Y74.44 E228.7445
G1 X182.56 Y107.95 E231.0145
G1 X182.56 Y108.52 E231.0418
G1 X148.48 Y74.44 E233.3502
G1 X147.91 Y74.44 E233.3775
G1 X182.56 Y109.09 E235.7244
G1 X182.56 Y109.65 E235.7513
G1 X147.35 Y74.44 E238.1362
G1 X146.78 Y74.44 E238.1634
G1 X182.56 Y110.22 E240.5870
G1 X182.56 Y110.78 E240.6138
G1 X146.22 Y74.44 E243.0752
G1 X145.65 Y74.44 E243.1025
G1 X182.56 Y111.35 E245.6025
G1 X182.56 Y111.91 E245.6294
G1 X145.08 Y74.44 E248.1676
G1 X144.52 Y74.44 E248.1945
G1 X182.56 Y112.48 E250.7711
G1 X182.56 Y113.05 E250.7984
G1 X143.95 Y74.44 E253.4135
G1 X143.39 Y74.44 E253.4404
G1 X182.56 Y113.61 E256.0935
G1 X182.56 Y114.18 E256.1208
G1 X142.82 Y74.44 E258.8125
G1 X142.26 Y74.44 E258.8393
G1 X182.56 Y114.74 E261.5690
G1 X182.56 Y115.31 E261.5962
G1 X141.69 Y74.44 E264.3645
G1 X141.12 Y74.44 E264.3918
G1 X182.56 Y115.87 E267.1983
G1 X182.56 Y116.44 E267.2257
G1 X140.56 Y74.44 E270.0704
G1 X139.99 Y74.44 E270.0978
G1 X182.56 Y117.01 E272.9812
G1 X182.56 Y117.57 E273.0080
G1 X139.43 Y74.44 E275.9293
G1 X138.86 Y74.44 E275.9566
G1 X182.56 Y118.14 E278.9166
G1 X182.56 Y118.70 E278.9434
G1 X138.30 Y74.44 E281.9413
G1 X137.73 Y74.44 E281.9686
G1 X182.56 Y119.27 E285.0050
G1 X182.56 Y119.83 E285.0318
G1 X137.16 Y74.44 E288.1066
G1 X136.60 Y74.44 E288.1334
G1 X182.56 Y120.40 E291.2464
G1 X182.56 Y120.97 E291.2738
G1 X136.03 Y74.44 E294.4254
G1 X135.47 Y74.44 E294.4522
G1 X182.56 Y121.53 E297.6418
G1 X182.56 Y122.10 E297.6691
G1 X134.90 Y74.44 E300.8972
G1 X134.34 Y74.44 E300.9241
G1 X182.56 Y122.66 E304.1901
G1 X182.56 Y123.23 E304.2175
G1 X133.77 Y74.44 E307.5221
G1 X133.20 Y74.44 E307.5495
G1 X182.56 Y123.79 E310.8924
G1 X182.56 Y124.36 E310.9197
G1 X132.64 Y74.44 E314.3010
G1 X132.07 Y74.44 E314.3283
G1 X182.56 Y124.93 E317.7482
G1 X182.56 Y125.49 E317.7749
G1 X131.51 Y74.44 E321.2327
G1 X130.94 Y74.44 E321.2601
G1 X182.56 Y126.06 E324.7564
