;generated by ffslicer 1.30.3 09/07/23 09:44:09
;right_extruder_material: PLA
;layer_height: 0.2
;perimeter_shells: 2
;top_solid_layers: 4
;bottom_solid_layers: 3
;fill_density: 15%
;fill_pattern: hexagon
;base_print_speed: 50
;travel_speed: 80
;right_extruder_temperature: 200
;left_extruder_temperature: 0
;platform_temperature: 60
;right_extruder_temperature_raft0: 0
;left_extruder_temperature_raft0: 0
;right_extruder_temperature_reset: 
;left_extruder_temperature_reset: 
;start gcode
M140 S60 T0
M104 S200 T0
M104 S0 T1
G90
G28
G1 Z50.000 F420
G161 X Y F3300
M190 S60 T0
M109 S200 T0
M109 S0 T1
G92 E.0000
;layer_count: 60
M108 T0
G1 X150.00 Y156.00 F4800
;preExtrude:0.20
;preExtruder0
M106 S255
G1 Z.200 F420
G1 X150.00 Y156.00 F4800
G1 X52.00 Y156.00 E12.5165 F1200
G1 X52.00 Y64.00 E24.2666
;raft
;layer:0.30
;shell
G1 E19.2666 F2700
G1 Z.300 F420
G1 X60.60 Y72.60 F4200
G1 E24.2666 F2700
G1 X60.60 Y72.60 F4200
G1 X159.40 Y72.60 E28.9986 F600
G1 X159.40 Y147.40 E32.5811
G1 X60.60 Y147.40 E37.3131
G1 X60.60 Y72.60 E40.8956
G1 X60.20 Y72.20 F4200
G1 X159.80 Y72.20 E45.6659 F600
G1 X159.80 Y147.80 E49.2867
G1 X60.20 Y147.80 E54.0570
G1 X60.20 Y72.20 E57.6779
;infill
G1 X60.94 Y147.05 F4200
G1 X60.94 Y147.05
G1 X61.51 Y147.06 E57.7052 F600
G1 X60.94 Y146.49 E57.7438
G1 X60.94 Y145.92 E57.7711
G1 X62.08 Y147.06 E57.8483
G1 X62.65 Y147.06 E57.8756
G1 X60.94 Y145.35 E57.9914
G1 X60.94 Y144.78 E58.0187
G1 X63.22 Y147.06 E58.1732
G1 X63.78 Y147.06 E58.2000
G1 X60.94 Y144.22 E58.3923
G1 X60.94 Y143.65 E58.4196
G1 X64.35 Y147.06 E58.6506
G1 X64.92 Y147.06 E58.6779
G1 X60.94 Y143.08 E58.9475
G1 X60.94 Y142.52 E58.9743
G1 X65.48 Y147.06 E59.2818
G1 X66.05 Y147.06 E59.3091
G1 X60.94 Y141.95 E59.6552
G1 X60.94 Y141.38 E59.6825
G1 X66.62 Y147.06 E60.0673
G1 X67.19 Y147.06 E60.0946
G1 X60.94 Y140.81 E60.5179
G1 X60.94 Y140.25 E60.5447
G1 X67.75 Y147.06 E61.0060
G1 X68.32 Y147.06 E61.0333
G1 X60.94 Y139.68 E61.5331
G1 X60.94 Y139.11 E61.5604
G1 X68.89 Y147.06 E62.0989
G1 X69.45 Y147.06 E62.1257
G1 X60.94 Y138.55 E62.7022
G1 X60.94 Y137.98 E62.7295
G1 X70.02 Y147.06 E63.3445
G1 X70.59 Y147.06 E63.3718
G1 X60.94 Y137.41 E64.0254
G1 X60.94 Y136.84 E64.0527
G1 X71.15 Y147.06 E64.7446
G1 X71.72 Y147.06 E64.7719
G1 X60.94 Y136.28 E65.5021
G1 X60.94 Y135.71 E65.5294
G1 X72.29 Y147.06 E66.2981
G1 X72.86 Y147.06 E66.3254
G1 X60.94 Y135.14 E67.1328
G1 X60.94 Y134.58 E67.1596
G1 X73.42 Y147.06 E68.0049
G1 X73.99 Y147.06 E68.0322
G1 X60.94 Y134.01 E68.9162
G1 X60.94 Y133.44 E68.9435
G1 X74.56 Y147.06 E69.8660
G1 X75.12 Y147.06 E69.8928
G1 X60.94 Y132.88 E70.8533
G1 X60.94 Y132.31 E70.8805
G1 X75.69 Y147.06 E71.8796
G1 X76.26 Y147.06 E71.9069
G1 X60.94 Y131.74 E72.9446
G1 X60.94 Y131.17 E72.9719
G1 X76.82 Y147.06 E74.0478
G1 X77.39 Y147.06 E74.0751
G1 X60.94 Y130.61 E75.1893
G1 X60.94 Y130.04 E75.2166
G1 X77.96 Y147.06 E76.3694
G1 X78.53 Y147.06 E76.3967
G1 X60.94 Y129.47 E77.5882
G1 X60.94 Y128.91 E77.6150
G1 X79.09 Y147.06 E78.8444
G1 X79.66 Y147.06 E78.8717
G1 X60.94 Y128.34 E80.1396
G1 X60.94 Y127.77 E80.1669
G1 X80.23 Y147.06 E81.4735
G1 X80.80 Y147.06 E81.5008
G1 X60.94 Y127.20 E82.8460
G1 X60.94 Y126.64 E82.8728
G1 X81.36 Y147.06 E84.2559
G1 X81.93 Y147.06 E84.2832
G1 X60.94 Y126.07 E85.7049
G1 X60.94 Y125.50 E85.7322
G1 X82.50 Y147.06 E87.1925
G1 X83.06 Y147.06 E87.2194
G1 X60.94 Y124.94 E88.7176
G1 X60.94 Y124.37 E88.7449
G1 X83.63 Y147.06 E90.2818
G1 X84.20 Y147.06 E90.3091
G1 X60.94 Y123.80 E91.8845
G1 X60.94 Y123.23 E91.9118
G1 X84.77 Y147.06 E93.5259
G1 X85.33 Y147.06 E93.5527
G1 X60.94 Y122.67 E95.2048
G1 X60.94 Y122.10 E95.2321
G1 X85.90 Y147.06 E96.9227
G1 X86.47 Y147.06 E96.9500
G1 X60.94 Y121.53 E98.6792
G1 X60.94 Y120.97 E98.7060
G1 X87.03 Y147.06 E100.4732
G1 X87.60 Y147.06 E100.5005
G1 X60.94 Y120.40 E102.3062
G1 X60.94 Y119.83 E102.3335
G1 X88.17 Y147.06 E104.1779
G1 X88.73 Y147.06 E104.2047
G1 X60.94 Y119.26 E106.0874
G1 X60.94 Y118.70 E106.1142
G1 X89.30 Y147.06 E108.0351
G1 X89.87 Y147.06 E108.0624
G1 X60.94 Y118.13 E110.0219
G1 X60.94 Y117.56 E110.0492
G1 X90.44 Y147.06 E112.0474
G1 X91.00 Y147.06 E112.0742
G1 X60.94 Y117.00 E114.1102
G1 X60.94 Y116.43 E114.1375
G1 X91.57 Y147.06 E116.2122
G1 X92.14 Y147.06 E116.2395
G1 X60.94 Y115.86 E118.3528
G1 X60.94 Y115.30 E118.3796
G1 X92.70 Y147.06 E120.5308
G1 X93.27 Y147.06 E120.5581
G1 X60.94 Y114.73 E122.7479
G1 X60.94 Y114.16 E122.7752
G1 X93.84 Y147.06 E125.0036
G1 X94.41 Y147.06 E125.0309
G1 X60.94 Y113.59 E127.2979
G1 X60.94 Y113.03 E127.3248
G1 X94.97 Y147.06 E129.6297
G1 X95.54 Y147.06 E129.6570
G1 X60.94 Y112.46 E132.0006
G1 X60.94 Y111.89 E132.0279
G1 X96.11 Y147.06 E134.4101
G1 X96.67 Y147.06 E134.4369
G1 X60.94 Y111.33 E136.8570
G1 X60.94 Y110.76 E136.8843
G1 X97.24 Y147.06 E139.3430
G1 X97.81 Y147.06 E139.3703
G1 X60.94 Y110.19 E141.8677
G1 X60.94 Y109.62 E141.8949
G1 X98.38 Y147.06 E144.4309
G1 X98.94 Y147.06 E144.4577
G1 X60.94 Y109.06 E147.0316
G1 X60.94 Y108.49 E147.0589
G1 X99.51 Y147.06 E149.6713
G1 X100.08 Y147.06 E149.6986
G1 X60.94 Y107.92 E152.3497
G1 X60.94 Y107.36 E152.3765
G1 X100.64 Y147.06 E155.0655
G1 X101.21 Y147.06 E155.0928
G1 X60.94 Y106.79 E157.8204
G1 X60.94 Y106.22 E157.8477
G1 X101.78 Y147.06 E160.6140
G1 X102.35 Y147.06 E160.6413
G1 X60.94 Y105.65 E163.4461
G1 X60.94 Y105.09 E163.4729
G1 X102.91 Y147.06 E166.3157
G1 X103.48 Y147.06 E166.3430
G1 X60.94 Y104.52 E169.2244
G1 X60.94 Y103.95 E169.2517
G1 X104.05 Y147.06 E172.1716
G1 X104.61 Y147.06 E172.1985
G1 X60.94 Y103.39 E175.1564
G1 X60.94 Y102.82 E175.1837
G1 X105.18 Y147.06 E178.1802
G1 X105.75 Y147.06 E178.2075
G1 X60.94 Y102.25 E181.2426
G1 X60.94 Y101.68 E181.2699
G1 X106.31 Y147.06 E184.3433
G1 X106.88 Y147.06 E184.3706
G1 X60.94 Y101.12 E187.4822
G1 X60.94 Y100.55 E187.5095
G1 X107.45 Y147.06 E190.6598
G1 X108.02 Y147.06 E190.6871
G1 X60.94 Y99.98 E193.8760
G1 X60.94 Y99.42 E193.9028
G1 X108.58 Y147.06 E197.1296
G1 X109.15 Y147.06 E197.1569
G1 X60.94 Y98.85 E200.4223
G1 X60.94 Y98.28 E200.4496
G1 X109.72 Y147.06 E203.7537
G1 X110.28 Y147.06 E203.7805
G1 X60.94 Y97.72 E207.1224
G1 X60.94 Y97.15 E207.1497
G1 X110.85 Y147.06 E210.5303
G1 X111.42 Y147.06 E210.5576
G1 X60.94 Y96.58 E213.9768
G1 X60.94 Y96.01 E214.0041
G1 X111.99 Y147.06 E217.4619
G1 X112.55 Y147.06 E217.4887
G1 X60.94 Y95.45 E220.9844
G1 X60.94 Y94.88 E221.0117
G1 X113.12 Y147.06 E224.5460
G1 X113.69 Y147.06 E224.5733
G1 X60.94 Y94.31 E228.1462
G1 X60.94 Y93.75 E228.1730
G1 X114.25 Y147.06 E231.7839
G1 X114.82 Y147.06 E231.8112
G1 X60.94 Y93.18 E235.4607
G1 X60.94 Y92.61 E235.4880
G1 X115.39 Y147.06 E239.1760
G1 X115.96 Y147.06 E239.2033
G1 X60.94 Y92.04 E242.9300
G1 X60.94 Y91.48 E242.9569
G1 X116.52 Y147.06 E246.7215
G1 X117.09 Y147.06 E246.7488
G1 X60.94 Y90.91 E250.5520
G1 X60.94 Y90.34 E250.5793
G1 X117.66 Y147.06 E254.4211
G1 X118.22 Y147.06 E254.4479
G1 X60.94 Y89.78 E258.3277
G1 X60.94 Y89.21 E258.3550
G1 X118.79 Y147.06 E262.2734
G1 X119.36 Y147.06 E262.3007
G1 X60.94 Y88.64 E266.2576
G1 X60.94 Y88.07 E266.2850
G1 X119.93 Y147.06 E270.2805
G1 X120.49 Y147.06 E270.3074
G1 X60.94 Y87.51 E274.3409
G1 X60.94 Y86.94 E274.3682
G1 X121.06 Y147.06 E278.4403
G1 X121.63 Y147.06 E278.4676
G1 X60.94 Y86.37 E282.5783
G1 X60.94 Y85.81 E282.6051
G1 X122.19 Y147.06 E286.7538
G1 X122.76 Y147.06 E286.7811
G1 X60.94 Y85.24 E290.9684
G1 X60.94 Y84.67 E290.9957
G1 X123.33 Y147.06 E295.2215
G1 X123.90 Y147.06 E295.2489
G1 X60.94 Y84.10 E299.5133
G1 X60.94 Y83.54 E299.5401
G1 X124.46 Y147.06 E303.8425
G1 X125.03 Y147.06 E303.8699
G1 X60.94 Y82.97 E308.2109
G1 X60.94 Y82.40 E308.2382
G1 X125.60 Y147.06 E312.6178
G1 X126.16 Y147.06 E312.6446
G1 X60.94 Y81.84 E317.0622
G1 X60.94 Y81.27 E317.0895
G1 X126.73 Y147.06 E321.5457
G1 X127.30 Y147.06 E321.5730
G1 X60.94 Y80.70 E326.0678
G1 X60.94 Y80.13 E326.0951
G1 X127.86 Y147.06 E330.6281
G1 X128.43 Y147.06 E330.6554
G1 X60.94 Y79.57 E335.2267
G1 X60.94 Y79.00 E335.2540
G1 X129.00 Y147.06 E339.8640
G1 X129.57 Y147.06 E339.8912
G1 X60.94 Y78.43 E344.5398
G1 X60.94 Y77.87 E344.5666
G1 X130.13 Y147.06 E349.2531
G1 X130.70 Y147.06 E349.2804
G1 X60.94 Y77.30 E354.0054
G1 X60.94 Y76.73 E354.0328
G1 X131.27 Y147.06 E358.7965
G1 X131.83 Y147.06 E358.8233
G1 X60.94 Y76.17 E363.6249
G1 X60.94 Y75.60 E363.6522
G1 X132.40 Y147.06 E368.4924
G1 X132.97 Y147.06 E368.5197
G1 X60.94 Y75.03 E373.3985
G1 X60.94 Y74.46 E373.4258
G1 X133.54 Y147.06 E378.3433
G1 X134.10 Y147.06 E378.3701
G1 X60.94 Y73.90 E383.3255
G1 X60.94 Y73.33 E383.3528
G1 X134.67 Y147.06 E388.3467
G1 X135.24 Y147.06 E388.3740
G1 X61.12 Y72.94 E393.3944
G1 X61.68 Y72.94 E393.4212
G1 X135.80 Y147.06 E398.4416
G1 X136.37 Y147.06 E398.4689
G1 X62.25 Y72.94 E403.4893
G1 X62.82 Y72.94 E403.5166
G1 X136.94 Y147.06 E408.5370
G1 X137.51 Y147.06 E408.5643
G1 X63.39 Y72.94 E413.5847
G1 X63.95 Y72.94 E413.6115
G1 X138.07 Y147.06 E418.6318
G1 X138.64 Y147.06 E418.6592
G1 X64.52 Y72.94 E423.6796
G1 X65.09 Y72.94 E423.7069
G1 X139.21 Y147.06 E428.7273
G1 X139.77 Y147.06 E428.7541
G1 X65.65 Y72.94 E433.7744
G1 X66.22 Y72.94 E433.8018
G1 X140.34 Y147.06 E438.8221
G1 X140.91 Y147.06 E438.8494
G1 X66.79 Y72.94 E443.8698
G1 X67.35 Y72.94 E443.8966
G1 X141.48 Y147.06 E448.9173
G1 X142.04 Y147.06 E448.9441
G1 X67.92 Y72.94 E453.9645
G1 X68.49 Y72.94 E453.9918
G1 X142.61 Y147.06 E459.0122
G1 X143.18 Y147.06 E459.0395
G1 X69.06 Y72.94 E464.0599
G1 X69.62 Y72.94 E464.0867
G1 X143.74 Y147.06 E469.1071
G1 X144.31 Y147.06 E469.1344
G1 X70.19 Y72.94 E474.1548
G1 X70.76 Y72.94 E474.1821
G1 X144.88 Y147.06 E479.2024
G1 X145.44 Y147.06 E479.2293
G1 X71.32 Y72.94 E484.2497
G1 X71.89 Y72.94 E484.2770
G1 X146.01 Y147.06 E489.2973
G1 X146.58 Y147.06 E489.3246
G1 X72.46 Y72.94 E494.3450
G1 X73.03 Y72.94 E494.3723
G1 X147.15 Y147.06 E499.3927
G1 X147.71 Y147.06 E499.4195
G1 X73.59 Y72.94 E504.4399
G1 X74.16 Y72.94 E504.4672
G1 X148.28 Y147.06 E509.4876
G1 X148.85 Y147.06 E509.5149
G1 X74.73 Y72.94 E514.5353
G1 X75.29 Y72.94 E514.5621
G1 X149.41 Y147.06 E519.5825
G1 X149.98 Y147.06 E519.6098
G1 X75.86 Y72.94 E524.6302
G1 X76.43 Y72.94 E524.6574
G1 X150.55 Y147.06 E529.6778
G1 X151.12 Y147.06 E529.7052
G1 X77.00 Y72.94 E534.7255
G1 X77.56 Y72.94 E534.7523
G1 X151.68 Y147.06 E539.7727
G1 X152.25 Y147.06 E539.8000
G1 X78.13 Y72.94 E544.8204
G1 X78.70 Y72.94 E544.8477
G1 X152.82 Y147.06 E549.8681
G1 X153.38 Y147.06 E549.8949
G1 X79.26 Y72.94 E554.9152
G1 X79.83 Y72.94 E554.9426
G1 X153.95 Y147.06 E559.9630
G1 X154.52 Y147.06 E559.9903
G1 X80.40 Y72.94 E565.0106
G1 X80.96 Y72.94 E565.0374
G1 X155.09 Y147.06 E570.0582
G1 X155.65 Y147.06 E570.0850
G1 X81.53 Y72.94 E575.1054
G1 X82.10 Y72.94 E575.1327
G1 X156.22 Y147.06 E580.1531
G1 X156.79 Y147.06 E580.1804
G1 X82.67 Y72.94 E585.2008
G1 X83.23 Y72.94 E585.2276
G1 X157.35 Y147.06 E590.2479
G1 X157.92 Y147.06 E590.2753
G1 X83.80 Y72.94 E595.2957
G1 X84.37 Y72.94 E595.3230
G1 X158.49 Y147.06 E600.3433
G1 X159.05 Y147.06 E600.3701
G1 X84.93 Y72.94 E605.3905
G1 X85.50 Y72.94 E605.4178
G1 X159.06 Y146.50 E610.4003
G1 X159.06 Y145.93 E610.4276
G1 X86.07 Y72.94 E615.3715
G1 X86.64 Y72.94 E615.3988
G1 X159.06 Y145.36 E620.3040
G1 X159.06 Y144.80 E620.3308
G1 X87.20 Y72.94 E625.1981
G1 X87.77 Y72.94 E625.2255
G1 X159.06 Y144.23 E630.0542
G1 X159.06 Y143.66 E630.0814
G1 X88.34 Y72.94 E634.8715
G1 X88.90 Y72.94 E634.8983
G1 X159.06 Y143.09 E639.6502
G1 X159.06 Y142.53 E639.6770
G1 X89.47 Y72.94 E644.3905
G1 X90.04 Y72.94 E644.4178
G1 X159.06 Y141.96 E649.0928
G1 X159.06 Y141.39 E649.1201
G1 X90.61 Y72.94 E653.7564
G1 X91.17 Y72.94 E653.7832
G1 X159.06 Y140.83 E658.3816
G1 X159.06 Y140.26 E658.4089
G1 X91.74 Y72.94 E662.9687
G1 X92.31 Y72.94 E662.9960
G1 X159.06 Y139.69 E667.5172
G1 X159.06 Y139.12 E667.5445
G1 X92.87 Y72.94 E672.0275
G1 X93.44 Y72.94 E672.0548
G1 X159.06 Y138.56 E676.4994
G1 X159.06 Y137.99 E676.5267
G1 X94.01 Y72.94 E680.9328
G1 X94.58 Y72.94 E680.9601
G1 X159.06 Y137.42 E685.3275
G1 X159.06 Y136.86 E685.3543
G1 X95.14 Y72.94 E689.6839
G1 X95.71 Y72.94 E689.7111
G1 X159.06 Y136.29 E694.0020
G1 X159.06 Y135.72 E694.0293
G1 X96.28 Y72.94 E698.2816
G1 X96.84 Y72.94 E698.3084
G1 X159.06 Y135.15 E702.5225
G1 X159.06 Y134.59 E702.5493
G1 X97.41 Y72.94 E706.7250
G1 X97.98 Y72.94 E706.7523
G1 X159.06 Y134.02 E710.8895
G1 X159.06 Y133.45 E710.9168
G1 X98.55 Y72.94 E715.0153
G1 X99.11 Y72.94 E715.0421
G1 X159.06 Y132.89 E719.1027
G1 X159.06 Y132.32 E719.1301
G1 X99.68 Y72.94 E723.1521
G1 X100.25 Y72.94 E723.1794
G1 X159.06 Y131.75 E727.1627
G1 X159.06 Y131.19 E727.1896
G1 X100.81 Y72.94 E731.1350
G1 X101.38 Y72.94 E731.1623
G1 X159.06 Y130.62 E735.0692
G1 X159.06 Y130.05 E735.0965
G1 X101.95 Y72.94 E738.9647
G1 X102.51 Y72.94 E738.9916
G1 X159.06 Y129.48 E742.8216
G1 X159.06 Y128.92 E742.8484
G1 X103.08 Y72.94 E746.6401
G1 X103.65 Y72.94 E746.6674
G1 X159.06 Y128.35 E750.4205
G1 X159.06 Y127.78 E750.4478
G1 X104.22 Y72.94 E754.1623
G1 X104.78 Y72.94 E754.1892
G1 X159.06 Y127.22 E757.8657
G1 X159.06 Y126.65 E757.8930
G1 X105.35 Y72.94 E761.5310
G1 X105.92 Y72.94 E761.5583
G1 X159.06 Y126.08 E765.1576
G1 X159.06 Y125.51 E765.1849
G1 X106.48 Y72.94 E768.7459
G1 X107.05 Y72.94 E768.7733
G1 X159.06 Y124.95 E772.2961
G1 X159.06 Y124.38 E772.3234
G1 X107.62 Y72.94 E775.8076
G1 X108.19 Y72.94 E775.8349
G1 X159.06 Y123.81 E779.2805
G1 X159.06 Y123.25 E779.3073
G1 X108.75 Y72.94 E782.7150
G1 X109.32 Y72.94 E782.7423
G1 X159.06 Y122.68 E786.1114
G1 X159.06 Y122.11 E786.1386
G1 X109.89 Y72.94 E789.4691
G1 X110.45 Y72.94 E789.4959
G1 X159.06 Y121.54 E792.7881
G1 X159.06 Y120.98 E792.8149
G1 X111.02 Y72.94 E796.0688
G1 X111.59 Y72.94 E796.0961
G1 X159.06 Y120.41 E799.3114
G1 X159.06 Y119.84 E799.3387
G1 X112.16 Y72.94 E802.5154
G1 X112.72 Y72.94 E802.5422
G1 X159.06 Y119.28 E805.6809
G1 X159.06 Y118.71 E805.7083
G1 X113.29 Y72.94 E808.8084
G1 X113.86 Y72.94 E808.8357
G1 X159.06 Y118.14 E811.8973
G1 X159.06 Y117.57 E811.9246
G1 X114.42 Y72.94 E814.9478
G1 X114.99 Y72.94 E814.9751
G1 X159.06 Y117.01 E817.9602
G1 X159.06 Y116.44 E817.9875
G1 X115.56 Y72.94 E820.9339
G1 X116.13 Y72.94 E820.9611
G1 X159.06 Y115.87 E823.8690
G1 X159.06 Y115.31 E823.8958
G1 X116.69 Y72.94 E826.7656
G1 X117.26 Y72.94 E826.7929
G1 X159.06 Y114.74 E829.6242
G1 X159.06 Y114.17 E829.6515
G1 X117.83 Y72.94 E832.4442
G1 X118.39 Y72.94 E832.4710
G1 X159.06 Y113.61 E835.2257
G1 X159.06 Y113.04 E835.2530
G1 X118.96 Y72.94 E837.9691
G1 X119.53 Y72.94 E837.9964
G1 X159.06 Y112.47 E840.6739
G1 X159.06 Y111.90 E840.7012
G1 X120.10 Y72.94 E843.3401
G1 X120.66 Y72.94 E843.3669
G1 X159.06 Y111.34 E845.9678
G1 X159.06 Y110.77 E845.9951
G1 X121.23 Y72.94 E848.5575
G1 X121.80 Y72.94 E848.5848
G1 X159.06 Y110.20 E851.1086
G1 X159.06 Y109.64 E851.1354
G1 X122.36 Y72.94 E853.6212
G1 X122.93 Y72.94 E853.6485
G1 X159.06 Y109.07 E856.0957
G1 X159.06 Y108.50 E856.1230
G1 X123.50 Y72.94 E858.5316
G1 X124.06 Y72.94 E858.5583
G1 X159.06 Y107.93 E860.9287
G1 X159.06 Y107.37 E860.9555
G1 X124.63 Y72.94 E863.2875
G1 X125.20 Y72.94 E863.3149
G1 X159.06 Y106.80 E865.6083
G1 X159.06 Y106.23 E865.6356
G1 X125.77 Y72.94 E867.8904
G1 X126.33 Y72.94 E867.9172
G1 X159.06 Y105.67 E870.1342
G1 X159.06 Y105.10 E870.1615
G1 X126.90 Y72.94 E872.3398
G1 X127.47 Y72.94 E872.3671
G1 X159.06 Y104.53 E874.5068
G1 X159.06 Y103.96 E874.5341
G1 X128.03 Y72.94 E876.6356
G1 X128.60 Y72.94 E876.6629
G1 X159.06 Y103.40 E878.7260
G1 X159.06 Y102.83 E878.7533
G1 X129.17 Y72.94 E880.7779
G1 X129.74 Y72.94 E880.8052
G1 X159.06 Y102.26 E882.7911
G1 X159.06 Y101.70 E882.8179
G1 X130.30 Y72.94 E884.7659
G1 X130.87 Y72.94 E884.7933
G1 X159.06 Y101.13 E886.7026
G1 X159.06 Y100.56 E886.7299
G1 X131.44 Y72.94 E888.6008
G1 X132.00 Y72.94 E888.6276
G1 X159.06 Y99.99 E890.4601
G1 X159.06 Y99.43 E890.4869
G1 X132.57 Y72.94 E892.2811
G1 X133.14 Y72.94 E892.3084
G1 X159.06 Y98.86 E894.0641
G1 X159.06 Y98.29 E894.0914
G1 X133.71 Y72.94 E895.8084
G1 X134.27 Y72.94 E895.8353
G1 X159.06 Y97.73 E897.5144
G1 X159.06 Y97.16 E897.5417
G1 X134.84 Y72.94 E899.1822
G1 X135.41 Y72.94 E899.2095
G1 X159.06 Y96.59 E900.8114
G1 X159.06 Y96.03 E900.8382
G1 X135.97 Y72.94 E902.4021
G1 X136.54 Y72.94 E902.4294
G1 X159.06 Y95.46 E903.9548
