;generated by ffslicer 1.30.3 09/07/23 12:06:01
;right_extruder_material: PLA
;layer_height: 0.2
;perimeter_shells: 2
;top_solid_layers: 4
;bottom_solid_layers: 3
;fill_density: 15%
;fill_pattern: hexagon
;base_print_speed: 50
;travel_speed: 80
;right_extruder_temperature: 200
;left_extruder_temperature: 0
;platform_temperature: 60
;right_extruder_temperature_raft0: 0
;left_extruder_temperature_raft0: 0
;right_extruder_temperature_reset: 
;left_extruder_temperature_reset: 
;start gcode
M140 S60 T0
M104 S200 T0
M104 S0 T1
G90
G28
G1 Z50.000 F420
G161 X Y F3300
M190 S60 T0
M109 S200 T0
M109 S0 T1
G92 E.0000
;layer_count: 60
M108 T0
G1 X160.00 Y156.00 F4800
;preExtrude:0.20
;preExtruder0
M106 S255
G1 Z.200 F420
G1 X160.00 Y156.00 F4800
G1 X52.00 Y156.00 E13.7936 F1200
G1 X52.00 Y64.00 E25.5438
;raft
;layer:0.30
;shell
G1 E20.5438 F2700
G1 Z.300 F420
G1 X60.60 Y72.60 F4200
G1 E25.5438 F2700
G1 X60.60 Y72.60 F4200
G1 X159.40 Y72.60 E30.2758 F600
G1 X159.40 Y147.40 E33.8583
G1 X60.60 Y147.40 E38.5903
G1 X60.60 Y72.60 E42.1728
G1 X60.20 Y72.20 F4200
G1 X159.80 Y72.20 E46.9431 F600
G1 X159.80 Y147.80 E50.5639
G1 X60.20 Y147.80 E55.3342
G1 X60.20 Y72.20 E58.9551
;infill
G1 X60.94 Y147.05 F4200
G1 X60.94 Y147.05
G1 X61.51 Y147.06 E58.9824 F600
G1 X60.94 Y146.49 E59.0210
G1 X60.94 Y145.92 E59.0483
G1 X62.08 Y147.06 E59.1255
G1 X62.65 Y147.06 E59.1528
G1 X60.94 Y145.35 E59.2686
G1 X60.94 Y144.78 E59.2959
G1 X63.22 Y147.06 E59.4503
G1 X63.78 Y147.06 E59.4772
G1 X60.94 Y144.22 E59.6695
G1 X60.94 Y143.65 E59.6968
G1 X64.35 Y147.06 E59.9278
G1 X64.92 Y147.06 E59.9551
G1 X60.94 Y143.08 E60.2247
G1 X60.94 Y142.52 E60.2515
G1 X65.48 Y147.06 E60.5590
G1 X66.05 Y147.06 E60.5863
G1 X60.94 Y141.95 E60.9324
G1 X60.94 Y141.38 E60.9597
G1 X66.62 Y147.06 E61.3444
G1 X67.19 Y147.06 E61.3717
G1 X60.94 Y140.81 E61.7951
G1 X60.94 Y140.25 E61.8219
G1 X67.75 Y147.06 E62.2832
G1 X68.32 Y147.06 E62.3105
G1 X60.94 Y139.68 E62.8103
G1 X60.94 Y139.11 E62.8376
G1 X68.89 Y147.06 E63.3761
G1 X69.45 Y147.06 E63.4029
G1 X60.94 Y138.55 E63.9793
G1 X60.94 Y137.98 E64.0066
G1 X70.02 Y147.06 E64.6217
G1 X70.59 Y147.06 E64.6490
G1 X60.94 Y137.41 E65.3026
G1 X60.94 Y136.84 E65.3299
G1 X71.15 Y147.06 E66.0218
G1 X71.72 Y147.06 E66.0491
G1 X60.94 Y136.28 E66.7792
G1 X60.94 Y135.71 E66.8065
G1 X72.29 Y147.06 E67.5753
G1 X72.86 Y147.06 E67.6026
G1 X60.94 Y135.14 E68.4100
G1 X60.94 Y134.58 E68.4368
G1 X73.42 Y147.06 E69.2821
G1 X73.99 Y147.06 E69.3094
G1 X60.94 Y134.01 E70.1933
G1 X60.94 Y133.44 E70.2206
G1 X74.56 Y147.06 E71.1432
G1 X75.12 Y147.06 E71.1700
G1 X60.94 Y132.88 E72.1304
G1 X60.94 Y132.31 E72.1577
G1 X75.69 Y147.06 E73.1568
G1 X76.26 Y147.06 E73.1841
G1 X60.94 Y131.74 E74.2218
G1 X60.94 Y131.17 E74.2491
G1 X76.82 Y147.06 E75.3250
G1 X77.39 Y147.06 E75.3523
G1 X60.94 Y130.61 E76.4665
G1 X60.94 Y130.04 E76.4938
G1 X77.96 Y147.06 E77.6466
G1 X78.53 Y147.06 E77.6739
G1 X60.94 Y129.47 E78.8654
G1 X60.94 Y128.91 E78.8922
G1 X79.09 Y147.06 E80.1215
G1 X79.66 Y147.06 E80.1488
G1 X60.94 Y128.34 E81.4168
G1 X60.94 Y127.77 E81.4441
G1 X80.23 Y147.06 E82.7507
G1 X80.80 Y147.06 E82.7780
G1 X60.94 Y127.20 E84.1231
G1 X60.94 Y126.64 E84.1500
G1 X81.36 Y147.06 E85.5331
G1 X81.93 Y147.06 E85.5604
G1 X60.94 Y126.07 E86.9821
G1 X60.94 Y125.50 E87.0094
G1 X82.50 Y147.06 E88.4697
G1 X83.06 Y147.06 E88.4965
G1 X60.94 Y124.94 E89.9948
G1 X60.94 Y124.37 E90.0221
G1 X83.63 Y147.06 E91.5590
G1 X84.20 Y147.06 E91.5863
G1 X60.94 Y123.80 E93.1617
G1 X60.94 Y123.23 E93.1890
G1 X84.77 Y147.06 E94.8031
G1 X85.33 Y147.06 E94.8299
G1 X60.94 Y122.67 E96.4820
G1 X60.94 Y122.10 E96.5092
G1 X85.90 Y147.06 E98.1999
G1 X86.47 Y147.06 E98.2272
G1 X60.94 Y121.53 E99.9564
G1 X60.94 Y120.97 E99.9832
G1 X87.03 Y147.06 E101.7504
G1 X87.60 Y147.06 E101.7777
G1 X60.94 Y120.40 E103.5834
G1 X60.94 Y119.83 E103.6107
G1 X88.17 Y147.06 E105.4551
G1 X88.73 Y147.06 E105.4819
G1 X60.94 Y119.26 E107.3646
G1 X60.94 Y118.70 E107.3914
G1 X89.30 Y147.06 E109.3123
G1 X89.87 Y147.06 E109.3396
G1 X60.94 Y118.13 E111.2991
G1 X60.94 Y117.56 E111.3264
G1 X90.44 Y147.06 E113.3245
G1 X91.00 Y147.06 E113.3514
G1 X60.94 Y117.00 E115.3874
G1 X60.94 Y116.43 E115.4147
G1 X91.57 Y147.06 E117.4894
G1 X92.14 Y147.06 E117.5167
G1 X60.94 Y115.86 E119.6300
G1 X60.94 Y115.30 E119.6568
G1 X92.70 Y147.06 E121.8080
G1 X93.27 Y147.06 E121.8353
G1 X60.94 Y114.73 E124.0251
G1 X60.94 Y114.16 E124.0524
G1 X93.84 Y147.06 E126.2808
G1 X94.41 Y147.06 E126.3081
G1 X60.94 Y113.59 E128.5751
G1 X60.94 Y113.03 E128.6020
G1 X94.97 Y147.06 E130.9069
G1 X95.54 Y147.06 E130.9342
G1 X60.94 Y112.46 E133.2778
G1 X60.94 Y111.89 E133.3051
G1 X96.11 Y147.06 E135.6873
G1 X96.67 Y147.06 E135.7141
G1 X60.94 Y111.33 E138.1342
G1 X60.94 Y110.76 E138.1615
G1 X97.24 Y147.06 E140.6202
G1 X97.81 Y147.06 E140.6475
G1 X60.94 Y110.19 E143.1448
G1 X60.94 Y109.62 E143.1721
G1 X98.38 Y147.06 E145.7081
G1 X98.94 Y147.06 E145.7349
G1 X60.94 Y109.06 E148.3088
G1 X60.94 Y108.49 E148.3361
G1 X99.51 Y147.06 E150.9485
G1 X100.08 Y147.06 E150.9758
G1 X60.94 Y107.92 E153.6269
G1 X60.94 Y107.36 E153.6537
G1 X100.64 Y147.06 E156.3427
G1 X101.21 Y147.06 E156.3700
G1 X60.94 Y106.79 E159.0976
G1 X60.94 Y106.22 E159.1249
G1 X101.78 Y147.06 E161.8912
G1 X102.35 Y147.06 E161.9184
G1 X60.94 Y105.65 E164.7233
G1 X60.94 Y105.09 E164.7501
G1 X102.91 Y147.06 E167.5929
G1 X103.48 Y147.06 E167.6202
G1 X60.94 Y104.52 E170.5015
G1 X60.94 Y103.95 E170.5288
G1 X104.05 Y147.06 E173.4488
G1 X104.61 Y147.06 E173.4757
G1 X60.94 Y103.39 E176.4336
G1 X60.94 Y102.82 E176.4609
G1 X105.18 Y147.06 E179.4574
G1 X105.75 Y147.06 E179.4847
G1 X60.94 Y102.25 E182.5198
G1 X60.94 Y101.68 E182.5471
G1 X106.31 Y147.06 E185.6205
G1 X106.88 Y147.06 E185.6478
G1 X60.94 Y101.12 E188.7594
G1 X60.94 Y100.55 E188.7867
G1 X107.45 Y147.06 E191.9370
G1 X108.02 Y147.06 E191.9643
G1 X60.94 Y99.98 E195.1532
G1 X60.94 Y99.42 E195.1800
G1 X108.58 Y147.06 E198.4068
G1 X109.15 Y147.06 E198.4341
G1 X60.94 Y98.85 E201.6995
G1 X60.94 Y98.28 E201.7268
G1 X109.72 Y147.06 E205.0308
G1 X110.28 Y147.06 E205.0577
G1 X60.94 Y97.72 E208.3996
G1 X60.94 Y97.15 E208.4269
G1 X110.85 Y147.06 E211.8075
G1 X111.42 Y147.06 E211.8348
G1 X60.94 Y96.58 E215.2540
G1 X60.94 Y96.01 E215.2813
G1 X111.99 Y147.06 E218.7390
G1 X112.55 Y147.06 E218.7659
G1 X60.94 Y95.45 E222.2616
G1 X60.94 Y94.88 E222.2889
G1 X113.12 Y147.06 E225.8232
G1 X113.69 Y147.06 E225.8505
G1 X60.94 Y94.31 E229.4234
G1 X60.94 Y93.75 E229.4502
G1 X114.25 Y147.06 E233.0611
G1 X114.82 Y147.06 E233.0884
G1 X60.94 Y93.18 E236.7379
G1 X60.94 Y92.61 E236.7651
G1 X115.39 Y147.06 E240.4532
G1 X115.96 Y147.06 E240.4805
G1 X60.94 Y92.04 E244.2072
G1 X60.94 Y91.48 E244.2340
G1 X116.52 Y147.06 E247.9987
G1 X117.09 Y147.06 E248.0260
G1 X60.94 Y90.91 E251.8292
G1 X60.94 Y90.34 E251.8565
G1 X117.66 Y147.06 E255.6983
G1 X118.22 Y147.06 E255.7251
G1 X60.94 Y89.78 E259.6049
G1 X60.94 Y89.21 E259.6322
G1 X118.79 Y147.06 E263.5505
G1 X119.36 Y147.06 E263.5779
G1 X60.94 Y88.64 E267.5348
G1 X60.94 Y88.07 E267.5621
G1 X119.93 Y147.06 E271.5577
G1 X120.49 Y147.06 E271.5845
G1 X60.94 Y87.51 E275.6181
G1 X60.94 Y86.94 E275.6454
G1 X121.06 Y147.06 E279.7175
G1 X121.63 Y147.06 E279.7448
G1 X60.94 Y86.37 E283.8555
G1 X60.94 Y85.81 E283.8823
G1 X122.19 Y147.06 E288.0310
G1 X122.76 Y147.06 E288.0583
G1 X60.94 Y85.24 E292.2456
G1 X60.94 Y84.67 E292.2729
G1 X123.33 Y147.06 E296.4987
G1 X123.90 Y147.06 E296.5260
G1 X60.94 Y84.10 E300.7905
G1 X60.94 Y83.54 E300.8173
G1 X124.46 Y147.06 E305.1197
G1 X125.03 Y147.06 E305.1470
G1 X60.94 Y82.97 E309.4881
G1 X60.94 Y82.40 E309.5154
G1 X125.60 Y147.06 E313.8950
G1 X126.16 Y147.06 E313.9218
G1 X60.94 Y81.84 E318.3394
G1 X60.94 Y81.27 E318.3667
G1 X126.73 Y147.06 E322.8229
G1 X127.30 Y147.06 E322.8502
G1 X60.94 Y80.70 E327.3450
G1 X60.94 Y80.13 E327.3723
G1 X127.86 Y147.06 E331.9053
G1 X128.43 Y147.06 E331.9326
G1 X60.94 Y79.57 E336.5039
G1 X60.94 Y79.00 E336.5312
G1 X129.00 Y147.06 E341.1411
G1 X129.57 Y147.06 E341.1684
G1 X60.94 Y78.43 E345.8170
G1 X60.94 Y77.87 E345.8438
G1 X130.13 Y147.06 E350.5303
G1 X130.70 Y147.06 E350.5576
G1 X60.94 Y77.30 E355.2826
G1 X60.94 Y76.73 E355.3099
G1 X131.27 Y147.06 E360.0737
G1 X131.83 Y147.06 E360.1004
G1 X60.94 Y76.17 E364.9021
G1 X60.94 Y75.60 E364.9294
G1 X132.40 Y147.06 E369.7696
G1 X132.97 Y147.06 E369.7969
G1 X60.94 Y75.03 E374.6757
G1 X60.94 Y74.46 E374.7030
G1 X133.54 Y147.06 E379.6204
G1 X134.10 Y147.06 E379.6473
G1 X60.94 Y73.90 E384.6026
G1 X60.94 Y73.33 E384.6300
G1 X134.67 Y147.06 E389.6239
G1 X135.24 Y147.06 E389.6512
G1 X61.12 Y72.94 E394.6716
G1 X61.68 Y72.94 E394.6984
G1 X135.80 Y147.06 E399.7188
G1 X136.37 Y147.06 E399.7461
G1 X62.25 Y72.94 E404.7665
G1 X62.82 Y72.94 E404.7938
G1 X136.94 Y147.06 E409.8142
G1 X137.51 Y147.06 E409.8415
G1 X63.39 Y72.94 E414.8619
G1 X63.95 Y72.94 E414.8887
G1 X138.07 Y147.06 E419.9091
G1 X138.64 Y147.06 E419.9364
G1 X64.52 Y72.94 E424.9568
G1 X65.09 Y72.94 E424.9841
G1 X139.21 Y147.06 E430.0044
G1 X139.77 Y147.06 E430.0312
G1 X65.65 Y72.94 E435.0516
G1 X66.22 Y72.94 E435.0789
G1 X140.34 Y147.06 E440.0993
G1 X140.91 Y147.06 E440.1266
G1 X66.79 Y72.94 E445.1470
G1 X67.35 Y72.94 E445.1738
G1 X141.48 Y147.06 E450.1945
G1 X142.04 Y147.06 E450.2213
G1 X67.92 Y72.94 E455.2417
G1 X68.49 Y72.94 E455.2690
G1 X142.61 Y147.06 E460.2894
G1 X143.18 Y147.06 E460.3167
G1 X69.06 Y72.94 E465.3371
G1 X69.62 Y72.94 E465.3639
G1 X143.74 Y147.06 E470.3843
G1 X144.31 Y147.06 E470.4116
G1 X70.19 Y72.94 E475.4320
G1 X70.76 Y72.94 E475.4593
G1 X144.88 Y147.06 E480.4796
G1 X145.44 Y147.06 E480.5065
G1 X71.32 Y72.94 E485.5268
G1 X71.89 Y72.94 E485.5542
G1 X146.01 Y147.06 E490.5745
G1 X146.58 Y147.06 E490.6018
G1 X72.46 Y72.94 E495.6222
G1 X73.03 Y72.94 E495.6495
G1 X147.15 Y147.06 E500.6699
G1 X147.71 Y147.06 E500.6967
G1 X73.59 Y72.94 E505.7171
G1 X74.16 Y72.94 E505.7444
G1 X148.28 Y147.06 E510.7648
G1 X148.85 Y147.06 E510.7921
G1 X74.73 Y72.94 E515.8125
G1 X75.29 Y72.94 E515.8393
G1 X149.41 Y147.06 E520.8596
G1 X149.98 Y147.06 E520.8870
G1 X75.86 Y72.94 E525.9073
G1 X76.43 Y72.94 E525.9347
G1 X150.55 Y147.06 E530.9550
G1 X151.12 Y147.06 E530.9823
G1 X77.00 Y72.94 E536.0027
G1 X77.56 Y72.94 E536.0295
G1 X151.68 Y147.06 E541.0499
G1 X152.25 Y147.06 E541.0772
G1 X78.13 Y72.94 E546.0976
G1 X78.70 Y72.94 E546.1249
G1 X152.82 Y147.06 E551.1453
G1 X153.38 Y147.06 E551.1721
G1 X79.26 Y72.94 E556.1925
G1 X79.83 Y72.94 E556.2198
G1 X153.95 Y147.06 E561.2401
G1 X154.52 Y147.06 E561.2675
G1 X80.40 Y72.94 E566.2879
G1 X80.96 Y72.94 E566.3147
G1 X155.09 Y147.06 E571.3354
G1 X155.65 Y147.06 E571.3622
G1 X81.53 Y72.94 E576.3826
G1 X82.10 Y72.94 E576.4099
G1 X156.22 Y147.06 E581.4303
G1 X156.79 Y147.06 E581.4576
G1 X82.67 Y72.94 E586.4780
G1 X83.23 Y72.94 E586.5048
G1 X157.35 Y147.06 E591.5252
G1 X157.92 Y147.06 E591.5525
G1 X83.80 Y72.94 E596.5728
G1 X84.37 Y72.94 E596.6001
G1 X158.49 Y147.06 E601.6205
G1 X159.05 Y147.06 E601.6474
G1 X84.93 Y72.94 E606.6677
G1 X85.50 Y72.94 E606.6950
G1 X159.06 Y146.50 E611.6775
G1 X159.06 Y145.93 E611.7048
G1 X86.07 Y72.94 E616.6486
G1 X86.64 Y72.94 E616.6760
G1 X159.06 Y145.36 E621.5812
G1 X159.06 Y144.80 E621.6080
G1 X87.20 Y72.94 E626.4754
G1 X87.77 Y72.94 E626.5026
G1 X159.06 Y144.23 E631.3313
G1 X159.06 Y143.66 E631.3587
G1 X88.34 Y72.94 E636.1487
G1 X88.90 Y72.94 E636.1755
G1 X159.06 Y143.09 E640.9273
G1 X159.06 Y142.53 E640.9541
G1 X89.47 Y72.94 E645.6677
G1 X90.04 Y72.94 E645.6950
G1 X159.06 Y141.96 E650.3700
G1 X159.06 Y141.39 E650.3973
G1 X90.61 Y72.94 E655.0336
G1 X91.17 Y72.94 E655.0604
G1 X159.06 Y140.83 E659.6588
G1 X159.06 Y140.26 E659.6861
G1 X91.74 Y72.94 E664.2459
G1 X92.31 Y72.94 E664.2732
G1 X159.06 Y139.69 E668.7944
G1 X159.06 Y139.12 E668.8217
G1 X92.87 Y72.94 E673.3047
G1 X93.44 Y72.94 E673.3319
G1 X159.06 Y138.56 E677.7766
G1 X159.06 Y137.99 E677.8039
G1 X94.01 Y72.94 E682.2100
G1 X94.58 Y72.94 E682.2373
G1 X159.06 Y137.42 E686.6047
G1 X159.06 Y136.86 E686.6315
G1 X95.14 Y72.94 E690.9610
G1 X95.71 Y72.94 E690.9884
G1 X159.06 Y136.29 E695.2792
G1 X159.06 Y135.72 E695.3065
G1 X96.28 Y72.94 E699.5589
G1 X96.84 Y72.94 E699.5857
G1 X159.06 Y135.15 E703.7996
G1 X159.06 Y134.59 E703.8264
G1 X97.41 Y72.94 E708.0022
G1 X97.98 Y72.94 E708.0295
G1 X159.06 Y134.02 E712.1667
G1 X159.06 Y133.45 E712.1939
G1 X98.55 Y72.94 E716.2925
G1 X99.11 Y72.94 E716.3194
G1 X159.06 Y132.89 E720.3800
G1 X159.06 Y132.32 E720.4073
G1 X99.68 Y72.94 E724.4293
G1 X100.25 Y72.94 E724.4566
G1 X159.06 Y131.75 E728.4400
G1 X159.06 Y131.19 E728.4668
G1 X100.81 Y72.94 E732.4122
G1 X101.38 Y72.94 E732.4395
G1 X159.06 Y130.62 E736.3464
G1 X159.06 Y130.05 E736.3737
G1 X101.95 Y72.94 E740.2420
G1 X102.51 Y72.94 E740.2688
G1 X159.06 Y129.48 E744.0988
G1 X159.06 Y128.92 E744.1256
G1 X103.08 Y72.94 E747.9173
G1 X103.65 Y72.94 E747.9446
G1 X159.06 Y128.35 E751.6977
G1 X159.06 Y127.78 E751.7250
G1 X104.22 Y72.94 E755.4395
G1 X104.78 Y72.94 E755.4663
G1 X159.06 Y127.22 E759.1429
G1 X159.06 Y126.65 E759.1702
G1 X105.35 Y72.94 E762.8081
G1 X105.92 Y72.94 E762.8355
G1 X159.06 Y126.08 E766.4348
G1 X159.06 Y125.51 E766.4621
G1 X106.48 Y72.94 E770.0232
G1 X107.05 Y72.94 E770.0504
G1 X159.06 Y124.95 E773.5733
G1 X159.06 Y124.38 E773.6006
G1 X107.62 Y72.94 E777.0848
G1 X108.19 Y72.94 E777.1121
G1 X159.06 Y123.81 E780.5576
G1 X159.06 Y123.25 E780.5844
G1 X108.75 Y72.94 E783.9922
G1 X109.32 Y72.94 E784.0194
G1 X159.06 Y122.68 E787.3885
G1 X159.06 Y122.11 E787.4159
G1 X109.89 Y72.94 E790.7463
G1 X110.45 Y72.94 E790.7731
G1 X159.06 Y121.54 E794.0653
G1 X159.06 Y120.98 E794.0921
G1 X111.02 Y72.94 E797.3460
G1 X111.59 Y72.94 E797.3733
G1 X159.06 Y120.41 E800.5886
G1 X159.06 Y119.84 E800.6159
G1 X112.16 Y72.94 E803.7926
G1 X112.72 Y72.94 E803.8194
G1 X159.06 Y119.28 E806.9582
G1 X159.06 Y118.71 E806.9854
G1 X113.29 Y72.94 E810.0856
G1 X113.86 Y72.94 E810.1129
G1 X159.06 Y118.14 E813.1745
G1 X159.06 Y117.57 E813.2017
G1 X114.42 Y72.94 E816.2250
G1 X114.99 Y72.94 E816.2523
G1 X159.06 Y117.01 E819.2373
G1 X159.06 Y116.44 E819.2647
G1 X115.56 Y72.94 E822.2110
G1 X116.13 Y72.94 E822.2384
G1 X159.06 Y115.87 E825.1461
G1 X159.06 Y115.31 E825.1729
G1 X116.69 Y72.94 E828.0428
G1 X117.26 Y72.94 E828.0702
G1 X159.06 Y114.74 E830.9014
G1 X159.06 Y114.17 E830.9287
G1 X117.83 Y72.94 E833.7213
G1 X118.39 Y72.94 E833.7481
G1 X159.06 Y113.61 E836.5028
G1 X159.06 Y113.04 E836.5302
G1 X118.96 Y72.94 E839.2463
G1 X119.53 Y72.94 E839.2736
G1 X159.06 Y112.47 E841.9510
G1 X159.06 Y111.90 E841.9784
G1 X120.10 Y72.94 E844.6172
G1 X120.66 Y72.94 E844.6440
G1 X159.06 Y111.34 E847.2450
G1 X159.06 Y110.77 E847.2723
G1 X121.23 Y72.94 E849.8347
G1 X121.80 Y72.94 E849.8620
G1 X159.06 Y110.20 E852.3857
G1 X159.06 Y109.64 E852.4125
G1 X122.36 Y72.94 E854.8984
G1 X122.93 Y72.94 E854.9257
G1 X159.06 Y109.07 E857.3729
G1 X159.06 Y108.50 E857.4002
G1 X123.50 Y72.94 E859.8088
G1 X124.06 Y72.94 E859.8356
G1 X159.06 Y107.93 E862.2059
G1 X159.06 Y107.37 E862.2327
G1 X124.63 Y72.94 E864.5648
G1 X125.20 Y72.94 E864.5920
G1 X159.06 Y106.80 E866.8855
G1 X159.06 Y106.23 E866.9128
G1 X125.77 Y72.94 E869.1676
G1 X126.33 Y72.94 E869.1945
G1 X159.06 Y105.67 E871.4114
G1 X159.06 Y105.10 E871.4387
G1 X126.90 Y72.94 E873.6170
G1 X127.47 Y72.94 E873.6443
G1 X159.06 Y104.53 E875.7840
G1 X159.06 Y103.96 E875.8113
G1 X128.03 Y72.94 E877.9127
G1 X128.60 Y72.94 E877.9401
G1 X159.06 Y103.40 E880.0032
G1 X159.06 Y102.83 E880.0305
G1 X129.17 Y72.94 E882.0551
G1 X129.74 Y72.94 E882.0824
G1 X159.06 Y102.26 E884.0683
G1 X159.06 Y101.70 E884.0952
G1 X130.30 Y72.94 E886.0432
G1 X130.87 Y72.94 E886.0704
G1 X159.06 Y101.13 E887.9798
G1 X159.06 Y100.56 E888.0071
G1 X131.44 Y72.94 E889.8779
G1 X132.00 Y72.94 E889.9047
G1 X159.06 Y99.99 E891.7372
G1 X159.06 Y99.43 E891.7640
G1 X132.57 Y72.94 E893.5583
G1 X133.14 Y72.94 E893.5856
G1 X159.06 Y98.86 E895.3412
G1 X159.06 Y98.29 E895.3686
G1 X133.71 Y72.94 E897.0856
G1 X134.27 Y72.94 E897.1124
G1 X159.06 Y97.73 E898.7916
G1 X159.06 Y97.16 E898.8188
G1 X134.84 Y72.94 E900.4594
G1 X135.41 Y72.94 E900.4867
G1 X159.06 Y96.59 E902.0886
G1 X159.06 Y96.03 E902.1154
G1 X135.97 Y72.94 E903.6793
G1 X136.54 Y72.94 E903.7066
G1 X159.06 Y95.46 E905.2320
