;generated by ffslicer 1.30.3 09/09/23 01:57:12
;right_extruder_material: PLA
;layer_height: 0.2
;perimeter_shells: 2
;top_solid_layers: 4
;bottom_solid_layers: 3
;fill_density: 15%
;fill_pattern: hexagon
;base_print_speed: 50
;travel_speed: 80
;right_extruder_temperature: 200
;left_extruder_temperature: 0
;platform_temperature: 60
;right_extruder_temperature_raft0: 0
;left_extruder_temperature_raft0: 0
;right_extruder_temperature_reset: 
;left_extruder_temperature_reset: 
;start gcode
M140 S60 T0
M104 S200 T0
M104 S0 T1
G90
G28
G1 Z50.000 F420
G161 X Y F3300
M190 S60 T0
M109 S200 T0
M109 S0 T1
G92 E.0000
;layer_count: 60
M108 T0
G1 X136.50 Y156.00 F4800
;preExtrude:0.20
;preExtruder0
M106 S255
G1 Z.200 F420
G1 X136.50 Y156.00 F4800
G1 X28.50 Y156.00 E13.7936 F1200
G1 X28.50 Y64.00 E25.5438
;raft
;layer:0.30
;shell
G1 E20.5438 F2700
G1 Z.300 F420
G1 X37.10 Y72.60 F4200
G1 E25.5438 F2700
G1 X37.10 Y72.60 F4200
G1 X182.90 Y72.60 E32.5268 F600
G1 X182.90 Y147.40 E36.1093
G1 X37.10 Y147.40 E43.0924
G1 X37.10 Y72.60 E46.6749
G1 X36.70 Y72.20 F4200
G1 X183.30 Y72.20 E53.6962 F600
G1 X183.30 Y147.80 E57.3171
G1 X36.70 Y147.80 E64.3384
G1 X36.70 Y72.20 E67.9592
;infill
G1 X37.44 Y147.05 F4200
G1 X37.44 Y147.05
G1 X38.01 Y147.06 E67.9865 F600
G1 X37.44 Y146.49 E68.0251
G1 X37.44 Y145.92 E68.0524
G1 X38.58 Y147.06 E68.1297
G1 X39.14 Y147.06 E68.1565
G1 X37.44 Y145.36 E68.2716
G1 X37.44 Y144.79 E68.2989
G1 X39.71 Y147.06 E68.4527
G1 X40.28 Y147.06 E68.4800
G1 X37.44 Y144.22 E68.6723
G1 X37.44 Y143.66 E68.6992
G1 X40.84 Y147.06 E68.9295
G1 X41.41 Y147.06 E68.9568
G1 X37.44 Y143.09 E69.2257
G1 X37.44 Y142.53 E69.2525
G1 X41.97 Y147.06 E69.5593
G1 X42.54 Y147.06 E69.5866
G1 X37.44 Y141.96 E69.9320
G1 X37.44 Y141.40 E69.9589
G1 X43.10 Y147.06 E70.3422
G1 X43.67 Y147.06 E70.3695
G1 X37.44 Y140.83 E70.7915
G1 X37.44 Y140.26 E70.8188
G1 X44.24 Y147.06 E71.2794
G1 X44.80 Y147.06 E71.3062
G1 X37.44 Y139.70 E71.8047
G1 X37.44 Y139.13 E71.8320
G1 X45.37 Y147.06 E72.3691
G1 X45.93 Y147.06 E72.3960
G1 X37.44 Y138.57 E72.9710
G1 X37.44 Y138.00 E72.9983
G1 X46.50 Y147.06 E73.6120
G1 X47.06 Y147.06 E73.6388
G1 X37.44 Y137.44 E74.2904
G1 X37.44 Y136.87 E74.3177
G1 X47.63 Y147.06 E75.0079
G1 X48.19 Y147.06 E75.0347
G1 X37.44 Y136.30 E75.7632
G1 X37.44 Y135.74 E75.7900
G1 X48.76 Y147.06 E76.5567
G1 X49.33 Y147.06 E76.5840
G1 X37.44 Y135.17 E77.3894
G1 X37.44 Y134.61 E77.4162
G1 X49.89 Y147.06 E78.2595
G1 X50.46 Y147.06 E78.2868
G1 X37.44 Y134.04 E79.1687
G1 X37.44 Y133.48 E79.1955
G1 X51.02 Y147.06 E80.1153
G1 X51.59 Y147.06 E80.1426
G1 X37.44 Y132.91 E81.1010
G1 X37.44 Y132.34 E81.1283
G1 X52.15 Y147.06 E82.1250
G1 X52.72 Y147.06 E82.1523
G1 X37.44 Y131.78 E83.1873
G1 X37.44 Y131.21 E83.2146
G1 X53.29 Y147.06 E84.2881
G1 X53.85 Y147.06 E84.3150
G1 X37.44 Y130.65 E85.4265
G1 X37.44 Y130.08 E85.4538
G1 X54.42 Y147.06 E86.6039
G1 X54.98 Y147.06 E86.6307
G1 X37.44 Y129.52 E87.8187
G1 X37.44 Y128.95 E87.8460
G1 X55.55 Y147.06 E89.0727
G1 X56.11 Y147.06 E89.0995
G1 X37.44 Y128.38 E90.3644
G1 X37.44 Y127.82 E90.3912
G1 X56.68 Y147.06 E91.6944
G1 X57.25 Y147.06 E91.7217
G1 X37.44 Y127.25 E93.0635
G1 X37.44 Y126.69 E93.0903
G1 X57.81 Y147.06 E94.4701
G1 X58.38 Y147.06 E94.4973
G1 X37.44 Y126.12 E95.9157
G1 X37.44 Y125.56 E95.9425
G1 X58.94 Y147.06 E97.3988
G1 X59.51 Y147.06 E97.4261
G1 X37.44 Y124.99 E98.9209
G1 X37.44 Y124.43 E98.9478
G1 X60.07 Y147.06 E100.4806
G1 X60.64 Y147.06 E100.5079
G1 X37.44 Y123.86 E102.0793
G1 X37.44 Y123.29 E102.1066
G1 X61.21 Y147.06 E103.7166
G1 X61.77 Y147.06 E103.7434
G1 X37.44 Y122.73 E105.3913
G1 X37.44 Y122.16 E105.4186
G1 X62.34 Y147.06 E107.1052
G1 X62.90 Y147.06 E107.1320
G1 X37.44 Y121.60 E108.8565
G1 X37.44 Y121.03 E108.8838
G1 X63.47 Y147.06 E110.6469
G1 X64.03 Y147.06 E110.6737
G1 X37.44 Y120.47 E112.4747
G1 X37.44 Y119.90 E112.5020
G1 X64.60 Y147.06 E114.3417
G1 X65.17 Y147.06 E114.3690
G1 X37.44 Y119.33 E116.2472
G1 X37.44 Y118.77 E116.2740
G1 X65.73 Y147.06 E118.1902
G1 X66.30 Y147.06 E118.2175
G1 X37.44 Y118.20 E120.1723
G1 X37.44 Y117.64 E120.1991
G1 X66.86 Y147.06 E122.1918
G1 X67.43 Y147.06 E122.2191
G1 X37.44 Y117.07 E124.2504
G1 X37.44 Y116.51 E124.2773
G1 X67.99 Y147.06 E126.3465
G1 X68.56 Y147.06 E126.3738
G1 X37.44 Y115.94 E128.4816
G1 X37.44 Y115.37 E128.5089
G1 X69.13 Y147.06 E130.6554
G1 X69.69 Y147.06 E130.6822
G1 X37.44 Y114.81 E132.8666
G1 X37.44 Y114.24 E132.8939
G1 X70.26 Y147.06 E135.1169
G1 X70.82 Y147.06 E135.1438
G1 X37.44 Y113.68 E137.4047
G1 X37.44 Y113.11 E137.4320
G1 X71.39 Y147.06 E139.7315
G1 X71.95 Y147.06 E139.7584
G1 X37.44 Y112.55 E142.0958
G1 X37.44 Y111.98 E142.1231
G1 X72.52 Y147.06 E144.4992
G1 X73.09 Y147.06 E144.5265
G1 X37.44 Y111.41 E146.9412
G1 X37.44 Y110.85 E146.9680
G1 X73.65 Y147.06 E149.4206
G1 X74.22 Y147.06 E149.4479
G1 X37.44 Y110.28 E151.9392
G1 X37.44 Y109.72 E151.9660
G1 X74.78 Y147.06 E154.4952
G1 X75.35 Y147.06 E154.5224
G1 X37.44 Y109.15 E157.0902
G1 X37.44 Y108.59 E157.1170
G1 X75.91 Y147.06 E159.7227
G1 X76.48 Y147.06 E159.7500
G1 X37.44 Y108.02 E162.3943
G1 X37.44 Y107.45 E162.4216
G1 X77.04 Y147.06 E165.1042
G1 X77.61 Y147.06 E165.1315
G1 X37.44 Y106.89 E167.8523
G1 X37.44 Y106.32 E167.8796
G1 X78.18 Y147.06 E170.6391
G1 X78.74 Y147.06 E170.6659
G1 X37.44 Y105.76 E173.4633
G1 X37.44 Y105.19 E173.4906
G1 X79.31 Y147.06 E176.3266
G1 X79.87 Y147.06 E176.3534
G1 X37.44 Y104.63 E179.2273
G1 X37.44 Y104.06 E179.2546
G1 X80.44 Y147.06 E182.1672
G1 X81.00 Y147.06 E182.1940
G1 X37.44 Y103.49 E185.1448
G1 X37.44 Y102.93 E185.1716
G1 X81.57 Y147.06 E188.1607
G1 X82.14 Y147.06 E188.1880
G1 X37.44 Y102.36 E191.2156
G1 X37.44 Y101.80 E191.2425
G1 X82.70 Y147.06 E194.3081
G1 X83.27 Y147.06 E194.3354
G1 X37.44 Y101.23 E197.4396
G1 X37.44 Y100.67 E197.4664
G1 X83.83 Y147.06 E200.6086
G1 X84.40 Y147.06 E200.6359
G1 X37.44 Y100.10 E203.8166
G1 X37.44 Y99.54 E203.8435
G1 X84.96 Y147.06 E207.0621
G1 X85.53 Y147.06 E207.0894
G1 X37.44 Y98.97 E210.3467
G1 X37.44 Y98.40 E210.3740
G1 X86.10 Y147.06 E213.6699
G1 X86.66 Y147.06 E213.6967
G1 X37.44 Y97.84 E217.0306
G1 X37.44 Y97.27 E217.0579
G1 X87.23 Y147.06 E220.4303
G1 X87.79 Y147.06 E220.4571
G1 X37.44 Y96.71 E223.8675
G1 X37.44 Y96.14 E223.8948
G1 X88.36 Y147.06 E227.3438
G1 X88.92 Y147.06 E227.3706
G1 X37.44 Y95.58 E230.8575
G1 X37.44 Y95.01 E230.8848
G1 X89.49 Y147.06 E234.4103
G1 X90.06 Y147.06 E234.4376
G1 X37.44 Y94.44 E238.0017
G1 X37.44 Y93.88 E238.0286
G1 X90.62 Y147.06 E241.6306
G1 X91.19 Y147.06 E241.6579
G1 X37.44 Y93.31 E245.2986
G1 X37.44 Y92.75 E245.3254
G1 X91.75 Y147.06 E249.0040
G1 X92.32 Y147.06 E249.0313
G1 X37.44 Y92.18 E252.7485
G1 X37.44 Y91.62 E252.7753
G1 X92.88 Y147.06 E256.5304
G1 X93.45 Y147.06 E256.5577
G1 X37.44 Y91.05 E260.3515
G1 X37.44 Y90.48 E260.3788
G1 X94.02 Y147.06 E264.2111
G1 X94.58 Y147.06 E264.2379
G1 X37.44 Y89.92 E268.1082
G1 X37.44 Y89.35 E268.1355
G1 X95.15 Y147.06 E272.0444
G1 X95.71 Y147.06 E272.0712
G1 X37.44 Y88.79 E276.0180
G1 X37.44 Y88.22 E276.0453
G1 X96.28 Y147.06 E280.0307
G1 X96.84 Y147.06 E280.0575
G1 X37.44 Y87.66 E284.0809
G1 X37.44 Y87.09 E284.1082
G1 X97.41 Y147.06 E288.1702
G1 X97.98 Y147.06 E288.1975
G1 X37.44 Y86.52 E292.2980
G1 X37.44 Y85.96 E292.3248
G1 X98.54 Y147.06 E296.4634
G1 X99.11 Y147.06 E296.4907
G1 X37.44 Y85.39 E300.6678
G1 X37.44 Y84.83 E300.6946
G1 X99.67 Y147.06 E304.9096
G1 X100.24 Y147.06 E304.9369
G1 X37.44 Y84.26 E309.1906
G1 X37.44 Y83.70 E309.2174
G1 X100.80 Y147.06 E313.5090
G1 X101.37 Y147.06 E313.5363
G1 X37.44 Y83.13 E317.8664
G1 X37.44 Y82.56 E317.8938
G1 X101.94 Y147.06 E322.2626
G1 X102.50 Y147.06 E322.2893
G1 X37.44 Y82.00 E326.6961
G1 X37.44 Y81.43 E326.7234
G1 X103.07 Y147.06 E331.1687
G1 X103.63 Y147.06 E331.1955
G1 X37.44 Y80.87 E335.6788
G1 X37.44 Y80.30 E335.7061
G1 X104.20 Y147.06 E340.2280
G1 X104.76 Y147.06 E340.2548
G1 X37.44 Y79.74 E344.8146
G1 X37.44 Y79.17 E344.8419
G1 X105.33 Y147.06 E349.4403
G1 X105.89 Y147.06 E349.4671
G1 X37.44 Y78.60 E354.1038
G1 X37.44 Y78.04 E354.1306
G1 X106.46 Y147.06 E358.8056
G1 X107.03 Y147.06 E358.8329
G1 X37.44 Y77.47 E363.5465
G1 X37.44 Y76.91 E363.5733
G1 X107.59 Y147.06 E368.3247
G1 X108.16 Y147.06 E368.3520
G1 X37.44 Y76.34 E373.1421
G1 X37.44 Y75.78 E373.1690
G1 X108.72 Y147.06 E377.9970
G1 X109.29 Y147.06 E378.0243
G1 X37.44 Y75.21 E382.8909
G1 X37.44 Y74.64 E382.9182
G1 X109.85 Y147.06 E387.8231
G1 X110.42 Y147.06 E387.8504
G1 X37.44 Y74.08 E392.7936
G1 X37.44 Y73.51 E392.8209
G1 X110.99 Y147.06 E397.8027
G1 X111.55 Y147.06 E397.8295
G1 X37.44 Y72.95 E402.8492
G1 X38.00 Y72.94 E402.8761
G1 X112.12 Y147.06 E407.8964
G1 X112.68 Y147.06 E407.9232
G1 X38.56 Y72.94 E412.9436
G1 X39.13 Y72.94 E412.9709
G1 X113.25 Y147.06 E417.9913
G1 X113.81 Y147.06 E418.0181
G1 X39.69 Y72.94 E423.0385
G1 X40.26 Y72.94 E423.0658
G1 X114.38 Y147.06 E428.0862
G1 X114.95 Y147.06 E428.1135
G1 X40.83 Y72.94 E433.1339
G1 X41.39 Y72.94 E433.1607
G1 X115.51 Y147.06 E438.1811
G1 X116.08 Y147.06 E438.2084
G1 X41.96 Y72.94 E443.2288
G1 X42.52 Y72.94 E443.2555
G1 X116.64 Y147.06 E448.2759
G1 X117.21 Y147.06 E448.3032
G1 X43.09 Y72.94 E453.3236
G1 X43.65 Y72.94 E453.3504
G1 X117.77 Y147.06 E458.3708
G1 X118.34 Y147.06 E458.3981
G1 X44.22 Y72.94 E463.4185
G1 X44.79 Y72.94 E463.4458
G1 X118.91 Y147.06 E468.4662
G1 X119.47 Y147.06 E468.4930
G1 X45.35 Y72.94 E473.5134
G1 X45.92 Y72.94 E473.5407
G1 X120.04 Y147.06 E478.5611
G1 X120.60 Y147.06 E478.5879
G1 X46.48 Y72.94 E483.6082
G1 X47.05 Y72.94 E483.6356
G1 X121.17 Y147.06 E488.6559
G1 X121.73 Y147.06 E488.6827
G1 X47.61 Y72.94 E493.7031
G1 X48.18 Y72.94 E493.7304
G1 X122.30 Y147.06 E498.7508
G1 X122.87 Y147.06 E498.7781
G1 X48.75 Y72.94 E503.7985
G1 X49.31 Y72.94 E503.8253
G1 X123.43 Y147.06 E508.8457
G1 X124.00 Y147.06 E508.8730
G1 X49.88 Y72.94 E513.8934
G1 X50.44 Y72.94 E513.9202
G1 X124.56 Y147.06 E518.9406
G1 X125.13 Y147.06 E518.9679
G1 X51.01 Y72.94 E523.9882
G1 X51.57 Y72.94 E524.0150
G1 X125.69 Y147.06 E529.0355
G1 X126.26 Y147.06 E529.0628
G1 X52.14 Y72.94 E534.0832
G1 X52.70 Y72.94 E534.1099
G1 X126.83 Y147.06 E539.1307
G1 X127.39 Y147.06 E539.1575
G1 X53.27 Y72.94 E544.1779
G1 X53.84 Y72.94 E544.2052
G1 X127.96 Y147.06 E549.2256
G1 X128.52 Y147.06 E549.2524
G1 X54.40 Y72.94 E554.2728
G1 X54.97 Y72.94 E554.3001
G1 X129.09 Y147.06 E559.3205
G1 X129.65 Y147.06 E559.3473
G1 X55.53 Y72.94 E564.3676
G1 X56.10 Y72.94 E564.3950
G1 X130.22 Y147.06 E569.4153
G1 X130.79 Y147.06 E569.4427
G1 X56.66 Y72.94 E574.4634
G1 X57.23 Y72.94 E574.4907
G1 X131.35 Y147.06 E579.5111
G1 X131.92 Y147.06 E579.5384
G1 X57.80 Y72.94 E584.5588
G1 X58.36 Y72.94 E584.5856
G1 X132.48 Y147.06 E589.6060
G1 X133.05 Y147.06 E589.6333
G1 X58.93 Y72.94 E594.6537
G1 X59.49 Y72.94 E594.6804
G1 X133.61 Y147.06 E599.7008
G1 X134.18 Y147.06 E599.7282
G1 X60.06 Y72.94 E604.7485
G1 X60.62 Y72.94 E604.7754
G1 X134.74 Y147.06 E609.7957
G1 X135.31 Y147.06 E609.8230
G1 X61.19 Y72.94 E614.8434
G1 X61.76 Y72.94 E614.8707
G1 X135.88 Y147.06 E619.8911
G1 X136.44 Y147.06 E619.9179
G1 X62.32 Y72.94 E624.9383
G1 X62.89 Y72.94 E624.9656
G1 X137.01 Y147.06 E629.9860
G1 X137.57 Y147.06 E630.0128
G1 X63.45 Y72.94 E635.0332
G1 X64.02 Y72.94 E635.0604
G1 X138.14 Y147.06 E640.0808
G1 X138.70 Y147.06 E640.1076
G1 X64.58 Y72.94 E645.1280
G1 X65.15 Y72.94 E645.1554
G1 X139.27 Y147.06 E650.1757
G1 X139.84 Y147.06 E650.2030
G1 X65.71 Y72.94 E655.2238
G1 X66.28 Y72.94 E655.2511
G1 X140.40 Y147.06 E660.2714
G1 X140.97 Y147.06 E660.2988
G1 X66.85 Y72.94 E665.3192
G1 X67.41 Y72.94 E665.3460
G1 X141.53 Y147.06 E670.3664
G1 X142.10 Y147.06 E670.3936
G1 X67.98 Y72.94 E675.4140
G1 X68.54 Y72.94 E675.4408
G1 X142.66 Y147.06 E680.4612
G1 X143.23 Y147.06 E680.4886
G1 X69.11 Y72.94 E685.5089
G1 X69.68 Y72.94 E685.5362
G1 X143.80 Y147.06 E690.5566
G1 X144.36 Y147.06 E690.5834
G1 X70.24 Y72.94 E695.6038
G1 X70.81 Y72.94 E695.6311
G1 X144.93 Y147.06 E700.6515
G1 X145.49 Y147.06 E700.6782
G1 X71.37 Y72.94 E705.6986
G1 X71.94 Y72.94 E705.7260
G1 X146.06 Y147.06 E710.7464
G1 X146.62 Y147.06 E710.7732
G1 X72.50 Y72.94 E715.7935
G1 X73.07 Y72.94 E715.8208
G1 X147.19 Y147.06 E720.8412
G1 X147.76 Y147.06 E720.8686
G1 X73.64 Y72.94 E725.8889
G1 X74.20 Y72.94 E725.9157
G1 X148.32 Y147.06 E730.9361
G1 X148.89 Y147.06 E730.9634
G1 X74.77 Y72.94 E735.9838
G1 X75.33 Y72.94 E736.0106
G1 X149.45 Y147.06 E741.0310
G1 X150.02 Y147.06 E741.0583
G1 X75.90 Y72.94 E746.0786
G1 X76.46 Y72.94 E746.1054
G1 X150.58 Y147.06 E751.1258
G1 X151.15 Y147.06 E751.1532
G1 X77.03 Y72.94 E756.1735
G1 X77.60 Y72.94 E756.2008
G1 X151.72 Y147.06 E761.2212
G1 X152.28 Y147.06 E761.2480
G1 X78.16 Y72.94 E766.2684
G1 X78.73 Y72.94 E766.2957
G1 X152.85 Y147.06 E771.3161
G1 X153.41 Y147.06 E771.3429
G1 X79.29 Y72.94 E776.3632
G1 X79.86 Y72.94 E776.3906
G1 X153.98 Y147.06 E781.4110
G1 X154.54 Y147.06 E781.4378
G1 X80.42 Y72.94 E786.4582
G1 X80.99 Y72.94 E786.4854
G1 X155.11 Y147.06 E791.5058
G1 X155.68 Y147.06 E791.5332
G1 X81.55 Y72.94 E796.5539
G1 X82.12 Y72.94 E796.5812
G1 X156.24 Y147.06 E801.6016
G1 X156.81 Y147.06 E801.6289
G1 X82.69 Y72.94 E806.6493
G1 X83.25 Y72.94 E806.6761
G1 X157.37 Y147.06 E811.6964
G1 X157.94 Y147.06 E811.7238
G1 X83.82 Y72.94 E816.7442
G1 X84.38 Y72.94 E816.7710
G1 X158.50 Y147.06 E821.7913
G1 X159.07 Y147.06 E821.8186
G1 X84.95 Y72.94 E826.8390
G1 X85.51 Y72.94 E826.8658
G1 X159.63 Y147.06 E831.8862
G1 X160.20 Y147.06 E831.9135
G1 X86.08 Y72.94 E836.9339
G1 X86.65 Y72.94 E836.9612
G1 X160.77 Y147.06 E841.9816
G1 X161.33 Y147.06 E842.0084
G1 X87.21 Y72.94 E847.0287
G1 X87.78 Y72.94 E847.0561
G1 X161.90 Y147.06 E852.0764
G1 X162.46 Y147.06 E852.1033
G1 X88.34 Y72.94 E857.1236
G1 X88.91 Y72.94 E857.1509
G1 X163.03 Y147.06 E862.1713
G1 X163.59 Y147.06 E862.1981
G1 X89.47 Y72.94 E867.2185
G1 X90.04 Y72.94 E867.2458
G1 X164.16 Y147.06 E872.2662
G1 X164.73 Y147.06 E872.2935
G1 X90.61 Y72.94 E877.3139
G1 X91.17 Y72.94 E877.3407
G1 X165.29 Y147.06 E882.3611
G1 X165.86 Y147.06 E882.3884
G1 X91.74 Y72.94 E887.4088
G1 X92.30 Y72.94 E887.4355
G1 X166.42 Y147.06 E892.4559
G1 X166.99 Y147.06 E892.4833
G1 X92.87 Y72.94 E897.5036
G1 X93.43 Y72.94 E897.5305
G1 X167.55 Y147.06 E902.5508
G1 X168.12 Y147.06 E902.5781
G1 X94.00 Y72.94 E907.5985
G1 X94.57 Y72.94 E907.6258
G1 X168.69 Y147.06 E912.6462
G1 X169.25 Y147.06 E912.6730
G1 X95.13 Y72.94 E917.6934
G1 X95.70 Y72.94 E917.7207
G1 X169.82 Y147.06 E922.7411
G1 X170.38 Y147.06 E922.7679
G1 X96.26 Y72.94 E927.7883
G1 X96.83 Y72.94 E927.8156
G1 X170.95 Y147.06 E932.8359
G1 X171.51 Y147.06 E932.8627
G1 X97.39 Y72.94 E937.8831
G1 X97.96 Y72.94 E937.9105
G1 X172.08 Y147.06 E942.9308
G1 X172.65 Y147.06 E942.9581
G1 X98.53 Y72.94 E947.9785
G1 X99.09 Y72.94 E948.0053
G1 X173.21 Y147.06 E953.0257
G1 X173.78 Y147.06 E953.0530
G1 X99.66 Y72.94 E958.0734
G1 X100.22 Y72.94 E958.1002
G1 X174.34 Y147.06 E963.1205
G1 X174.91 Y147.06 E963.1479
G1 X100.79 Y72.94 E968.1683
G1 X101.35 Y72.94 E968.1951
G1 X175.47 Y147.06 E973.2155
G1 X176.04 Y147.06 E973.2427
G1 X101.92 Y72.94 E978.2631
G1 X102.49 Y72.94 E978.2905
G1 X176.61 Y147.06 E983.3108
G1 X177.17 Y147.06 E983.3376
G1 X103.05 Y72.94 E988.3580
G1 X103.62 Y72.94 E988.3853
G1 X177.74 Y147.06 E993.4057
G1 X178.30 Y147.06 E993.4325
G1 X104.18 Y72.94 E998.4529
G1 X104.75 Y72.94 E998.4802
G92 E0
G1 X178.87 Y147.06 E5.0204
G1 X179.43 Y147.06 E5.0472
G1 X105.31 Y72.94 E10.0676
G1 X105.88 Y72.94 E10.0949
G1 X180.00 Y147.06 E15.1153
G1 X180.57 Y147.06 E15.1426
G1 X106.45 Y72.94 E20.1630
G1 X107.01 Y72.94 E20.1898
G1 X181.13 Y147.06 E25.2102
G1 X181.70 Y147.06 E25.2375
G1 X107.58 Y72.94 E30.2578
G1 X108.14 Y72.94 E30.2847
G1 X182.26 Y147.06 E35.3050
G1 X182.56 Y147.06 E35.3194
G1 X182.56 Y146.79 E35.3323
G1 X108.71 Y72.94 E40.3344
G1 X109.27 Y72.94 E40.3613
G1 X182.56 Y146.23 E45.3254
G1 X182.56 Y145.66 E45.3527
G1 X109.84 Y72.94 E50.2783
G1 X110.40 Y72.94 E50.3051
G1 X182.56 Y145.09 E55.1924
G1 X182.56 Y144.53 E55.2192
G1 X110.97 Y72.94 E60.0682
G1 X111.54 Y72.94 E60.0955
G1 X182.56 Y143.96 E64.9059
G1 X182.56 Y143.40 E64.9328
G1 X112.10 Y72.94 E69.7052
G1 X112.67 Y72.94 E69.7325
G1 X182.56 Y142.83 E74.4664
G1 X182.56 Y142.27 E74.4932
G1 X113.23 Y72.94 E79.1892
