;generated by ffslicer 1.30.3 09/12/23 22:12:32
;right_extruder_material: PLA
;layer_height: 0.2
;perimeter_shells: 2
;top_solid_layers: 4
;bottom_solid_layers: 3
;fill_density: 15%
;fill_pattern: hexagon
;base_print_speed: 50
;travel_speed: 80
;right_extruder_temperature: 200
;left_extruder_temperature: 0
;platform_temperature: 60
;right_extruder_temperature_raft0: 0
;left_extruder_temperature_raft0: 0
;right_extruder_temperature_reset: 
;left_extruder_temperature_reset: 
;start gcode
M140 S60 T0
M104 S200 T0
M104 S0 T1
G90
G28
G1 Z50.000 F420
G161 X Y F3300
M190 S60 T0
M109 S200 T0
M109 S0 T1
G92 E.0000
;layer_count: 277
M108 T0
G1 X155.00 Y164.00 F4800
;preExtrude:0.20
;preExtruder0
M106 S255
G1 Z.200 F420
G1 X155.00 Y164.00 F4800
G1 X63.00 Y164.00 E11.7501 F1200
G1 X63.00 Y56.00 E25.5438
;raft
;layer:0.30
;shell
G1 E20.5438 F2700
G1 Z.300 F420
G1 X71.60 Y64.60 F4200
G1 E25.5438 F2700
G1 X71.60 Y64.60 F4200
G1 X148.40 Y64.60 E29.2221 F600
G1 X148.40 Y155.40 E33.5709
G1 X71.60 Y155.40 E37.2492
G1 X71.60 Y151.60 E37.4312
G1 X101.01 Y151.60 E38.8398
G1 X102.82 Y151.56 E38.9265
G1 X104.52 Y151.45 E39.0081
G1 X106.20 Y151.27 E39.0890
G1 X107.88 Y151.02 E39.1704
G1 X109.55 Y150.71 E39.2517
G1 X111.20 Y150.33 E39.3328
G1 X112.84 Y149.88 E39.4143
G1 X114.46 Y149.36 E39.4958
G1 X116.06 Y148.78 E39.5773
G1 X117.62 Y148.13 E39.6582
G1 X119.16 Y147.42 E39.7394
G1 X120.68 Y146.65 E39.8210
G1 X122.16 Y145.82 E39.9023
G1 X123.59 Y144.93 E39.9830
G1 X125.00 Y143.97 E40.0647
G1 X126.37 Y142.97 E40.1459
G1 X127.69 Y141.91 E40.2270
G1 X128.97 Y140.79 E40.3085
G1 X130.20 Y139.62 E40.3898
G1 X131.39 Y138.41 E40.4710
G1 X132.52 Y137.14 E40.5525
G1 X133.60 Y135.84 E40.6334
G1 X134.63 Y134.49 E40.7147
G1 X135.60 Y133.09 E40.7963
G1 X136.51 Y131.66 E40.8775
G1 X137.36 Y130.20 E40.9584
G1 X138.16 Y128.69 E41.0402
G1 X138.89 Y127.17 E41.1210
G1 X139.56 Y125.60 E41.2028
G1 X140.16 Y124.02 E41.2837
G1 X140.71 Y122.41 E41.3652
G1 X141.18 Y120.78 E41.4464
G1 X141.58 Y119.13 E41.5278
G1 X141.92 Y117.47 E41.6089
G1 X142.19 Y115.79 E41.6904
G1 X142.39 Y114.11 E41.7714
G1 X142.53 Y112.42 E41.8527
G1 X142.59 Y110.72 E41.9341
G1 X142.59 Y109.02 E42.0156
G1 X142.51 Y107.33 E42.0966
G1 X142.37 Y105.64 E42.1778
G1 X142.16 Y103.95 E42.2594
G1 X141.88 Y102.28 E42.3405
G1 X141.53 Y100.62 E42.4217
G1 X141.11 Y98.97 E42.5033
G1 X140.63 Y97.35 E42.5842
G1 X140.08 Y95.74 E42.6657
G1 X139.46 Y94.16 E42.7470
G1 X138.79 Y92.60 E42.8283
G1 X138.04 Y91.08 E42.9095
G1 X137.24 Y89.58 E42.9909
G1 X136.38 Y88.12 E43.0720
G1 X135.46 Y86.69 E43.1535
G1 X134.48 Y85.31 E43.2345
G1 X133.44 Y83.96 E43.3162
G1 X132.36 Y82.67 E43.3967
G1 X131.21 Y81.41 E43.4785
G1 X130.02 Y80.20 E43.5597
G1 X128.78 Y79.04 E43.6411
G1 X127.50 Y77.94 E43.7219
G1 X126.16 Y76.88 E43.8037
G1 X124.79 Y75.88 E43.8850
G1 X123.39 Y74.94 E43.9657
G1 X121.93 Y74.05 E44.0476
G1 X120.45 Y73.23 E44.1286
G1 X118.94 Y72.47 E44.2096
G1 X117.39 Y71.77 E44.2911
G1 X115.81 Y71.13 E44.3727
G1 X114.22 Y70.56 E44.4536
G1 X112.59 Y70.05 E44.5354
G1 X110.96 Y69.61 E44.6163
G1 X109.30 Y69.24 E44.6977
G1 X107.64 Y68.94 E44.7785
G1 X105.95 Y68.70 E44.8603
G1 X104.27 Y68.53 E44.9412
G1 X102.57 Y68.43 E45.0227
G1 X101.01 Y68.40 E45.0975
G1 X71.60 Y68.40 E46.5060
G1 X71.60 Y64.60 E46.6880
G1 X71.20 Y64.20 F4200
G1 X148.80 Y64.20 E50.4047 F600
G1 X148.80 Y155.80 E54.7918
G1 X71.20 Y155.80 E58.5084
G1 X71.20 Y151.20 E58.7287
G1 X101.00 Y151.20 E60.1560
G1 X102.81 Y151.16 E60.2427
G1 X104.48 Y151.05 E60.3229
G1 X106.15 Y150.87 E60.4033
G1 X107.82 Y150.63 E60.4841
G1 X109.47 Y150.32 E60.5645
G1 X111.11 Y149.94 E60.6452
G1 X112.73 Y149.49 E60.7257
G1 X114.33 Y148.98 E60.8061
G1 X115.91 Y148.41 E60.8866
G1 X117.46 Y147.77 E60.9669
G1 X118.99 Y147.06 E61.0477
G1 X120.49 Y146.30 E61.1282
G1 X121.95 Y145.47 E61.2086
G1 X123.38 Y144.59 E61.2890
G1 X124.77 Y143.65 E61.3694
G1 X126.12 Y142.65 E61.4499
G1 X127.43 Y141.60 E61.5303
G1 X128.70 Y140.49 E61.6111
G1 X129.92 Y139.34 E61.6914
G1 X131.09 Y138.13 E61.7720
G1 X132.22 Y136.88 E61.8527
G1 X133.29 Y135.59 E61.9330
G1 X134.30 Y134.25 E62.0133
G1 X135.27 Y132.87 E62.0941
G1 X136.17 Y131.45 E62.1746
G1 X137.02 Y130.00 E62.2551
G1 X137.80 Y128.52 E62.3353
G1 X138.52 Y127.00 E62.4158
G1 X139.19 Y125.45 E62.4967
G1 X139.79 Y123.88 E62.5772
G1 X140.32 Y122.29 E62.6575
G1 X140.79 Y120.68 E62.7378
G1 X141.19 Y119.05 E62.8182
G1 X141.53 Y117.40 E62.8989
G1 X141.80 Y115.74 E62.9794
G1 X142.00 Y114.07 E63.0600
G1 X142.13 Y112.39 E63.1407
G1 X142.19 Y110.71 E63.2212
G1 X142.19 Y109.03 E63.3017
G1 X142.11 Y107.35 E63.3822
G1 X141.97 Y105.68 E63.4625
G1 X141.76 Y104.01 E63.5431
G1 X141.48 Y102.36 E63.6232
G1 X141.14 Y100.71 E63.7039
G1 X140.72 Y99.08 E63.7845
G1 X140.25 Y97.47 E63.8649
G1 X139.70 Y95.88 E63.9455
G1 X139.09 Y94.31 E64.0261
G1 X138.42 Y92.77 E64.1066
G1 X137.69 Y91.26 E64.1869
G1 X136.89 Y89.78 E64.2675
G1 X136.04 Y88.33 E64.3480
G1 X135.13 Y86.92 E64.4283
G1 X134.16 Y85.55 E64.5087
G1 X133.13 Y84.22 E64.5893
G1 X132.05 Y82.93 E64.6699
G1 X130.92 Y81.68 E64.7506
G1 X129.74 Y80.49 E64.8309
G1 X128.52 Y79.34 E64.9112
G1 X127.24 Y78.24 E64.9920
G1 X125.92 Y77.20 E65.0725
G1 X124.56 Y76.21 E65.1530
G1 X123.17 Y75.27 E65.2334
G1 X121.73 Y74.40 E65.3140
G1 X120.26 Y73.58 E65.3946
G1 X118.76 Y72.83 E65.4749
G1 X117.23 Y72.13 E65.5555
G1 X115.67 Y71.50 E65.6361
G1 X114.09 Y70.94 E65.7164
G1 X112.49 Y70.44 E65.7967
G1 X110.86 Y70.00 E65.8775
G1 X109.22 Y69.63 E65.9580
G1 X107.57 Y69.33 E66.0384
G1 X105.91 Y69.10 E66.1186
G1 X104.23 Y68.93 E66.1995
G1 X102.56 Y68.83 E66.2796
G1 X101.00 Y68.80 E66.3544
G1 X71.20 Y68.80 E67.7816
G1 X71.20 Y64.20 E68.0019
;infill
G1 X71.94 Y67.94 F4200
G1 X71.94 Y67.94
G1 X72.06 Y68.06 E68.0101 F600
G1 X72.63 Y68.06 E68.0373
G1 X71.94 Y67.37 E68.0841
G1 X71.94 Y66.80 E68.1114
G1 X73.19 Y68.06 E68.1964
G1 X73.76 Y68.06 E68.2237
G1 X71.94 Y66.24 E68.3470
G1 X71.94 Y65.67 E68.3743
G1 X74.33 Y68.06 E68.5361
G1 X74.89 Y68.06 E68.5630
G1 X71.94 Y65.11 E68.7628
G1 X71.94 Y64.94 E68.7709
G1 X72.34 Y64.94 E68.7901
G1 X75.46 Y68.06 E69.0014
G1 X76.02 Y68.06 E69.0282
G1 X72.90 Y64.94 E69.2395
G1 X73.47 Y64.94 E69.2668
G1 X76.59 Y68.06 E69.4782
G1 X77.15 Y68.06 E69.5050
G1 X74.03 Y64.94 E69.7163
G1 X74.60 Y64.94 E69.7436
G1 X77.72 Y68.06 E69.9549
G1 X78.29 Y68.06 E69.9822
G1 X75.17 Y64.94 E70.1936
G1 X75.73 Y64.94 E70.2204
G1 X78.85 Y68.06 E70.4317
G1 X79.42 Y68.06 E70.4590
G1 X76.30 Y64.94 E70.6703
G1 X76.86 Y64.94 E70.6972
G1 X79.98 Y68.06 E70.9085
G1 X80.55 Y68.06 E70.9358
G1 X77.43 Y64.94 E71.1471
G1 X77.99 Y64.94 E71.1739
G1 X81.11 Y68.06 E71.3853
G1 X81.68 Y68.06 E71.4126
G1 X78.56 Y64.94 E71.6239
G1 X79.13 Y64.94 E71.6512
G1 X82.25 Y68.06 E71.8625
G1 X82.81 Y68.06 E71.8893
G1 X79.69 Y64.94 E72.1007
G1 X80.26 Y64.94 E72.1280
G1 X83.38 Y68.06 E72.3393
G1 X83.94 Y68.06 E72.3661
G1 X80.82 Y64.94 E72.5774
G1 X81.39 Y64.94 E72.6047
G1 X84.51 Y68.06 E72.8161
G1 X85.07 Y68.06 E72.8429
G1 X81.95 Y64.94 E73.0542
G1 X82.52 Y64.94 E73.0815
G1 X85.64 Y68.06 E73.2928
G1 X86.21 Y68.06 E73.3201
G1 X83.09 Y64.94 E73.5315
G1 X83.65 Y64.94 E73.5583
G1 X86.77 Y68.06 E73.7696
G1 X87.34 Y68.06 E73.7969
G1 X84.22 Y64.94 E74.0082
G1 X84.78 Y64.94 E74.0351
G1 X87.90 Y68.06 E74.2464
G1 X88.47 Y68.06 E74.2737
G1 X85.35 Y64.94 E74.4850
G1 X85.91 Y64.94 E74.5118
G1 X89.03 Y68.06 E74.7232
G1 X89.60 Y68.06 E74.7504
G1 X86.48 Y64.94 E74.9618
G1 X87.05 Y64.94 E74.9891
G1 X90.17 Y68.06 E75.2004
G1 X90.73 Y68.06 E75.2272
G1 X87.61 Y64.94 E75.4385
G1 X88.18 Y64.94 E75.4658
G1 X91.30 Y68.06 E75.6772
G1 X91.86 Y68.06 E75.7040
G1 X88.74 Y64.94 E75.9153
G1 X89.31 Y64.94 E75.9426
G1 X92.43 Y68.06 E76.1539
G1 X92.99 Y68.06 E76.1808
G1 X89.87 Y64.94 E76.3921
G1 X90.44 Y64.94 E76.4194
G1 X93.56 Y68.06 E76.6307
G1 X94.13 Y68.06 E76.6580
G1 X91.01 Y64.94 E76.8693
G1 X91.57 Y64.94 E76.8962
G1 X94.69 Y68.06 E77.1075
G1 X95.26 Y68.06 E77.1348
G1 X92.14 Y64.94 E77.3461
G1 X92.70 Y64.94 E77.3729
G1 X95.82 Y68.06 E77.5843
G1 X96.39 Y68.06 E77.6116
G1 X93.27 Y64.94 E77.8229
G1 X93.83 Y64.94 E77.8497
G1 X96.95 Y68.06 E78.0610
G1 X97.52 Y68.06 E78.0883
G1 X94.40 Y64.94 E78.2997
G1 X94.97 Y64.94 E78.3270
G1 X98.08 Y68.06 E78.5380
G1 X98.65 Y68.06 E78.5652
G1 X95.53 Y64.94 E78.7766
G1 X96.10 Y64.94 E78.8039
G1 X99.22 Y68.06 E79.0152
G1 X99.78 Y68.06 E79.0420
G1 X96.66 Y64.94 E79.2534
G1 X97.23 Y64.94 E79.2807
G1 X100.35 Y68.06 E79.4920
G1 X100.91 Y68.06 E79.5188
G1 X97.79 Y64.94 E79.7301
G1 X98.36 Y64.94 E79.7574
G1 X101.49 Y68.07 E79.9694
G1 X102.07 Y68.08 E79.9972
G1 X98.92 Y64.94 E80.2102
G1 X99.49 Y64.94 E80.2375
G1 X102.65 Y68.10 E80.4516
G1 X103.25 Y68.13 E80.4803
G1 X100.06 Y64.94 E80.6964
G1 X100.62 Y64.94 E80.7232
G1 X103.85 Y68.17 E80.9420
G1 X104.46 Y68.21 E80.9713
G1 X101.19 Y64.94 E81.1928
G1 X101.75 Y64.94 E81.2196
G1 X105.08 Y68.27 E81.4452
G1 X105.71 Y68.33 E81.4755
G1 X102.32 Y64.94 E81.7051
G1 X102.88 Y64.94 E81.7319
G1 X106.36 Y68.41 E81.9673
G1 X107.01 Y68.50 E81.9987
G1 X103.45 Y64.94 E82.2398
G1 X104.02 Y64.94 E82.2671
G1 X107.67 Y68.60 E82.5147
G1 X108.36 Y68.72 E82.5483
G1 X104.58 Y64.94 E82.8043
G1 X105.15 Y64.94 E82.8316
G1 X109.06 Y68.85 E83.0964
G1 X109.77 Y69.00 E83.1312
G1 X105.71 Y64.94 E83.4062
G1 X106.28 Y64.94 E83.4335
G1 X110.50 Y69.16 E83.7193
G1 X111.24 Y69.34 E83.7558
G1 X106.84 Y64.94 E84.0538
G1 X107.41 Y64.94 E84.0811
G1 X112.01 Y69.54 E84.3927
G1 X112.79 Y69.75 E84.4314
G1 X107.98 Y64.94 E84.7572
G1 X108.54 Y64.94 E84.7840
G1 X113.61 Y70.01 E85.1274
G1 X114.44 Y70.28 E85.1692
G1 X109.11 Y64.94 E85.5306
G1 X109.67 Y64.94 E85.5574
G1 X115.33 Y70.59 E85.9404
G1 X116.23 Y70.93 E85.9865
G1 X110.24 Y64.94 E86.3922
G1 X110.80 Y64.94 E86.4190
G1 X117.18 Y71.31 E86.8508
G1 X117.53 Y71.46 E86.8691
G1 X118.18 Y71.75 E86.9031
G1 X111.37 Y64.94 E87.3644
G1 X111.94 Y64.94 E87.3917
G1 X119.23 Y72.24 E87.8858
G1 X120.37 Y72.81 E87.9469
G1 X112.50 Y64.94 E88.4799
G1 X113.07 Y64.94 E88.5072
G1 X121.61 Y73.48 E89.0857
G1 X122.10 Y73.76 E89.1127
G1 X122.99 Y74.30 E89.1625
G1 X113.63 Y64.94 E89.7965
G1 X114.20 Y64.94 E89.8238
G1 X124.60 Y75.34 E90.5283
G1 X147.57 Y64.94 F4200
G1 X147.57 Y64.94
G1 X148.06 Y65.43 E90.5614 F600
G1 X148.06 Y65.99 E90.5883
G1 X147.01 Y64.94 E90.6594
G1 X146.44 Y64.94 E90.6867
G1 X148.06 Y66.56 E90.7964
G1 X148.06 Y67.12 E90.8232
G1 X145.88 Y64.94 E90.9709
G1 X145.31 Y64.94 E90.9982
G1 X148.06 Y67.69 E91.1844
G1 X148.06 Y68.25 E91.2113
G1 X144.75 Y64.94 E91.4355
G1 X144.18 Y64.94 E91.4628
G1 X148.06 Y68.82 E91.7256
G1 X148.06 Y69.38 E91.7524
G1 X143.61 Y64.94 E92.0534
G1 X143.05 Y64.94 E92.0803
G1 X148.06 Y69.95 E92.4196
G1 X148.06 Y70.52 E92.4469
G1 X142.48 Y64.94 E92.8249
G1 X141.92 Y64.94 E92.8517
G1 X148.06 Y71.08 E93.2676
G1 X148.06 Y71.65 E93.2949
G1 X141.35 Y64.94 E93.7494
G1 X140.79 Y64.94 E93.7762
G1 X148.06 Y72.21 E94.2686
G1 X148.06 Y72.78 E94.2959
G1 X140.22 Y64.94 E94.8269
G1 X139.65 Y64.94 E94.8542
G1 X148.06 Y73.34 E95.4235
G1 X148.06 Y73.91 E95.4508
G1 X139.09 Y64.94 E96.0584
G1 X138.52 Y64.94 E96.0857
G1 X148.06 Y74.48 E96.7319
G1 X148.06 Y75.04 E96.7587
G1 X137.96 Y64.94 E97.4428
G1 X137.39 Y64.94 E97.4701
G1 X148.06 Y75.61 E98.1928
G1 X148.06 Y76.17 E98.2196
G1 X136.83 Y64.94 E98.9802
G1 X136.26 Y64.94 E99.0075
G1 X148.06 Y76.74 E99.8068
G1 X148.06 Y77.30 E99.8336
G1 X135.69 Y64.94 E100.6711
G1 X135.13 Y64.94 E100.6980
G1 X148.06 Y77.87 E101.5737
G1 X148.06 Y78.44 E101.6010
G1 X134.56 Y64.94 E102.5154
G1 X134.00 Y64.94 E102.5423
G1 X148.06 Y79.00 E103.4946
G1 X148.06 Y79.57 E103.5219
G1 X133.43 Y64.94 E104.5128
G1 X132.87 Y64.94 E104.5396
G1 X148.06 Y80.13 E105.5685
G1 X148.06 Y80.70 E105.5958
G1 X132.30 Y64.94 E106.6633
G1 X131.73 Y64.94 E106.6906
G1 X148.06 Y81.26 E107.7963
G1 X148.06 Y81.83 E107.8236
G1 X131.17 Y64.94 E108.9676
G1 X130.60 Y64.94 E108.9949
G1 X148.06 Y82.40 E110.1776
G1 X148.06 Y82.96 E110.2044
G1 X130.04 Y64.94 E111.4249
G1 X129.47 Y64.94 E111.4522
G1 X148.06 Y83.53 E112.7114
G1 X148.06 Y84.09 E112.7382
G1 X128.91 Y64.94 E114.0353
G1 X128.34 Y64.94 E114.0626
G1 X148.06 Y84.66 E115.3983
G1 X148.06 Y85.22 E115.4251
G1 X127.77 Y64.94 E116.7991
G1 X127.21 Y64.94 E116.8259
G1 X148.06 Y85.79 E118.2381
G1 X148.06 Y86.36 E118.2654
G1 X126.64 Y64.94 E119.7163
G1 X126.08 Y64.94 E119.7431
G1 X148.06 Y86.92 E121.2319
G1 X148.06 Y87.49 E121.2592
G1 X125.51 Y64.94 E122.7866
G1 X124.95 Y64.94 E122.8134
G1 X148.06 Y88.05 E124.3787
G1 X148.06 Y88.62 E124.4060
G1 X124.38 Y64.94 E126.0099
G1 X123.82 Y64.94 E126.0367
G1 X148.06 Y89.18 E127.6786
G1 X148.06 Y89.75 E127.7059
G1 X123.25 Y64.94 E129.3863
G1 X122.68 Y64.94 E129.4136
G1 X148.06 Y90.32 E131.1327
G1 X148.06 Y90.88 E131.1595
G1 X122.12 Y64.94 E132.9165
G1 X121.55 Y64.94 E132.9438
G1 X148.06 Y91.45 E134.7394
G1 X148.06 Y92.01 E134.7663
G1 X120.99 Y64.94 E136.5998
G1 X120.42 Y64.94 E136.6271
G1 X148.06 Y92.58 E138.4992
G1 X148.06 Y93.14 E138.5261
G1 X119.86 Y64.94 E140.4361
G1 X119.29 Y64.94 E140.4634
G1 X148.06 Y93.71 E142.4121
G1 X148.06 Y94.28 E142.4394
G1 X118.72 Y64.94 E144.4267
G1 X118.16 Y64.94 E144.4535
G1 X148.06 Y94.84 E146.4788
G1 X148.06 Y95.41 E146.5060
G1 X117.59 Y64.94 E148.5699
G1 X117.03 Y64.94 E148.5967
G1 X148.06 Y95.97 E150.6985
G1 X148.06 Y96.54 E150.7258
G1 X116.46 Y64.94 E152.8661
G1 X115.90 Y64.94 E152.8930
G1 X148.06 Y97.10 E155.0713
G1 X148.06 Y97.67 E155.0986
G1 X115.33 Y64.94 E157.3155
G1 X114.76 Y64.94 E157.3428
G1 X126.67 Y76.84 E158.1491
G1 X127.71 Y77.67 E158.2129
G1 X129.00 Y78.78 E158.2944
G1 X130.26 Y79.95 E158.3767
G1 X131.46 Y81.18 E158.4590
G1 X132.62 Y82.45 E158.5414
G1 X133.71 Y83.75 E158.6227
G1 X134.15 Y84.32 E158.6571
G1 X148.06 Y98.23 E159.5993
G1 X148.06 Y98.80 E159.6266
G1 X135.68 Y86.42 E160.4651
G1 X135.74 Y86.50 E160.4699
G1 X136.71 Y88.02 E160.5563
G1 X148.06 Y99.37 E161.3251
G1 X148.06 Y99.93 E161.3519
G1 X137.53 Y89.41 E162.0648
G1 X138.19 Y90.63 E162.1312
G1 X148.06 Y100.50 E162.7997
G1 X148.06 Y101.06 E162.8266
G1 X138.75 Y91.76 E163.4568
G1 X139.10 Y92.46 E163.4943
G1 X139.25 Y92.82 E163.5130
G1 X148.06 Y101.63 E164.1097
G1 X148.06 Y102.19 E164.1366
G1 X139.69 Y93.82 E164.7035
G1 X140.06 Y94.76 E164.7519
G1 X148.06 Y102.76 E165.2937
G1 X148.06 Y103.33 E165.3210
G1 X140.42 Y95.68 E165.8388
G1 X140.71 Y96.54 E165.8823
G1 X148.06 Y103.89 E166.3802
G1 X148.06 Y104.46 E166.4075
G1 X140.99 Y97.39 E166.8863
G1 X141.23 Y98.20 E166.9268
G1 X148.06 Y105.02 E167.3891
G1 X148.06 Y105.59 E167.4164
G1 X141.47 Y98.99 E167.8631
G1 X141.66 Y99.75 E167.9006
G1 X148.06 Y106.15 E168.3341
G1 X148.06 Y106.72 E168.3614
G1 X141.85 Y100.51 E168.7820
G1 X142.00 Y101.23 E168.8172
G1 X148.06 Y107.29 E169.2277
G1 X148.06 Y107.85 E169.2545
G1 X142.15 Y101.94 E169.6548
G1 X142.28 Y102.64 E169.6889
G1 X148.06 Y108.42 E170.0804
G1 X148.06 Y108.98 E170.1073
G1 X142.39 Y103.32 E170.4910
G1 X142.50 Y103.99 E170.5235
G1 X148.06 Y109.55 E170.9001
G1 X148.06 Y110.11 E170.9269
G1 X142.58 Y104.64 E171.2977
G1 X142.66 Y105.29 E171.3291
G1 X148.06 Y110.68 E171.6945
G1 X148.06 Y111.25 E171.7218
G1 X142.73 Y105.92 E172.0828
G1 X142.79 Y106.54 E172.1127
G1 X148.06 Y111.81 E172.4696
G1 X148.06 Y112.38 E172.4969
G1 X142.84 Y107.16 E172.8505
G1 X142.87 Y107.75 E172.8788
G1 X148.06 Y112.94 E173.2303
G1 X148.06 Y113.51 E173.2576
G1 X142.90 Y108.35 E173.6071
G1 X142.92 Y108.94 E173.6354
G1 X148.06 Y114.07 E173.9832
G1 X148.06 Y114.64 E174.0105
G1 X142.93 Y109.51 E174.3580
G1 X142.93 Y110.07 E174.3848
G1 X148.06 Y115.21 E174.7326
G1 X148.06 Y115.77 E174.7594
G1 X142.93 Y110.64 E175.1069
G1 X142.91 Y111.19 E175.1333
G1 X148.06 Y116.34 E175.4821
G1 X148.06 Y116.90 E175.5089
G1 X142.89 Y111.74 E175.8588
G1 X142.87 Y112.28 E175.8846
G1 X148.06 Y117.47 E176.2362
G1 X148.06 Y118.03 E176.2630
G1 X142.84 Y112.81 E176.6166
G1 X142.79 Y113.34 E176.6421
G1 X148.06 Y118.60 E176.9987
G1 X148.06 Y119.17 E177.0260
G1 X142.75 Y113.86 E177.3856
G1 X142.70 Y114.37 E177.4102
G1 X148.06 Y119.73 E177.7732
G1 X148.06 Y120.30 E177.8005
G1 X142.64 Y114.88 E178.1676
G1 X142.58 Y115.39 E178.1922
G1 X148.06 Y120.86 E178.5631
G1 X148.06 Y121.43 E178.5904
G1 X142.52 Y115.89 E178.9656
G1 X142.44 Y116.38 E178.9894
G1 X148.06 Y121.99 E179.3697
G1 X148.06 Y122.56 E179.3970
G1 X142.36 Y116.86 E179.7831
