;generated by ffslicer 1.30.3 09/11/23 18:20:08
;right_extruder_material: PLA
;layer_height: 0.2
;perimeter_shells: 2
;top_solid_layers: 4
;bottom_solid_layers: 3
;fill_density: 15%
;fill_pattern: hexagon
;base_print_speed: 50
;travel_speed: 80
;right_extruder_temperature: 200
;left_extruder_temperature: 0
;platform_temperature: 60
;right_extruder_temperature_raft0: 0
;left_extruder_temperature_raft0: 0
;right_extruder_temperature_reset: 
;left_extruder_temperature_reset: 
;start gcode
M140 S60 T0
M104 S200 T0
M104 S0 T1
G90
G28
G1 Z50.000 F420
G161 X Y F3300
M190 S60 T0
M109 S200 T0
M109 S0 T1
G92 E.0000
;layer_count: 277
M108 T0
G1 X162.00 Y157.00 F4800
;preExtrude:0.20
;preExtruder0
M106 S255
G1 Z.200 F420
G1 X162.00 Y157.00 F4800
G1 X56.00 Y157.00 E13.5382 F1200
G1 X56.00 Y63.00 E25.5438
;raft
;layer:0.30
;shell
G1 E20.5438 F2700
G1 Z.300 F420
G1 X64.60 Y71.60 F4200
G1 E25.5438 F2700
G1 X64.60 Y71.60 F4200
G1 X155.40 Y71.60 E29.8926 F600
G1 X155.40 Y148.40 E33.5709
G1 X151.60 Y148.40 E33.7529
G1 X151.60 Y116.99 E35.2573
G1 X151.56 Y115.17 E35.3445
G1 X151.45 Y113.48 E35.4256
G1 X151.27 Y111.80 E35.5065
G1 X151.02 Y110.11 E35.5883
G1 X150.71 Y108.45 E35.6692
G1 X150.33 Y106.79 E35.7508
G1 X149.88 Y105.16 E35.8318
G1 X149.36 Y103.54 E35.9133
G1 X148.78 Y101.94 E35.9948
G1 X148.13 Y100.38 E36.0757
G1 X147.42 Y98.84 E36.1569
G1 X146.65 Y97.32 E36.2385
G1 X145.82 Y95.85 E36.3194
G1 X144.92 Y94.40 E36.4011
G1 X143.97 Y93.00 E36.4822
G1 X142.97 Y91.63 E36.5634
G1 X141.90 Y90.31 E36.6448
G1 X140.79 Y89.03 E36.7259
G1 X139.62 Y87.80 E36.8072
G1 X138.41 Y86.61 E36.8885
G1 X137.14 Y85.48 E36.9699
G1 X135.84 Y84.40 E37.0509
G1 X134.49 Y83.37 E37.1322
G1 X133.09 Y82.40 E37.2138
G1 X131.66 Y81.49 E37.2950
G1 X130.20 Y80.64 E37.3759
G1 X128.69 Y79.84 E37.4577
G1 X127.17 Y79.11 E37.5385
G1 X125.60 Y78.44 E37.6202
G1 X124.02 Y77.84 E37.7012
G1 X122.41 Y77.29 E37.7827
G1 X120.78 Y76.82 E37.8639
G1 X119.13 Y76.42 E37.9452
G1 X117.47 Y76.08 E38.0264
G1 X115.80 Y75.81 E38.1074
G1 X114.11 Y75.61 E38.1889
G1 X112.42 Y75.47 E38.2701
G1 X110.72 Y75.41 E38.3516
G1 X109.03 Y75.41 E38.4325
G1 X107.33 Y75.49 E38.5141
G1 X105.64 Y75.63 E38.5953
G1 X103.95 Y75.84 E38.6768
G1 X102.28 Y76.12 E38.7579
G1 X100.62 Y76.47 E38.8392
G1 X98.97 Y76.89 E38.9207
G1 X97.35 Y77.37 E39.0017
G1 X95.74 Y77.92 E39.0831
G1 X94.16 Y78.54 E39.1644
G1 X92.61 Y79.21 E39.2453
G1 X91.08 Y79.96 E39.3269
G1 X89.58 Y80.76 E39.4083
G1 X88.12 Y81.62 E39.4895
G1 X86.69 Y82.54 E39.5709
G1 X85.31 Y83.52 E39.6520
G1 X83.96 Y84.56 E39.7336
G1 X82.67 Y85.64 E39.8142
G1 X81.41 Y86.79 E39.8959
G1 X80.20 Y87.98 E39.9772
G1 X79.04 Y89.22 E40.0585
G1 X77.94 Y90.50 E40.1393
G1 X76.88 Y91.84 E40.2212
G1 X75.88 Y93.21 E40.3024
G1 X74.94 Y94.61 E40.3832
G1 X74.05 Y96.07 E40.4651
G1 X73.23 Y97.55 E40.5461
G1 X72.47 Y99.06 E40.6271
G1 X71.77 Y100.61 E40.7085
G1 X71.13 Y102.19 E40.7902
G1 X70.56 Y103.78 E40.8711
G1 X70.05 Y105.41 E40.9529
G1 X69.61 Y107.04 E41.0337
G1 X69.24 Y108.70 E41.1152
G1 X68.94 Y110.37 E41.1965
G1 X68.70 Y112.05 E41.2777
G1 X68.53 Y113.73 E41.3586
G1 X68.43 Y115.43 E41.4402
G1 X68.40 Y117.00 E41.5154
G1 X68.40 Y148.40 E43.0193
G1 X64.60 Y148.40 E43.2013
G1 X64.60 Y71.60 E46.8796
G1 X64.20 Y71.20 F4200
G1 X155.80 Y71.20 E51.2667 F600
G1 X155.80 Y148.80 E54.9833
G1 X151.20 Y148.80 E55.2037
G1 X151.20 Y117.00 E56.7267
G1 X151.16 Y115.19 E56.8134
G1 X151.05 Y113.52 E56.8936
G1 X150.87 Y111.85 E56.9740
G1 X150.63 Y110.18 E57.0548
G1 X150.32 Y108.53 E57.1352
G1 X149.94 Y106.89 E57.2159
G1 X149.49 Y105.27 E57.2964
G1 X148.98 Y103.67 E57.3768
G1 X148.41 Y102.09 E57.4573
G1 X147.77 Y100.54 E57.5376
G1 X147.06 Y99.01 E57.6184
G1 X146.30 Y97.51 E57.6989
G1 X145.47 Y96.05 E57.7793
G1 X144.59 Y94.62 E57.8598
G1 X143.65 Y93.23 E57.9401
G1 X142.65 Y91.88 E58.0206
G1 X141.60 Y90.57 E58.1010
G1 X140.49 Y89.30 E58.1818
G1 X139.34 Y88.08 E58.2621
G1 X138.13 Y86.91 E58.3427
G1 X136.88 Y85.78 E58.4234
G1 X135.59 Y84.71 E58.5037
G1 X134.25 Y83.69 E58.5843
G1 X132.87 Y82.73 E58.6649
G1 X131.45 Y81.83 E58.7454
G1 X130.00 Y80.98 E58.8259
G1 X128.52 Y80.20 E58.9060
G1 X127.00 Y79.47 E58.9868
G1 X125.45 Y78.81 E59.0674
G1 X123.88 Y78.21 E59.1479
G1 X122.29 Y77.68 E59.2282
G1 X120.68 Y77.21 E59.3085
G1 X119.05 Y76.81 E59.3889
G1 X117.40 Y76.47 E59.4696
G1 X115.74 Y76.20 E59.5502
G1 X114.07 Y76.00 E59.6307
G1 X112.39 Y75.87 E59.7114
G1 X110.71 Y75.81 E59.7919
G1 X109.03 Y75.81 E59.8724
G1 X107.35 Y75.89 E59.9530
G1 X105.68 Y76.03 E60.0332
G1 X104.01 Y76.24 E60.1138
G1 X102.36 Y76.52 E60.1940
G1 X100.71 Y76.86 E60.2747
G1 X99.08 Y77.28 E60.3553
G1 X97.47 Y77.75 E60.4356
G1 X95.88 Y78.30 E60.5162
G1 X94.31 Y78.91 E60.5969
G1 X92.77 Y79.58 E60.6773
G1 X91.26 Y80.31 E60.7576
G1 X89.78 Y81.11 E60.8382
G1 X88.33 Y81.96 E60.9187
G1 X86.92 Y82.87 E60.9991
G1 X85.55 Y83.84 E61.0795
G1 X84.22 Y84.87 E61.1601
G1 X82.93 Y85.95 E61.2406
G1 X81.68 Y87.08 E61.3213
G1 X80.49 Y88.26 E61.4016
G1 X79.34 Y89.48 E61.4819
G1 X78.24 Y90.76 E61.5627
G1 X77.20 Y92.08 E61.6432
G1 X76.21 Y93.44 E61.7238
G1 X75.27 Y94.83 E61.8042
G1 X74.40 Y96.27 E61.8847
G1 X73.58 Y97.74 E61.9654
G1 X72.83 Y99.24 E62.0457
G1 X72.13 Y100.77 E62.1263
G1 X71.50 Y102.33 E62.2068
G1 X70.94 Y103.91 E62.2871
G1 X70.44 Y105.51 E62.3674
G1 X70.00 Y107.14 E62.4483
G1 X69.63 Y108.78 E62.5288
G1 X69.33 Y110.43 E62.6091
G1 X69.10 Y112.09 E62.6894
G1 X68.93 Y113.77 E62.7703
G1 X68.83 Y115.44 E62.8504
G1 X68.80 Y117.00 E62.9251
G1 X68.80 Y148.80 E64.4482
G1 X64.20 Y148.80 E64.6685
G1 X64.20 Y71.20 E68.3851
;infill
G1 X64.94 Y148.05 F4200
G1 X64.94 Y148.05
G1 X65.51 Y148.06 E68.4124 F600
G1 X64.94 Y147.49 E68.4510
G1 X64.94 Y146.92 E68.4783
G1 X66.08 Y148.06 E68.5555
G1 X66.64 Y148.06 E68.5823
G1 X64.94 Y146.35 E68.6978
G1 X64.94 Y145.79 E68.7247
G1 X67.21 Y148.06 E68.8784
G1 X67.78 Y148.06 E68.9057
G1 X64.94 Y145.22 E69.0981
G1 X64.94 Y144.66 E69.1249
G1 X68.06 Y147.78 E69.3362
G1 X68.06 Y147.21 E69.3635
G1 X64.94 Y144.09 E69.5748
G1 X64.94 Y143.53 E69.6017
G1 X68.06 Y146.65 E69.8130
G1 X68.06 Y146.08 E69.8403
G1 X64.94 Y142.96 E70.0516
G1 X64.94 Y142.40 E70.0784
G1 X68.06 Y145.51 E70.2894
G1 X68.06 Y144.95 E70.3162
G1 X64.94 Y141.83 E70.5276
G1 X64.94 Y141.26 E70.5549
G1 X68.06 Y144.38 E70.7662
G1 X68.06 Y143.82 E70.7930
G1 X64.94 Y140.70 E71.0043
G1 X64.94 Y140.13 E71.0316
G1 X68.06 Y143.25 E71.2430
G1 X68.06 Y142.69 E71.2698
G1 X64.94 Y139.57 E71.4811
G1 X64.94 Y139.00 E71.5084
G1 X68.06 Y142.12 E71.7197
G1 X68.06 Y141.55 E71.7470
G1 X64.94 Y138.44 E71.9580
G1 X64.94 Y137.87 E71.9853
G1 X68.06 Y140.99 E72.1967
G1 X68.06 Y140.42 E72.2240
G1 X64.94 Y137.30 E72.4353
G1 X64.94 Y136.74 E72.4621
G1 X68.06 Y139.86 E72.6734
G1 X68.06 Y139.29 E72.7007
G1 X64.94 Y136.17 E72.9121
G1 X64.94 Y135.61 E72.9389
G1 X68.06 Y138.73 E73.1502
G1 X68.06 Y138.16 E73.1775
G1 X64.94 Y135.04 E73.3888
G1 X64.94 Y134.48 E73.4157
G1 X68.06 Y137.60 E73.6270
G1 X68.06 Y137.03 E73.6543
G1 X64.94 Y133.91 E73.8656
G1 X64.94 Y133.34 E73.8929
G1 X68.06 Y136.46 E74.1042
G1 X68.06 Y135.90 E74.1311
G1 X64.94 Y132.78 E74.3424
G1 X64.94 Y132.21 E74.3697
G1 X68.06 Y135.33 E74.5810
G1 X68.06 Y134.77 E74.6078
G1 X64.94 Y131.65 E74.8191
G1 X64.94 Y131.08 E74.8464
G1 X68.06 Y134.20 E75.0578
G1 X68.06 Y133.63 E75.0851
G1 X64.94 Y130.52 E75.2961
G1 X64.94 Y129.95 E75.3234
G1 X68.06 Y133.07 E75.5347
G1 X68.06 Y132.50 E75.5620
G1 X64.94 Y129.38 E75.7733
G1 X64.94 Y128.82 E75.8001
G1 X68.06 Y131.94 E76.0115
G1 X68.06 Y131.37 E76.0388
G1 X64.94 Y128.25 E76.2501
G1 X64.94 Y127.69 E76.2769
G1 X68.06 Y130.81 E76.4882
G1 X68.06 Y130.24 E76.5155
G1 X64.94 Y127.12 E76.7269
G1 X64.94 Y126.56 E76.7537
G1 X68.06 Y129.68 E76.9650
G1 X68.06 Y129.11 E76.9923
G1 X64.94 Y125.99 E77.2036
G1 X64.94 Y125.42 E77.2309
G1 X68.06 Y128.54 E77.4423
G1 X68.06 Y127.98 E77.4691
G1 X64.94 Y124.86 E77.6804
G1 X64.94 Y124.29 E77.7077
G1 X68.06 Y127.41 E77.9190
G1 X68.06 Y126.85 E77.9459
G1 X64.94 Y123.73 E78.1572
G1 X64.94 Y123.16 E78.1845
G1 X68.06 Y126.28 E78.3958
G1 X68.06 Y125.72 E78.4226
G1 X64.94 Y122.60 E78.6340
G1 X64.94 Y122.03 E78.6613
G1 X68.06 Y125.15 E78.8726
G1 X68.06 Y124.58 E78.8999
G1 X64.94 Y121.46 E79.1112
G1 X64.94 Y120.90 E79.1380
G1 X68.06 Y124.02 E79.3494
G1 X68.06 Y123.45 E79.3767
G1 X64.94 Y120.33 E79.5880
G1 X64.94 Y119.77 E79.6148
G1 X68.06 Y122.89 E79.8261
G1 X68.06 Y122.32 E79.8534
G1 X64.94 Y119.20 E80.0648
G1 X64.94 Y118.64 E80.0916
G1 X68.06 Y121.76 E80.3029
G1 X68.06 Y121.19 E80.3302
G1 X64.94 Y118.07 E80.5415
G1 X64.94 Y117.50 E80.5688
G1 X68.06 Y120.62 E80.7802
G1 X68.06 Y120.06 E80.8070
G1 X64.94 Y116.94 E81.0183
G1 X64.94 Y116.37 E81.0456
G1 X68.06 Y119.49 E81.2569
G1 X68.06 Y118.93 E81.2837
G1 X64.94 Y115.81 E81.4951
G1 X64.94 Y115.24 E81.5224
G1 X68.06 Y118.36 E81.7337
G1 X68.06 Y117.80 E81.7605
G1 X64.94 Y114.68 E81.9719
G1 X64.94 Y114.11 E81.9991
G1 X68.06 Y117.23 E82.2105
G1 X68.07 Y116.67 E82.2373
G1 X64.94 Y113.55 E82.4490
G1 X64.94 Y112.98 E82.4763
G1 X68.08 Y116.12 E82.6889
G1 X68.09 Y115.56 E82.7158
G1 X64.94 Y112.41 E82.9291
G1 X64.94 Y111.85 E82.9560
G1 X68.11 Y115.02 E83.1707
G1 X68.15 Y114.49 E83.1961
G1 X64.94 Y111.28 E83.4135
G1 X64.94 Y110.72 E83.4404
G1 X68.18 Y113.95 E83.6595
G1 X68.22 Y113.43 E83.6845
G1 X64.94 Y110.15 E83.9066
G1 X64.94 Y109.59 E83.9334
G1 X68.27 Y112.92 E84.1590
G1 X68.32 Y112.40 E84.1840
G1 X64.94 Y109.02 E84.4130
G1 X64.94 Y108.45 E84.4402
G1 X68.38 Y111.89 E84.6732
G1 X68.45 Y111.39 E84.6974
G1 X64.94 Y107.89 E84.9348
G1 X64.94 Y107.32 E84.9621
G1 X68.52 Y110.90 E85.2046
G1 X68.59 Y110.40 E85.2288
G1 X64.94 Y106.76 E85.4757
G1 X64.94 Y106.19 E85.5030
G1 X68.67 Y109.92 E85.7556
G1 X68.76 Y109.44 E85.7790
G1 X64.94 Y105.63 E86.0374
G1 X64.94 Y105.06 E86.0647
G1 X68.85 Y108.97 E86.3295
G1 X68.94 Y108.49 E86.3529
G1 X64.94 Y104.49 E86.6239
G1 X64.94 Y103.93 E86.6507
G1 X69.04 Y108.03 E86.9284
G1 X69.14 Y107.57 E86.9509
G1 X64.94 Y103.36 E87.2358
G1 X64.94 Y102.80 E87.2626
G1 X69.25 Y107.11 E87.5545
G1 X69.36 Y106.66 E87.5767
G1 X64.94 Y102.23 E87.8764
G1 X64.94 Y101.67 E87.9032
G1 X69.48 Y106.21 E88.2107
G1 X69.60 Y105.76 E88.2331
G1 X64.94 Y101.10 E88.5487
G1 X64.94 Y100.53 E88.5760
G1 X69.72 Y105.32 E88.9001
G1 X69.86 Y104.88 E88.9222
G1 X64.94 Y99.97 E89.2551
G1 X64.94 Y99.40 E89.2824
G1 X69.99 Y104.45 E89.6245
G1 X70.13 Y104.02 E89.6461
G1 X64.94 Y98.84 E89.9973
G1 X64.94 Y98.27 E90.0246
G1 X70.26 Y103.59 E90.3850
G1 X70.41 Y103.18 E90.4059
G1 X64.94 Y97.71 E90.7764
G1 X64.94 Y97.14 E90.8037
G1 X70.56 Y102.76 E91.1843
G1 X70.71 Y102.34 E91.2057
G1 X64.94 Y96.57 E91.5965
G1 X64.94 Y96.01 E91.6233
G1 X70.86 Y101.93 E92.0243
G1 X71.03 Y101.53 E92.0451
G1 X64.94 Y95.44 E92.4576
G1 X64.94 Y94.88 E92.4844
G1 X71.19 Y101.13 E92.9078
G1 X71.35 Y100.72 E92.9288
G1 X64.94 Y94.31 E93.3630
G1 X64.94 Y93.75 E93.3898
G1 X71.52 Y100.33 E93.8355
G1 X71.70 Y99.94 E93.8561
G1 X64.94 Y93.18 E94.3140
G1 X64.94 Y92.61 E94.3413
G1 X71.87 Y99.55 E94.8110
G1 X72.05 Y99.16 E94.8316
G1 X64.94 Y92.05 E95.3131
G1 X64.94 Y91.48 E95.3404
G1 X72.23 Y98.78 E95.8346
G1 X72.42 Y98.40 E95.8549
G1 X64.94 Y90.92 E96.3616
G1 X64.94 Y90.35 E96.3889
G1 X72.61 Y98.02 E96.9084
G1 X72.80 Y97.65 E96.9283
G1 X64.94 Y89.79 E97.4607
G1 X64.94 Y89.22 E97.4880
G1 X72.99 Y97.27 E98.0332
G1 X73.19 Y96.91 E98.0529
G1 X64.94 Y88.65 E98.6121
G1 X64.94 Y88.09 E98.6389
G1 X73.40 Y96.55 E99.2119
G1 X73.60 Y96.18 E99.2321
G1 X64.94 Y87.52 E99.8186
G1 X64.94 Y86.96 E99.8455
G1 X73.80 Y95.82 E100.4456
G1 X74.02 Y95.47 E100.4654
G1 X64.94 Y86.39 E101.0804
G1 X64.94 Y85.83 E101.1072
G1 X74.23 Y95.12 E101.7364
G1 X74.45 Y94.77 E101.7562
G1 X64.94 Y85.26 E102.4004
G1 X64.94 Y84.70 E102.4272
G1 X74.66 Y94.42 E103.0856
G1 X74.89 Y94.08 E103.1052
G1 X64.94 Y84.13 E103.7792
G1 X64.94 Y83.56 E103.8065
G1 X75.11 Y93.74 E104.4957
G1 X75.34 Y93.40 E104.5153
G1 X64.94 Y83.00 E105.2197
G1 X64.94 Y82.43 E105.2470
G1 X75.57 Y93.06 E105.9670
G1 X75.80 Y92.73 E105.9863
G1 X64.94 Y81.87 E106.7219
G1 X64.94 Y81.30 E106.7492
G1 X76.04 Y92.40 E107.5010
G1 X76.28 Y92.08 E107.5202
G1 X64.94 Y80.74 E108.2883
G1 X64.94 Y80.17 E108.3156
G1 X76.52 Y91.75 E109.0999
G1 X76.76 Y91.43 E109.1191
G1 X64.94 Y79.60 E109.9200
G1 X64.94 Y79.04 E109.9468
G1 X77.02 Y91.11 E110.7647
G1 X77.26 Y90.80 E110.7835
G1 X64.94 Y78.47 E111.6183
G1 X64.94 Y77.91 E111.6451
G1 X77.52 Y90.48 E112.4969
G1 X77.77 Y90.17 E112.5159
G1 X64.94 Y77.34 E113.3850
G1 X64.94 Y76.78 E113.4118
G1 X78.03 Y89.87 E114.2984
G1 X78.29 Y89.56 E114.3178
G1 X64.94 Y76.21 E115.2220
G1 X64.94 Y75.64 E115.2493
G1 X78.55 Y89.26 E116.1715
G1 X78.82 Y88.96 E116.1908
G1 X64.94 Y75.08 E117.1309
G1 X64.94 Y74.51 E117.1582
G1 X79.09 Y88.66 E118.1167
G1 X79.36 Y88.37 E118.1356
G1 X64.94 Y73.95 E119.1124
G1 X64.94 Y73.38 E119.1397
G1 X79.64 Y88.08 E120.1353
G1 X79.91 Y87.79 E120.1543
G1 X64.94 Y72.82 E121.1683
G1 X64.94 Y72.25 E121.1956
G1 X80.19 Y87.50 E122.2285
G1 X80.48 Y87.22 E122.2478
G1 X65.19 Y71.94 E123.2831
G1 X65.76 Y71.94 E123.3104
G1 X80.76 Y86.94 E124.3264
G1 X81.05 Y86.66 E124.3457
G1 X66.32 Y71.94 E125.3431
G1 X66.89 Y71.94 E125.3704
G1 X81.34 Y86.39 E126.3491
G1 X81.64 Y86.12 E126.3685
G1 X67.46 Y71.94 E127.3289
G1 X68.02 Y71.94 E127.3557
G1 X81.93 Y85.85 E128.2979
G1 X82.23 Y85.58 E128.3172
G1 X68.59 Y71.94 E129.2411
G1 X69.15 Y71.94 E129.2679
G1 X82.53 Y85.31 E130.1739
G1 X82.84 Y85.06 E130.1929
G1 X69.72 Y71.94 E131.0816
G1 X70.29 Y71.94 E131.1089
G1 X83.14 Y84.80 E131.9796
G1 X83.45 Y84.54 E131.9990
G1 X70.85 Y71.94 E132.8524
G1 X71.42 Y71.94 E132.8797
G1 X83.76 Y84.28 E133.7155
G1 X84.08 Y84.04 E133.7347
G1 X71.98 Y71.94 E134.5543
G1 X72.55 Y71.94 E134.5816
G1 X84.40 Y83.79 E135.3842
G1 X84.72 Y83.54 E135.4037
G1 X73.11 Y71.94 E136.1897
G1 X73.68 Y71.94 E136.2170
G1 X85.04 Y83.30 E136.9865
G1 X85.37 Y83.06 E137.0060
G1 X74.25 Y71.94 E137.7592
G1 X74.81 Y71.94 E137.7860
G1 X85.70 Y82.83 E138.5236
G1 X86.03 Y82.59 E138.5432
G1 X75.38 Y71.94 E139.2645
G1 X75.94 Y71.94 E139.2914
G1 X86.36 Y82.36 E139.9972
G1 X86.70 Y82.13 E140.0168
G1 X76.51 Y71.94 E140.7070
G1 X77.07 Y71.94 E140.7338
G1 X87.04 Y81.91 E141.4091
G1 X87.39 Y81.69 E141.4289
G1 X77.64 Y71.94 E142.0893
G1 X78.21 Y71.94 E142.1166
G1 X87.73 Y81.46 E142.7615
G1 X88.08 Y81.25 E142.7810
G1 X78.77 Y71.94 E143.4116
G1 X79.34 Y71.94 E143.4389
G1 X88.44 Y81.04 E144.0553
G1 X88.79 Y80.83 E144.0748
G1 X79.90 Y71.94 E144.6769
G1 X80.47 Y71.94 E144.7042
G1 X89.15 Y80.62 E145.2922
G1 X89.51 Y80.41 E145.3121
G1 X81.03 Y71.94 E145.8862
G1 X81.60 Y71.94 E145.9135
G1 X89.87 Y80.21 E146.4736
G1 X90.24 Y80.02 E146.4935
G1 X82.17 Y71.94 E147.0405
G1 X82.73 Y71.94 E147.0673
G1 X90.61 Y79.82 E147.6010
G1 X90.98 Y79.62 E147.6212
G1 X83.30 Y71.94 E148.1414
G1 X83.86 Y71.94 E148.1682
G1 X91.36 Y79.44 E148.6762
G1 X91.74 Y79.25 E148.6966
G1 X84.43 Y71.94 E149.1917
G1 X84.99 Y71.94 E149.2185
G1 X92.12 Y79.07 E149.7014
G1 X92.50 Y78.88 E149.7218
G1 X85.56 Y71.94 E150.1919
G1 X86.12 Y71.94 E150.2187
G1 X92.90 Y78.71 E150.6776
G1 X93.29 Y78.54 E150.6979
G1 X86.69 Y71.94 E151.1450
G1 X87.26 Y71.94 E151.1723
G1 X93.69 Y78.37 E151.6078
G1 X94.08 Y78.20 E151.6282
G1 X87.82 Y71.94 E152.0522
G1 X88.39 Y71.94 E152.0795
G1 X94.49 Y78.04 E152.4927
G1 X94.90 Y77.88 E152.5137
G1 X88.95 Y71.94 E152.9164
G1 X89.52 Y71.94 E152.9437
G1 X95.31 Y77.73 E153.3359
G1 X95.72 Y77.57 E153.3570
G1 X90.08 Y71.94 E153.7386
G1 X90.65 Y71.94 E153.7659
G1 X96.14 Y77.43 E154.1378
G1 X96.56 Y77.28 E154.1591
G1 X91.22 Y71.94 E154.5208
G1 X91.78 Y71.94 E154.5477
G1 X96.98 Y77.14 E154.8999
G1 X97.41 Y77.00 E154.9215
G1 X92.35 Y71.94 E155.2643
G1 X92.91 Y71.94 E155.2911
G1 X97.84 Y76.87 E155.6250
G1 X98.28 Y76.74 E155.6470
G1 X93.48 Y71.94 E155.9721
G1 X94.04 Y71.94 E155.9989
G1 X98.72 Y76.61 E156.3156
G1 X99.16 Y76.49 E156.3374
G1 X94.61 Y71.94 E156.6456
G1 X95.18 Y71.94 E156.6729
G1 X99.61 Y76.38 E156.9733
G1 X100.06 Y76.26 E156.9956
G1 X95.74 Y71.94 E157.2882
G1 X96.31 Y71.94 E157.3155
G1 X100.52 Y76.15 E157.6007
G1 X100.98 Y76.05 E157.6232
G1 X96.87 Y71.94 E157.9016
G1 X97.44 Y71.94 E157.9289
G1 X101.45 Y75.95 E158.2005
G1 X101.92 Y75.85 E158.2235
G1 X98.00 Y71.94 E158.4887
G1 X98.57 Y71.94 E158.5160
G1 X102.39 Y75.76 E158.7748
