;generated by ffslicer 1.30.3 09/11/23 18:38:44
;right_extruder_material: PLA
;layer_height: 0.2
;perimeter_shells: 2
;top_solid_layers: 4
;bottom_solid_layers: 3
;fill_density: 15%
;fill_pattern: hexagon
;base_print_speed: 50
;travel_speed: 80
;right_extruder_temperature: 200
;left_extruder_temperature: 0
;platform_temperature: 60
;right_extruder_temperature_raft0: 0
;left_extruder_temperature_raft0: 0
;right_extruder_temperature_reset: 
;left_extruder_temperature_reset: 
;start gcode
M140 S60 T0
M104 S200 T0
M104 S0 T1
G90
G28
G1 Z50.000 F420
G161 X Y F3300
M190 S60 T0
M109 S200 T0
M109 S0 T1
G92 E.0000
;layer_count: 47
M108 T0
G1 X144.12 Y106.34 F4800
;preExtrude:0.20
;preExtruder0
M106 S255
G1 Z.200 F420
G1 X144.12 Y106.34 F4800
G1 X144.12 Y152.70 E5.9210 F1200
G1 X75.88 Y152.70 E14.6366
G1 X75.88 Y67.30 E25.5438
;raft
;layer:0.30
;shell
G1 E20.5438 F2700
G1 Z.300 F420
G1 X84.48 Y75.90 F4200
G1 E25.5438 F2700
G1 X84.48 Y75.90 F4200
G1 X99.36 Y75.90 E26.2565 F600
G1 X99.36 Y144.10 E29.5229
G1 X84.48 Y144.10 E30.2355
G1 X84.48 Y75.90 E33.5020
G1 X84.08 Y75.50 F4200
G1 X99.76 Y75.50 E34.2529 F600
G1 X99.76 Y144.50 E37.5577
G1 X84.08 Y144.50 E38.3087
G1 X84.08 Y75.50 E41.6134
;infill
G1 X98.61 Y76.24 F4200
G1 X98.61 Y76.24
G1 X99.02 Y76.65 E41.6412 F600
G1 X99.02 Y77.22 E41.6685
G1 X98.04 Y76.24 E41.7348
G1 X97.47 Y76.24 E41.7621
G1 X99.02 Y77.79 E41.8671
G1 X99.02 Y78.36 E41.8944
G1 X96.90 Y76.24 E42.0380
G1 X96.33 Y76.24 E42.0653
G1 X99.02 Y78.93 E42.2475
G1 X99.02 Y79.50 E42.2748
G1 X95.76 Y76.24 E42.4956
G1 X95.19 Y76.24 E42.5229
G1 X99.02 Y80.06 E42.7820
G1 X99.02 Y80.63 E42.8093
G1 X94.63 Y76.24 E43.1067
G1 X94.06 Y76.24 E43.1340
G1 X99.02 Y81.20 E43.4699
G1 X99.02 Y81.77 E43.4972
G1 X93.49 Y76.24 E43.8718
G1 X92.92 Y76.24 E43.8991
G1 X99.02 Y82.34 E44.3123
G1 X99.02 Y82.91 E44.3396
G1 X92.35 Y76.24 E44.7913
G1 X91.78 Y76.24 E44.8186
G1 X99.02 Y83.48 E45.3090
G1 X99.02 Y84.04 E45.3358
G1 X91.22 Y76.24 E45.8642
G1 X90.65 Y76.24 E45.8915
G1 X99.02 Y84.61 E46.4584
G1 X99.02 Y85.18 E46.4857
G1 X90.08 Y76.24 E47.0912
G1 X89.51 Y76.24 E47.1185
G1 X99.02 Y85.75 E47.7627
G1 X99.02 Y86.32 E47.7900
G1 X88.94 Y76.24 E48.4727
G1 X88.37 Y76.24 E48.5000
G1 X99.02 Y86.89 E49.2214
G1 X99.02 Y87.45 E49.2482
G1 X87.80 Y76.24 E50.0078
G1 X87.24 Y76.24 E50.0347
G1 X99.02 Y88.02 E50.8326
G1 X99.02 Y88.59 E50.8599
G1 X86.67 Y76.24 E51.6964
G1 X86.10 Y76.24 E51.7237
G1 X99.02 Y89.16 E52.5988
G1 X99.02 Y89.73 E52.6261
G1 X85.53 Y76.24 E53.5398
G1 X84.96 Y76.24 E53.5671
G1 X99.02 Y90.30 E54.5194
G1 X99.02 Y90.87 E54.5467
G1 X84.82 Y76.67 E55.5085
G1 X84.82 Y77.23 E55.5354
G1 X99.02 Y91.43 E56.4972
G1 X99.02 Y92.00 E56.5245
G1 X84.82 Y77.80 E57.4863
G1 X84.82 Y78.37 E57.5136
G1 X99.02 Y92.57 E58.4754
G1 X99.02 Y93.14 E58.5027
G1 X84.82 Y78.94 E59.4645
G1 X84.82 Y79.51 E59.4918
G1 X99.02 Y93.71 E60.4536
G1 X99.02 Y94.28 E60.4809
G1 X84.82 Y80.08 E61.4427
G1 X84.82 Y80.64 E61.4696
G1 X99.02 Y94.85 E62.4317
G1 X99.02 Y95.41 E62.4585
G1 X84.82 Y81.21 E63.4203
G1 X84.82 Y81.78 E63.4476
G1 X99.02 Y95.98 E64.4094
G1 X99.02 Y96.55 E64.4367
G1 X84.82 Y82.35 E65.3986
G1 X84.82 Y82.92 E65.4259
G1 X99.02 Y97.12 E66.3877
G1 X99.02 Y97.69 E66.4150
G1 X84.82 Y83.49 E67.3768
G1 X84.82 Y84.06 E67.4041
G1 X99.02 Y98.26 E68.3659
G1 X99.02 Y98.83 E68.3932
G1 X84.82 Y84.63 E69.3550
G1 X84.82 Y85.19 E69.3818
G1 X99.02 Y99.39 E70.3436
G1 X99.02 Y99.96 E70.3709
G1 X84.82 Y85.76 E71.3327
G1 X84.82 Y86.33 E71.3600
G1 X99.02 Y100.53 E72.3219
G1 X99.02 Y101.10 E72.3492
G1 X84.82 Y86.90 E73.3110
G1 X84.82 Y87.47 E73.3383
G1 X99.02 Y101.67 E74.3001
G1 X99.02 Y102.24 E74.3274
G1 X84.82 Y88.04 E75.2892
G1 X84.82 Y88.60 E75.3160
G1 X99.02 Y102.80 E76.2778
G1 X99.02 Y103.37 E76.3051
G1 X84.82 Y89.17 E77.2669
G1 X84.82 Y89.74 E77.2942
G1 X99.02 Y103.94 E78.2560
G1 X99.02 Y104.51 E78.2833
G1 X84.82 Y90.31 E79.2451
G1 X84.82 Y90.88 E79.2724
G1 X99.02 Y105.08 E80.2343
G1 X99.02 Y105.65 E80.2615
G1 X84.82 Y91.45 E81.2234
G1 X84.82 Y92.02 E81.2507
G1 X99.02 Y106.22 E82.2125
G1 X99.02 Y106.78 E82.2393
G1 X84.82 Y92.58 E83.2011
G1 X84.82 Y93.15 E83.2284
G1 X99.02 Y107.35 E84.1902
G1 X99.02 Y107.92 E84.2175
G1 X84.82 Y93.72 E85.1793
G1 X84.82 Y94.29 E85.2066
G1 X99.02 Y108.49 E86.1684
G1 X99.02 Y109.06 E86.1957
G1 X84.82 Y94.86 E87.1575
G1 X84.82 Y95.43 E87.1848
G1 X99.02 Y109.63 E88.1467
G1 X99.02 Y110.20 E88.1739
G1 X84.82 Y96.00 E89.1358
G1 X84.82 Y96.56 E89.1626
G1 X99.02 Y110.76 E90.1244
G1 X99.02 Y111.33 E90.1517
G1 X84.82 Y97.13 E91.1135
G1 X84.82 Y97.70 E91.1408
G1 X99.02 Y111.90 E92.1026
G1 X99.02 Y112.47 E92.1299
G1 X84.82 Y98.27 E93.0917
G1 X84.82 Y98.84 E93.1190
G1 X99.02 Y113.04 E94.0808
G1 X99.02 Y113.61 E94.1081
G1 X84.82 Y99.41 E95.0699
G1 X84.82 Y99.97 E95.0968
G1 X99.02 Y114.18 E96.0589
G1 X99.02 Y114.74 E96.0857
G1 X84.82 Y100.54 E97.0475
G1 X84.82 Y101.11 E97.0748
G1 X99.02 Y115.31 E98.0367
G1 X99.02 Y115.88 E98.0639
G1 X84.82 Y101.68 E99.0258
G1 X84.82 Y102.25 E99.0531
G1 X99.02 Y116.45 E100.0149
G1 X99.02 Y117.02 E100.0422
G1 X84.82 Y102.82 E101.0040
G1 X84.82 Y103.39 E101.0313
G1 X99.02 Y117.59 E101.9931
G1 X99.02 Y118.16 E102.0204
G1 X84.82 Y103.95 E102.9825
G1 X84.82 Y104.52 E103.0098
G1 X99.02 Y118.72 E103.9716
G1 X99.02 Y119.29 E103.9989
G1 X84.82 Y105.09 E104.9608
G1 X84.82 Y105.66 E104.9881
G1 X99.02 Y119.86 E105.9499
G1 X99.02 Y120.43 E105.9772
G1 X84.82 Y106.23 E106.9390
G1 X84.82 Y106.80 E106.9663
G1 X99.02 Y121.00 E107.9281
G1 X99.02 Y121.57 E107.9554
G1 X84.82 Y107.37 E108.9172
G1 X84.82 Y107.93 E108.9440
G1 X99.02 Y122.14 E109.9062
G1 X99.02 Y122.70 E109.9330
G1 X84.82 Y108.50 E110.8948
G1 X84.82 Y109.07 E110.9221
G1 X99.02 Y123.27 E111.8839
G1 X99.02 Y123.84 E111.9112
G1 X84.82 Y109.64 E112.8730
G1 X84.82 Y110.21 E112.9003
G1 X99.02 Y124.41 E113.8621
G1 X99.02 Y124.98 E113.8894
G1 X84.82 Y110.78 E114.8512
G1 X84.82 Y111.35 E114.8785
G1 X99.02 Y125.55 E115.8403
G1 X99.02 Y126.11 E115.8672
G1 X84.82 Y111.91 E116.8290
G1 X84.82 Y112.48 E116.8563
G1 X99.02 Y126.68 E117.8181
G1 X99.02 Y127.25 E117.8454
G1 X84.82 Y113.05 E118.8072
G1 X84.82 Y113.62 E118.8345
G1 X99.02 Y127.82 E119.7963
G1 X99.02 Y128.39 E119.8236
G1 X84.82 Y114.19 E120.7854
G1 X84.82 Y114.76 E120.8127
G1 X99.02 Y128.96 E121.7745
G1 X99.02 Y129.52 E121.8013
G1 X84.82 Y115.33 E122.7628
G1 X84.82 Y115.89 E122.7896
G1 X99.02 Y130.09 E123.7514
G1 X99.02 Y130.66 E123.7787
G1 X84.82 Y116.46 E124.7406
G1 X84.82 Y117.03 E124.7679
G1 X99.02 Y131.23 E125.7297
G1 X99.02 Y131.80 E125.7570
G1 X84.82 Y117.60 E126.7188
G1 X84.82 Y118.17 E126.7461
G1 X99.02 Y132.37 E127.7079
G1 X99.02 Y132.94 E127.7352
G1 X84.82 Y118.74 E128.6970
G1 X84.82 Y119.31 E128.7243
G1 X99.02 Y133.51 E129.6861
G1 X99.02 Y134.07 E129.7129
G1 X84.82 Y119.87 E130.6747
G1 X84.82 Y120.44 E130.7020
G1 X99.02 Y134.64 E131.6639
G1 X99.02 Y135.21 E131.6912
G1 X84.82 Y121.01 E132.6530
G1 X84.82 Y121.58 E132.6803
G1 X99.02 Y135.78 E133.6421
G1 X99.02 Y136.35 E133.6694
G1 X84.82 Y122.15 E134.6312
G1 X84.82 Y122.72 E134.6585
G1 X99.02 Y136.92 E135.6203
G1 X99.02 Y137.48 E135.6471
G1 X84.82 Y123.28 E136.6089
G1 X84.82 Y123.85 E136.6362
G1 X99.02 Y138.05 E137.5980
G1 X99.02 Y138.62 E137.6253
G1 X84.82 Y124.42 E138.5871
G1 X84.82 Y124.99 E138.6144
G1 X99.02 Y139.19 E139.5763
G1 X99.02 Y139.76 E139.6036
G1 X84.82 Y125.56 E140.5654
G1 X84.82 Y126.13 E140.5927
G1 X99.02 Y140.33 E141.5545
G1 X99.02 Y140.90 E141.5818
G1 X84.82 Y126.70 E142.5436
G1 X84.82 Y127.26 E142.5704
G1 X99.02 Y141.46 E143.5322
G1 X99.02 Y142.03 E143.5595
G1 X84.82 Y127.83 E144.5213
G1 X84.82 Y128.40 E144.5486
G1 X99.02 Y142.60 E145.5104
G1 X99.02 Y143.17 E145.5377
G1 X84.82 Y128.97 E146.4995
G1 X84.82 Y129.54 E146.5268
G1 X99.02 Y143.74 E147.4887
G1 X99.02 Y143.76 E147.4896
G1 X98.47 Y143.76 E147.5160
G1 X84.82 Y130.11 E148.4405
G1 X84.82 Y130.68 E148.4678
G1 X97.90 Y143.76 E149.3538
G1 X97.33 Y143.76 E149.3811
G1 X84.82 Y131.24 E150.2288
G1 X84.82 Y131.81 E150.2560
G1 X96.77 Y143.76 E151.0655
G1 X96.20 Y143.76 E151.0927
G1 X84.82 Y132.38 E151.8635
G1 X84.82 Y132.95 E151.8908
G1 X95.63 Y143.76 E152.6231
G1 X95.06 Y143.76 E152.6504
G1 X84.82 Y133.52 E153.3439
G1 X84.82 Y134.09 E153.3712
G1 X94.49 Y143.76 E154.0262
G1 X93.92 Y143.76 E154.0535
G1 X84.82 Y134.66 E154.6699
G1 X84.82 Y135.22 E154.6967
G1 X93.36 Y143.76 E155.2752
G1 X92.79 Y143.76 E155.3025
G1 X84.82 Y135.79 E155.8423
G1 X84.82 Y136.36 E155.8696
G1 X92.22 Y143.76 E156.3708
G1 X91.65 Y143.76 E156.3981
G1 X84.82 Y136.93 E156.8607
G1 X84.82 Y137.50 E156.8880
G1 X91.08 Y143.76 E157.3120
G1 X90.51 Y143.76 E157.3393
G1 X84.82 Y138.07 E157.7247
G1 X84.82 Y138.63 E157.7516
G1 X89.94 Y143.76 E158.0987
G1 X89.38 Y143.76 E158.1255
G1 X84.82 Y139.20 E158.4344
G1 X84.82 Y139.77 E158.4617
G1 X88.81 Y143.76 E158.7319
G1 X88.24 Y143.76 E158.7592
G1 X84.82 Y140.34 E158.9909
G1 X84.82 Y140.91 E159.0182
G1 X87.67 Y143.76 E159.2112
G1 X87.10 Y143.76 E159.2385
G1 X84.82 Y141.48 E159.3930
G1 X84.82 Y142.05 E159.4202
G1 X86.53 Y143.76 E159.5361
G1 X85.96 Y143.76 E159.5634
G1 X84.82 Y142.61 E159.6409
G1 X84.82 Y143.18 E159.6682
G1 X85.40 Y143.76 E159.7075
G1 X84.82 Y143.75 E159.7353
;shell
G1 E154.7353 F2700
G1 X102.56 Y75.90 F4200
G1 E159.7353 F2700
G1 X102.56 Y75.90 F4200
G1 X117.44 Y75.90 E160.4480 F600
G1 X117.44 Y144.10 E163.7144
G1 X102.56 Y144.10 E164.4270
G1 X102.56 Y75.90 E167.6934
G1 X102.16 Y75.50 F4200
G1 X117.84 Y75.50 E168.4444 F600
G1 X117.84 Y144.50 E171.7492
G1 X102.16 Y144.50 E172.5001
G1 X102.16 Y75.50 E175.8049
;infill
G1 X116.69 Y76.24 F4200
G1 X116.69 Y76.24
G1 X117.10 Y76.65 E175.8326 F600
G1 X117.10 Y77.22 E175.8599
G1 X116.12 Y76.24 E175.9263
G1 X115.55 Y76.24 E175.9536
G1 X117.10 Y77.79 E176.0586
G1 X117.10 Y78.36 E176.0859
G1 X114.98 Y76.24 E176.2295
G1 X114.41 Y76.24 E176.2568
G1 X117.10 Y78.93 E176.4390
G1 X117.10 Y79.50 E176.4663
G1 X113.84 Y76.24 E176.6871
G1 X113.27 Y76.24 E176.7144
G1 X117.10 Y80.07 E176.9738
G1 X117.10 Y80.63 E177.0006
G1 X112.71 Y76.24 E177.2980
G1 X112.14 Y76.24 E177.3253
G1 X117.10 Y81.20 E177.6612
G1 X117.10 Y81.77 E177.6885
G1 X111.57 Y76.24 E178.0631
G1 X111.00 Y76.24 E178.0904
G1 X117.10 Y82.34 E178.5036
G1 X117.10 Y82.91 E178.5309
G1 X110.43 Y76.24 E178.9826
G1 X109.86 Y76.24 E179.0099
G1 X117.10 Y83.48 E179.5003
G1 X117.10 Y84.05 E179.5276
G1 X109.29 Y76.24 E180.0566
G1 X108.73 Y76.24 E180.0835
G1 X117.10 Y84.61 E180.6504
G1 X117.10 Y85.18 E180.6777
G1 X108.16 Y76.24 E181.2832
G1 X107.59 Y76.24 E181.3105
G1 X117.10 Y85.75 E181.9546
G1 X117.10 Y86.32 E181.9819
G1 X107.02 Y76.24 E182.6647
G1 X106.45 Y76.24 E182.6920
G1 X117.10 Y86.89 E183.4134
G1 X117.10 Y87.46 E183.4406
G1 X105.88 Y76.24 E184.2006
G1 X105.32 Y76.24 E184.2274
G1 X117.10 Y88.02 E185.0253
G1 X117.10 Y88.59 E185.0526
G1 X104.75 Y76.24 E185.8891
G1 X104.18 Y76.24 E185.9164
G1 X117.10 Y89.16 E186.7915
G1 X117.10 Y89.73 E186.8188
G1 X103.61 Y76.24 E187.7326
G1 X103.04 Y76.24 E187.7598
G1 X117.10 Y90.30 E188.7122
G1 X117.10 Y90.87 E188.7395
G1 X102.90 Y76.67 E189.7013
G1 X102.90 Y77.24 E189.7286
G1 X117.10 Y91.44 E190.6904
G1 X117.10 Y92.00 E190.7172
G1 X102.90 Y77.80 E191.6790
G1 X102.90 Y78.37 E191.7063
G1 X117.10 Y92.57 E192.6681
G1 X117.10 Y93.14 E192.6954
G1 X102.90 Y78.94 E193.6573
G1 X102.90 Y79.51 E193.6845
G1 X117.10 Y93.71 E194.6464
G1 X117.10 Y94.28 E194.6737
G1 X102.90 Y80.08 E195.6355
G1 X102.90 Y80.65 E195.6628
G1 X117.10 Y94.85 E196.6246
G1 X117.10 Y95.42 E196.6519
G1 X102.90 Y81.21 E197.6140
G1 X102.90 Y81.78 E197.6413
G1 X117.10 Y95.98 E198.6031
G1 X117.10 Y96.55 E198.6304
G1 X102.90 Y82.35 E199.5923
G1 X102.90 Y82.92 E199.6196
G1 X117.10 Y97.12 E200.5814
G1 X117.10 Y97.69 E200.6087
G1 X102.90 Y83.49 E201.5705
G1 X102.90 Y84.06 E201.5978
G1 X117.10 Y98.26 E202.5596
G1 X117.10 Y98.83 E202.5869
G1 X102.90 Y84.63 E203.5487
G1 X102.90 Y85.20 E203.5760
G1 X117.10 Y99.40 E204.5378
G1 X117.10 Y99.96 E204.5646
G1 X102.90 Y85.76 E205.5264
G1 X102.90 Y86.33 E205.5537
G1 X117.10 Y100.53 E206.5156
G1 X117.10 Y101.10 E206.5429
G1 X102.90 Y86.90 E207.5047
G1 X102.90 Y87.47 E207.5320
G1 X117.10 Y101.67 E208.4938
G1 X117.10 Y102.24 E208.5211
G1 X102.90 Y88.04 E209.4829
G1 X102.90 Y88.61 E209.5102
G1 X117.10 Y102.81 E210.4720
G1 X117.10 Y103.37 E210.4988
G1 X102.90 Y89.17 E211.4606
G1 X102.90 Y89.74 E211.4879
G1 X117.10 Y103.94 E212.4498
G1 X117.10 Y104.51 E212.4770
G1 X102.90 Y90.31 E213.4389
G1 X102.90 Y90.88 E213.4662
G1 X117.10 Y105.08 E214.4280
G1 X117.10 Y105.65 E214.4553
G1 X102.90 Y91.45 E215.4171
G1 X102.90 Y92.02 E215.4444
G1 X117.10 Y106.22 E216.4062
G1 X117.10 Y106.79 E216.4335
G1 X102.90 Y92.59 E217.3953
G1 X102.90 Y93.15 E217.4221
G1 X117.10 Y107.35 E218.3839
G1 X117.10 Y107.92 E218.4112
G1 X102.90 Y93.72 E219.3730
G1 X102.90 Y94.29 E219.4003
G1 X117.10 Y108.49 E220.3621
G1 X117.10 Y109.06 E220.3894
G1 X102.90 Y94.86 E221.3513
G1 X102.90 Y95.43 E221.3786
G1 X117.10 Y109.63 E222.3404
G1 X117.10 Y110.20 E222.3677
G1 X102.90 Y96.00 E223.3295
G1 X102.90 Y96.57 E223.3568
G1 X117.10 Y110.77 E224.3186
G1 X117.10 Y111.33 E224.3454
G1 X102.90 Y97.13 E225.3072
G1 X102.90 Y97.70 E225.3345
G1 X117.10 Y111.90 E226.2963
G1 X117.10 Y112.47 E226.3236
G1 X102.90 Y98.27 E227.2854
G1 X102.90 Y98.84 E227.3127
G1 X117.10 Y113.04 E228.2746
G1 X117.10 Y113.61 E228.3019
G1 X102.90 Y99.41 E229.2637
G1 X102.90 Y99.98 E229.2910
G1 X117.10 Y114.18 E230.2528
G1 X117.10 Y114.75 E230.2801
G1 X102.90 Y100.54 E231.2422
G1 X102.90 Y101.11 E231.2695
G1 X117.10 Y115.31 E232.2313
G1 X117.10 Y115.88 E232.2586
G1 X102.90 Y101.68 E233.2205
G1 X102.90 Y102.25 E233.2478
G1 X117.10 Y116.45 E234.2096
G1 X117.10 Y117.02 E234.2369
G1 X102.90 Y102.82 E235.1987
G1 X102.90 Y103.39 E235.2260
G1 X117.10 Y117.59 E236.1878
G1 X117.10 Y118.16 E236.2151
G1 X102.90 Y103.96 E237.1769
G1 X102.90 Y104.52 E237.2037
G1 X117.10 Y118.72 E238.1655
G1 X117.10 Y119.29 E238.1928
G1 X102.90 Y105.09 E239.1546
G1 X102.90 Y105.66 E239.1819
G1 X117.10 Y119.86 E240.1438
G1 X117.10 Y120.43 E240.1710
G1 X102.90 Y106.23 E241.1329
G1 X102.90 Y106.80 E241.1602
G1 X117.10 Y121.00 E242.1220
G1 X117.10 Y121.57 E242.1493
G1 X102.90 Y107.37 E243.1111
G1 X102.90 Y107.94 E243.1384
G1 X117.10 Y122.14 E244.1002
G1 X117.10 Y122.70 E244.1270
G1 X102.90 Y108.50 E245.0888
G1 X102.90 Y109.07 E245.1161
G1 X117.10 Y123.27 E246.0779
G1 X117.10 Y123.84 E246.1052
G1 X102.90 Y109.64 E247.0670
G1 X102.90 Y110.21 E247.0943
G1 X117.10 Y124.41 E248.0561
G1 X117.10 Y124.98 E248.0834
G1 X102.90 Y110.78 E249.0453
G1 X102.90 Y111.35 E249.0726
G1 X117.10 Y125.55 E250.0344
G1 X117.10 Y126.12 E250.0617
G1 X102.90 Y111.92 E251.0235
G1 X102.90 Y112.48 E251.0503
G1 X117.10 Y126.68 E252.0121
G1 X117.10 Y127.25 E252.0394
G1 X102.90 Y113.05 E253.0012
G1 X102.90 Y113.62 E253.0285
G1 X117.10 Y127.82 E253.9903
G1 X117.10 Y128.39 E254.0176
G1 X102.90 Y114.19 E254.9794
G1 X102.90 Y114.76 E255.0067
G1 X117.10 Y128.96 E255.9686
G1 X117.10 Y129.53 E255.9959
G1 X102.90 Y115.33 E256.9577
G1 X102.90 Y115.89 E256.9845
G1 X117.10 Y130.09 E257.9463
G1 X117.10 Y130.66 E257.9736
G1 X102.90 Y116.46 E258.9354
G1 X102.90 Y117.03 E258.9627
G1 X117.10 Y131.23 E259.9245
G1 X117.10 Y131.80 E259.9518
G1 X102.90 Y117.60 E260.9136
G1 X102.90 Y118.17 E260.9409
G1 X117.10 Y132.37 E261.9028
G1 X117.10 Y132.94 E261.9300
G1 X102.90 Y118.74 E262.8919
G1 X102.90 Y119.31 E262.9192
G1 X117.10 Y133.51 E263.8810
G1 X117.10 Y134.07 E263.9078
G1 X102.90 Y119.87 E264.8696
G1 X102.90 Y120.44 E264.8969
G1 X117.10 Y134.64 E265.8587
G1 X117.10 Y135.21 E265.8860
G1 X102.90 Y121.01 E266.8479
G1 X102.90 Y121.58 E266.8752
G1 X117.10 Y135.78 E267.8370
G1 X117.10 Y136.35 E267.8643
G1 X102.90 Y122.15 E268.8261
G1 X102.90 Y122.72 E268.8534
G1 X117.10 Y136.92 E269.8152
G1 X117.10 Y137.49 E269.8425
G1 X102.90 Y123.29 E270.8044
G1 X102.90 Y123.85 E270.8312
G1 X117.10 Y138.05 E271.7930
G1 X117.10 Y138.62 E271.8203
G1 X102.90 Y124.42 E272.7821
G1 X102.90 Y124.99 E272.8094
G1 X117.10 Y139.19 E273.7712
G1 X117.10 Y139.76 E273.7985
G1 X102.90 Y125.56 E274.7604
G1 X102.90 Y126.13 E274.7877
G1 X117.10 Y140.33 E275.7495
G1 X117.10 Y140.90 E275.7768
G1 X102.90 Y126.70 E276.7386
G1 X102.90 Y127.27 E276.7659
G1 X117.10 Y141.47 E277.7277
