;generated by ffslicer 1.30.3 09/11/23 20:41:37
;right_extruder_material: PLA
;layer_height: 0.2
;perimeter_shells: 2
;top_solid_layers: 4
;bottom_solid_layers: 3
;fill_density: 15%
;fill_pattern: hexagon
;base_print_speed: 50
;travel_speed: 80
;right_extruder_temperature: 200
;left_extruder_temperature: 0
;platform_temperature: 60
;right_extruder_temperature_raft0: 0
;left_extruder_temperature_raft0: 0
;right_extruder_temperature_reset: 
;left_extruder_temperature_reset: 
;start gcode
M140 S60 T0
M104 S200 T0
M104 S0 T1
G90
G28
G1 Z50.000 F420
G161 X Y F3300
M190 S60 T0
M109 S200 T0
M109 S0 T1
G92 E.0000
;layer_count: 276
M108 T0
G1 X154.50 Y137.75 F4800
;preExtrude:0.20
;preExtruder0
M106 S255
G1 Z.200 F420
G1 X154.50 Y137.75 F4800
G1 X154.50 Y156.25 E2.3628 F1200
G1 X65.50 Y156.25 E13.7298
G1 X65.50 Y63.75 E25.5438
;raft
;layer:0.30
;shell
G1 E20.5438 F2700
G1 Z.300 F420
G1 X74.10 Y72.35 F4200
G1 E25.5438 F2700
G1 X74.10 Y72.35 F4200
G1 X145.90 Y72.35 E28.9826 F600
G1 X145.90 Y147.65 E32.5891
G1 X74.10 Y147.65 E36.0279
G1 X74.10 Y72.35 E39.6344
G1 X73.70 Y71.95 F4200
G1 X146.30 Y71.95 E43.1115 F600
G1 X146.30 Y148.05 E46.7563
G1 X73.70 Y148.05 E50.2334
G1 X73.70 Y71.95 E53.8782
;infill
G1 X145.21 Y72.69 F4200
G1 X145.21 Y72.69
G1 X145.56 Y73.04 E53.9019 F600
G1 X145.56 Y73.61 E53.9292
G1 X144.64 Y72.69 E53.9916
G1 X144.08 Y72.69 E54.0184
G1 X145.56 Y74.17 E54.1186
G1 X145.56 Y74.74 E54.1459
G1 X143.51 Y72.69 E54.2848
G1 X142.95 Y72.69 E54.3116
G1 X145.56 Y75.30 E54.4884
G1 X145.56 Y75.87 E54.5157
G1 X142.38 Y72.69 E54.7311
G1 X141.82 Y72.69 E54.7579
G1 X145.56 Y76.43 E55.0112
G1 X145.56 Y77.00 E55.0385
G1 X141.25 Y72.69 E55.3304
G1 X140.68 Y72.69 E55.3577
G1 X145.56 Y77.57 E55.6883
G1 X145.56 Y78.13 E55.7151
G1 X140.12 Y72.69 E56.0836
G1 X139.55 Y72.69 E56.1109
G1 X145.56 Y78.70 E56.5179
G1 X145.56 Y79.26 E56.5448
G1 X138.99 Y72.69 E56.9898
G1 X138.42 Y72.69 E57.0171
G1 X145.56 Y79.83 E57.5007
G1 X145.56 Y80.39 E57.5275
G1 X137.86 Y72.69 E58.0491
G1 X137.29 Y72.69 E58.0764
G1 X145.56 Y80.96 E58.6365
G1 X145.56 Y81.53 E58.6638
G1 X136.72 Y72.69 E59.2626
G1 X136.16 Y72.69 E59.2894
G1 X145.56 Y82.09 E59.9261
G1 X145.56 Y82.66 E59.9534
G1 X135.59 Y72.69 E60.6287
G1 X135.03 Y72.69 E60.6555
G1 X145.56 Y83.22 E61.3687
G1 X145.56 Y83.79 E61.3960
G1 X134.46 Y72.69 E62.1479
G1 X133.90 Y72.69 E62.1747
G1 X145.56 Y84.35 E62.9645
G1 X145.56 Y84.92 E62.9918
G1 X133.33 Y72.69 E63.8201
G1 X132.76 Y72.69 E63.8474
G1 X145.56 Y85.48 E64.7141
G1 X145.56 Y86.05 E64.7414
G1 X132.20 Y72.69 E65.6463
G1 X131.63 Y72.69 E65.6736
G1 X145.56 Y86.62 E66.6171
G1 X145.56 Y87.18 E66.6439
G1 X131.07 Y72.69 E67.6254
G1 X130.50 Y72.69 E67.6527
G1 X145.56 Y87.75 E68.6728
G1 X145.56 Y88.31 E68.6996
G1 X129.94 Y72.69 E69.7576
G1 X129.37 Y72.69 E69.7849
G1 X145.56 Y88.88 E70.8815
G1 X145.56 Y89.44 E70.9083
G1 X128.80 Y72.69 E72.0432
G1 X128.24 Y72.69 E72.0700
G1 X145.56 Y90.01 E73.2431
G1 X145.56 Y90.58 E73.2704
G1 X127.67 Y72.69 E74.4822
G1 X127.11 Y72.69 E74.5090
G1 X145.56 Y91.14 E75.7587
G1 X145.56 Y91.71 E75.7860
G1 X126.54 Y72.69 E77.0743
G1 X125.98 Y72.69 E77.1011
G1 X145.56 Y92.27 E78.4273
G1 X145.56 Y92.84 E78.4546
G1 X125.41 Y72.69 E79.8194
G1 X124.84 Y72.69 E79.8467
G1 X145.56 Y93.40 E81.2498
G1 X145.56 Y93.97 E81.2771
G1 X124.28 Y72.69 E82.7185
G1 X123.71 Y72.69 E82.7458
G1 X145.56 Y94.54 E84.2257
G1 X145.56 Y95.10 E84.2525
G1 X123.15 Y72.69 E85.7704
G1 X122.58 Y72.69 E85.7977
G1 X145.56 Y95.67 E87.3542
G1 X145.56 Y96.23 E87.3811
G1 X122.02 Y72.69 E88.9755
G1 X121.45 Y72.69 E89.0028
G1 X145.56 Y96.80 E90.6358
G1 X145.56 Y97.36 E90.6627
G1 X120.88 Y72.69 E92.3340
G1 X120.32 Y72.69 E92.3608
G1 X145.56 Y97.93 E94.0704
G1 X145.56 Y98.50 E94.0977
G1 X119.75 Y72.69 E95.8459
G1 X119.19 Y72.69 E95.8727
G1 X145.56 Y99.06 E97.6588
G1 X145.56 Y99.63 E97.6861
G1 X118.62 Y72.69 E99.5109
G1 X118.06 Y72.69 E99.5377
G1 X145.56 Y100.19 E101.4003
G1 X145.56 Y100.76 E101.4276
G1 X117.49 Y72.69 E103.3289
G1 X116.93 Y72.69 E103.3557
G1 X145.56 Y101.32 E105.2949
G1 X145.56 Y101.89 E105.3222
G1 X116.36 Y72.69 E107.3001
G1 X115.79 Y72.69 E107.3274
G1 X145.56 Y102.46 E109.3438
G1 X145.56 Y103.02 E109.3706
G1 X115.23 Y72.69 E111.4249
G1 X114.66 Y72.69 E111.4522
G1 X145.56 Y103.59 E113.5452
G1 X145.56 Y104.15 E113.5720
G1 X114.10 Y72.69 E115.7029
G1 X113.53 Y72.69 E115.7302
G1 X145.56 Y104.72 E117.8997
G1 X145.56 Y105.28 E117.9265
G1 X112.97 Y72.69 E120.1339
G1 X112.40 Y72.69 E120.1612
G1 X145.56 Y105.85 E122.4072
G1 X145.56 Y106.42 E122.4345
G1 X111.83 Y72.69 E124.7192
G1 X111.27 Y72.69 E124.7460
G1 X145.56 Y106.98 E127.0686
G1 X145.56 Y107.55 E127.0959
G1 X110.70 Y72.69 E129.4571
G1 X110.14 Y72.69 E129.4839
G1 X145.56 Y108.11 E131.8830
G1 X145.56 Y108.68 E131.9103
G1 X109.57 Y72.69 E134.3480
G1 X109.01 Y72.69 E134.3748
G1 X145.56 Y109.24 E136.8505
G1 X145.56 Y109.81 E136.8778
G1 X108.44 Y72.69 E139.3920
G1 X107.87 Y72.69 E139.4193
G1 X145.56 Y110.38 E141.9722
G1 X145.56 Y110.94 E141.9990
G1 X107.31 Y72.69 E144.5898
G1 X106.74 Y72.69 E144.6171
G1 X145.56 Y111.51 E147.2465
G1 X145.56 Y112.07 E147.2733
G1 X106.18 Y72.69 E149.9406
G1 X105.61 Y72.69 E149.9679
G1 X145.56 Y112.64 E152.6739
G1 X145.56 Y113.20 E152.7007
G1 X105.05 Y72.69 E155.4446
G1 X104.48 Y72.69 E155.4719
G1 X145.56 Y113.77 E158.2544
G1 X145.56 Y114.33 E158.2812
G1 X103.91 Y72.69 E161.1020
G1 X103.35 Y72.69 E161.1288
G1 X145.56 Y114.90 E163.9878
G1 X145.56 Y115.47 E164.0151
G1 X102.78 Y72.69 E166.9127
G1 X102.22 Y72.69 E166.9395
G1 X145.56 Y116.03 E169.8751
G1 X145.56 Y116.60 E169.9024
G1 X101.65 Y72.69 E172.8766
G1 X101.09 Y72.69 E172.9034
G1 X145.56 Y117.16 E175.9155
G1 X145.56 Y117.73 E175.9428
G1 X100.52 Y72.69 E178.9935
G1 X99.95 Y72.69 E179.0208
G1 X145.56 Y118.29 E182.1098
G1 X145.56 Y118.86 E182.1371
G1 X99.39 Y72.69 E185.2643
G1 X98.82 Y72.69 E185.2916
G1 X145.56 Y119.43 E188.4574
G1 X145.56 Y119.99 E188.4843
G1 X98.26 Y72.69 E191.6880
G1 X97.69 Y72.69 E191.7153
G1 X145.56 Y120.56 E194.9577
G1 X145.56 Y121.12 E194.9845
G1 X97.13 Y72.69 E198.2649
G1 X96.56 Y72.69 E198.2922
G1 X145.56 Y121.69 E201.6111
G1 X145.56 Y122.25 E201.6379
G1 X95.99 Y72.69 E204.9951
G1 X95.43 Y72.69 E205.0219
G1 X145.56 Y122.82 E208.4174
G1 X145.56 Y123.39 E208.4447
G1 X94.86 Y72.69 E211.8788
G1 X94.30 Y72.69 E211.9056
G1 X145.56 Y123.95 E215.3776
G1 X145.56 Y124.52 E215.4049
G1 X93.73 Y72.69 E218.9155
G1 X93.17 Y72.69 E218.9423
G1 X145.56 Y125.08 E222.4909
G1 X145.56 Y125.65 E222.5182
G1 X92.60 Y72.69 E226.1053
G1 X92.03 Y72.69 E226.1326
G1 X145.56 Y126.21 E229.7581
G1 X145.56 Y126.78 E229.7854
G1 X91.47 Y72.69 E233.4490
G1 X90.90 Y72.69 E233.4763
G1 X145.56 Y127.35 E237.1786
G1 X145.56 Y127.91 E237.2055
G1 X90.34 Y72.69 E240.9457
G1 X89.77 Y72.69 E240.9730
G1 X145.56 Y128.48 E244.7518
G1 X145.56 Y129.04 E244.7787
G1 X89.21 Y72.69 E248.5954
G1 X88.64 Y72.69 E248.6227
G1 X145.56 Y129.61 E252.4781
G1 X145.56 Y130.17 E252.5049
G1 X88.08 Y72.69 E256.3982
G1 X87.51 Y72.69 E256.4255
G1 X145.56 Y130.74 E260.3574
G1 X145.56 Y131.30 E260.3843
G1 X86.94 Y72.69 E264.3544
G1 X86.38 Y72.69 E264.3812
G1 X145.56 Y131.87 E268.3897
G1 X145.56 Y132.44 E268.4170
G1 X85.81 Y72.69 E272.4640
G1 X85.25 Y72.69 E272.4909
G1 X145.56 Y133.00 E276.5758
G1 X145.56 Y133.57 E276.6032
G1 X84.68 Y72.69 E280.7268
G1 X84.12 Y72.69 E280.7536
G1 X145.56 Y134.13 E284.9151
G1 X145.56 Y134.70 E284.9424
G1 X83.55 Y72.69 E289.1425
G1 X82.98 Y72.69 E289.1698
G1 X145.56 Y135.27 E293.4086
G1 X145.56 Y135.83 E293.4354
G1 X82.42 Y72.69 E297.7121
G1 X81.85 Y72.69 E297.7394
G1 X145.56 Y136.40 E302.0547
G1 X145.56 Y136.96 E302.0815
G1 X81.29 Y72.69 E306.4347
G1 X80.72 Y72.69 E306.4620
G1 X145.56 Y137.53 E310.8539
G1 X145.56 Y138.09 E310.8807
G1 X80.16 Y72.69 E315.3104
G1 X79.59 Y72.69 E315.3377
G1 X145.56 Y138.66 E319.8061
G1 X145.56 Y139.23 E319.8334
G1 X79.02 Y72.69 E324.3403
G1 X78.46 Y72.69 E324.3672
G1 X145.56 Y139.79 E328.9121
G1 X145.56 Y140.36 E328.9394
G1 X77.89 Y72.69 E333.5229
G1 X77.33 Y72.69 E333.5497
G1 X145.56 Y140.92 E338.1711
G1 X145.56 Y141.49 E338.1984
G1 X76.76 Y72.69 E342.8585
G1 X76.20 Y72.69 E342.8853
G1 X145.56 Y142.05 E347.5833
G1 X145.56 Y142.62 E347.6106
G1 X75.63 Y72.69 E352.3472
G1 X75.06 Y72.69 E352.3745
G1 X145.56 Y143.18 E357.1493
G1 X145.56 Y143.75 E357.1766
G1 X74.50 Y72.69 E361.9898
G1 X74.44 Y72.69 E361.9926
G1 X74.44 Y73.20 E362.0171
G1 X145.56 Y144.32 E366.8343
G1 X145.56 Y144.88 E366.8611
G1 X74.44 Y73.76 E371.6783
G1 X74.44 Y74.33 E371.7056
G1 X145.56 Y145.45 E376.5227
G1 X145.56 Y146.01 E376.5496
G1 X74.44 Y74.89 E381.3668
G1 X74.44 Y75.46 E381.3941
G1 X145.56 Y146.58 E386.2113
G1 X145.56 Y147.15 E386.2386
G1 X74.44 Y76.02 E391.0561
G1 X74.44 Y76.59 E391.0834
G1 X145.16 Y147.31 E395.8735
G1 X144.59 Y147.31 E395.9008
G1 X74.44 Y77.16 E400.6523
G1 X74.44 Y77.72 E400.6791
G1 X144.03 Y147.31 E405.3927
G1 X143.46 Y147.31 E405.4200
G1 X74.44 Y78.29 E410.0949
G1 X74.44 Y78.85 E410.1217
G1 X142.89 Y147.31 E414.7584
G1 X142.33 Y147.31 E414.7852
G1 X74.44 Y79.42 E419.3836
G1 X74.44 Y79.98 E419.4104
G1 X141.76 Y147.31 E423.9706
G1 X141.20 Y147.31 E423.9974
G1 X74.44 Y80.55 E428.5193
G1 X74.44 Y81.12 E428.5466
G1 X140.63 Y147.31 E433.0298
G1 X140.07 Y147.31 E433.0566
G1 X74.44 Y81.68 E437.5020
G1 X74.44 Y82.25 E437.5293
G1 X139.50 Y147.31 E441.9360
G1 X138.94 Y147.31 E441.9628
G1 X74.44 Y82.81 E446.3316
G1 X74.44 Y83.38 E446.3589
G1 X138.37 Y147.31 E450.6891
G1 X137.80 Y147.31 E450.7164
G1 X74.44 Y83.94 E455.0083
G1 X74.44 Y84.51 E455.0356
G1 X137.24 Y147.31 E459.2893
G1 X136.67 Y147.31 E459.3166
G1 X74.44 Y85.08 E463.5316
G1 X74.44 Y85.64 E463.5585
G1 X136.11 Y147.31 E467.7356
G1 X135.54 Y147.31 E467.7629
G1 X74.44 Y86.21 E471.9014
G1 X74.44 Y86.77 E471.9282
G1 X134.98 Y147.31 E476.0287
G1 X134.41 Y147.31 E476.0561
G1 X74.44 Y87.34 E480.1180
G1 X74.44 Y87.90 E480.1448
G1 X133.84 Y147.31 E484.1685
G1 X133.28 Y147.31 E484.1953
G1 X74.44 Y88.47 E488.1808
G1 X74.44 Y89.04 E488.2081
G1 X132.71 Y147.31 E492.1549
G1 X132.15 Y147.31 E492.1817
G1 X74.44 Y89.60 E496.0906
G1 X74.44 Y90.17 E496.1179
G1 X131.58 Y147.31 E499.9882
G1 X131.02 Y147.31 E500.0149
G1 X74.44 Y90.73 E503.8473
G1 X74.44 Y91.30 E503.8746
G1 X130.45 Y147.31 E507.6684
G1 X129.88 Y147.31 E507.6957
G1 X74.44 Y91.86 E511.4511
G1 X74.44 Y92.43 E511.4784
G1 X129.32 Y147.31 E515.1956
G1 X128.75 Y147.31 E515.2230
G1 X74.44 Y93.00 E518.9016
G1 X74.44 Y93.56 E518.9284
G1 X128.19 Y147.31 E522.5690
G1 X127.62 Y147.31 E522.5963
G1 X74.44 Y94.13 E526.1984
G1 X74.44 Y94.69 E526.2252
G1 X127.06 Y147.31 E529.7893
G1 X126.49 Y147.31 E529.8167
G1 X74.44 Y95.26 E533.3421
G1 X74.44 Y95.82 E533.3690
G1 X125.92 Y147.31 E536.8562
G1 X125.36 Y147.31 E536.8830
G1 X74.44 Y96.39 E540.3320
G1 X74.44 Y96.95 E540.3589
G1 X124.79 Y147.31 E543.7695
G1 X124.23 Y147.31 E543.7964
G1 X74.44 Y97.52 E547.1688
G1 X74.44 Y98.09 E547.1961
G1 X123.66 Y147.31 E550.5299
G1 X123.10 Y147.31 E550.5567
G1 X74.44 Y98.65 E553.8526
G1 X74.44 Y99.22 E553.8799
G1 X122.53 Y147.31 E557.1372
G1 X121.96 Y147.31 E557.1645
G1 X74.44 Y99.78 E560.3835
G1 X74.44 Y100.35 E560.4109
G1 X121.40 Y147.31 E563.5916
G1 X120.83 Y147.31 E563.6189
G1 X74.44 Y100.91 E566.7614
G1 X74.44 Y101.48 E566.7887
G1 X120.27 Y147.31 E569.8929
G1 X119.70 Y147.31 E569.9202
G1 X74.44 Y102.05 E572.9859
G1 X74.44 Y102.61 E573.0127
G1 X119.14 Y147.31 E576.0403
G1 X118.57 Y147.31 E576.0677
G1 X74.44 Y103.18 E579.0567
G1 X74.44 Y103.74 E579.0835
G1 X118.00 Y147.31 E582.0343
G1 X117.44 Y147.31 E582.0611
G1 X74.44 Y104.31 E584.9737
G1 X74.44 Y104.87 E585.0005
G1 X116.87 Y147.31 E587.8747
G1 X116.31 Y147.31 E587.9015
G1 X74.44 Y105.44 E590.7375
G1 X74.44 Y106.01 E590.7649
G1 X115.74 Y147.31 E593.5622
G1 X115.18 Y147.31 E593.5890
G1 X74.44 Y106.57 E596.3485
G1 X74.44 Y107.14 E596.3758
G1 X114.61 Y147.31 E599.0966
G1 X114.05 Y147.31 E599.1234
G1 X74.44 Y107.70 E601.8064
G1 X74.44 Y108.27 E601.8336
G1 X113.48 Y147.31 E604.4780
G1 X112.91 Y147.31 E604.5053
G1 X74.44 Y108.83 E607.1114
G1 X74.44 Y109.40 E607.1386
G1 X112.35 Y147.31 E609.7064
G1 X111.78 Y147.31 E609.7337
G1 X74.44 Y109.97 E612.2629
G1 X74.44 Y110.53 E612.2897
G1 X111.22 Y147.31 E614.7810
G1 X110.65 Y147.31 E614.8083
G1 X74.44 Y111.10 E617.2609
G1 X74.44 Y111.66 E617.2877
G1 X110.09 Y147.31 E619.7024
G1 X109.52 Y147.31 E619.7297
G1 X74.44 Y112.23 E622.1058
G1 X74.44 Y112.79 E622.1326
G1 X108.95 Y147.31 E624.4704
G1 X108.39 Y147.31 E624.4972
G1 X74.44 Y113.36 E626.7968
G1 X74.44 Y113.93 E626.8241
G1 X107.82 Y147.31 E629.0850
G1 X107.26 Y147.31 E629.1118
G1 X74.44 Y114.49 E631.3349
G1 X74.44 Y115.06 E631.3621
G1 X106.69 Y147.31 E633.5465
G1 X106.13 Y147.31 E633.5733
G1 X74.44 Y115.62 E635.7198
G1 X74.44 Y116.19 E635.7471
G1 X105.56 Y147.31 E637.8549
G1 X104.99 Y147.31 E637.8823
G1 X74.44 Y116.75 E639.9518
G1 X74.44 Y117.32 E639.9792
G1 X104.43 Y147.31 E642.0105
G1 X103.86 Y147.31 E642.0377
G1 X74.44 Y117.89 E644.0305
G1 X74.44 Y118.45 E644.0573
G1 X103.30 Y147.31 E646.0120
G1 X102.73 Y147.31 E646.0393
G1 X74.44 Y119.02 E647.9555
G1 X74.44 Y119.58 E647.9823
G1 X102.17 Y147.31 E649.8606
G1 X101.60 Y147.31 E649.8879
G1 X74.44 Y120.15 E651.7275
G1 X74.44 Y120.71 E651.7544
G1 X101.03 Y147.31 E653.5557
G1 X100.47 Y147.31 E653.5825
G1 X74.44 Y121.28 E655.3457
G1 X74.44 Y121.85 E655.3729
G1 X99.90 Y147.31 E657.0974
G1 X99.34 Y147.31 E657.1243
G1 X74.44 Y122.41 E658.8108
G1 X74.44 Y122.98 E658.8382
G1 X98.77 Y147.31 E660.4861
G1 X98.21 Y147.31 E660.5129
G1 X74.44 Y123.54 E662.1229
G1 X74.44 Y124.11 E662.1502
G1 X97.64 Y147.31 E663.7216
G1 X97.07 Y147.31 E663.7490
G1 X74.44 Y124.67 E665.2821
G1 X74.44 Y125.24 E665.3094
G1 X96.51 Y147.31 E666.8043
G1 X95.94 Y147.31 E666.8316
G1 X74.44 Y125.80 E668.2882
G1 X74.44 Y126.37 E668.3155
G1 X95.38 Y147.31 E669.7339
G1 X94.81 Y147.31 E669.7611
G1 X74.44 Y126.94 E671.1409
G1 X74.44 Y127.50 E671.1677
G1 X94.25 Y147.31 E672.5095
G1 X93.68 Y147.31 E672.5368
G1 X74.44 Y128.07 E673.8401
G1 X74.44 Y128.63 E673.8668
G1 X93.11 Y147.31 E675.1318
G1 X92.55 Y147.31 E675.1586
G1 X74.44 Y129.20 E676.3852
G1 X74.44 Y129.76 E676.4120
G1 X91.98 Y147.31 E677.6004
G1 X91.42 Y147.31 E677.6272
G1 X74.44 Y130.33 E678.7773
G1 X74.44 Y130.90 E678.8047
G1 X90.85 Y147.31 E679.9162
G1 X90.29 Y147.31 E679.9430
G1 X74.44 Y131.46 E681.0165
G1 X74.44 Y132.03 E681.0438
G1 X89.72 Y147.31 E682.0788
G1 X89.15 Y147.31 E682.1061
G1 X74.44 Y132.59 E683.1027
G1 X74.44 Y133.16 E683.1301
G1 X88.59 Y147.31 E684.0885
G1 X88.02 Y147.31 E684.1158
G1 X74.44 Y133.72 E685.0360
G1 X74.44 Y134.29 E685.0633
G1 X87.46 Y147.31 E685.9452
G1 X86.89 Y147.31 E685.9724
G1 X74.44 Y134.86 E686.8157
G1 X74.44 Y135.42 E686.8426
G1 X86.33 Y147.31 E687.6479
G1 X85.76 Y147.31 E687.6752
G1 X74.44 Y135.99 E688.4420
G1 X74.44 Y136.55 E688.4688
G1 X85.20 Y147.31 E689.1976
G1 X84.63 Y147.31 E689.2249
G1 X74.44 Y137.12 E689.9151
G1 X74.44 Y137.68 E689.9419
G1 X84.06 Y147.31 E690.5938
G1 X83.50 Y147.31 E690.6206
G1 X74.44 Y138.25 E691.2343
G1 X74.44 Y138.82 E691.2616
G1 X82.93 Y147.31 E691.8367
G1 X82.37 Y147.31 E691.8636
G1 X74.44 Y139.38 E692.4007
G1 X74.44 Y139.95 E692.4279
G1 X81.80 Y147.31 E692.9265
G1 X81.24 Y147.31 E692.9533
G1 X74.44 Y140.51 E693.4138
G1 X74.44 Y141.08 E693.4411
G1 X80.67 Y147.31 E693.8631
G1 X80.10 Y147.31 E693.8905
G1 X74.44 Y141.64 E694.2741
G1 X74.44 Y142.21 E694.3015
G1 X79.54 Y147.31 E694.6469
G1 X78.97 Y147.31 E694.6742
G1 X74.44 Y142.77 E694.9814
G1 X74.44 Y143.34 E695.0087
G1 X78.41 Y147.31 E695.2776
G1 X77.84 Y147.31 E695.3049
G1 X74.44 Y143.91 E695.5352
G1 X74.44 Y144.47 E695.5620
G1 X77.28 Y147.31 E695.7544
G1 X76.71 Y147.31 E695.7817
G1 X74.44 Y145.04 E695.9354
G1 X74.44 Y145.60 E695.9623
G1 X76.14 Y147.31 E696.0778
G1 X75.58 Y147.31 E696.1046
G1 X74.44 Y146.17 E696.1818
G1 X74.44 Y146.74 E696.2091
G1 X75.01 Y147.31 E696.2477
G1 X74.44 Y147.30 E696.2750
;layer:0.20
;shell
G1 Z.500 F420
G1 X74.10 Y72.35 F4800
G1 X74.10 Y72.35
G1 X145.90 Y72.35 E698.5676 F1500
G1 X145.90 Y147.65 E700.9719
G1 X74.10 Y147.65 E703.2645
G1 X74.10 Y72.35 E705.6688
G1 X73.70 Y71.95 F4800
G1 X146.30 Y71.95 E707.9869 F1500
G1 X146.30 Y148.05 E710.4168
G1 X73.70 Y148.05 E712.7349
G1 X73.70 Y71.95 E715.1648
;infill
