;generated by ffslicer 1.30.3 09/15/23 15:50:37
;right_extruder_material: ABS
;layer_height: 0.2
;perimeter_shells: 2
;top_solid_layers: 4
;bottom_solid_layers: 3
;fill_density: 15%
;fill_pattern: hexagon
;base_print_speed: 50
;travel_speed: 80
;right_extruder_temperature: 200
;left_extruder_temperature: 0
;platform_temperature: 60
;right_extruder_temperature_raft0: 0
;left_extruder_temperature_raft0: 0
;right_extruder_temperature_reset: 
;left_extruder_temperature_reset: 
;start gcode
M140 S60 T0
M104 S200 T0
M104 S0 T1
G90
G28
G1 Z50.000 F420
G161 X Y F3300
M190 S60 T0
M109 S200 T0
M109 S0 T1
G92 E.0000
;layer_count: 28
M108 T0
G1 X85.00 Y85.00 F4800
;preExtrude:0.20
;preExtruder0
G1 Z.200 F420
G1 X85.00 Y85.00 F4800
G1 X135.00 Y85.00 E6.3859 F1200
G1 X135.00 Y135.00 E12.7719
G1 X85.00 Y135.00 E19.1578
G1 X85.00 Y85.00 E25.5438
;raft
;layer:0.30
;shell
M106 S255
G1 E20.5438 F2700
G1 Z.300 F420
G1 X95.20 Y101.95 F4200
G1 E25.5438 F2700
G1 X95.20 Y101.95 F4200
G1 X95.25 Y101.48 E25.5664 F578
G1 X95.38 Y101.02 E25.5893
G1 X95.58 Y100.60 E25.6116
G1 X95.84 Y100.22 E25.6336
G1 X96.17 Y99.88 E25.6563
G1 X96.55 Y99.60 E25.6790
G1 X96.97 Y99.40 E25.7012
G1 X97.42 Y99.26 E25.7238
G1 X97.88 Y99.20 E25.7460
G1 X98.35 Y99.22 E25.7686
G1 X98.81 Y99.32 E25.7911
G1 X99.24 Y99.49 E25.8132
G1 X99.65 Y99.74 E25.8362
G1 X100.00 Y100.04 E25.8583
G1 X100.30 Y100.40 E25.8808
G1 X100.54 Y100.81 E25.9035
G1 X100.70 Y101.25 E25.9259
G1 X100.79 Y101.70 E25.9479
G1 X100.80 Y102.18 E25.9709
G1 X100.73 Y102.64 E25.9932
G1 X100.58 Y103.08 E26.0155
G1 X100.36 Y103.50 E26.0382
G1 X100.08 Y103.87 E26.0604
G1 X99.74 Y104.19 E26.0828
G1 X99.35 Y104.45 E26.1052
G1 X98.92 Y104.64 E26.1277
G1 X98.46 Y104.76 E26.1505
G1 X98.00 Y104.80 E26.1726
G1 X97.54 Y104.76 E26.1947
G1 X97.08 Y104.64 E26.2175
G1 X96.65 Y104.45 E26.2400
G1 X96.26 Y104.19 E26.2625
G1 X95.92 Y103.87 E26.2848
G1 X95.64 Y103.50 E26.3070
G1 X95.42 Y103.08 E26.3298
G1 X95.28 Y102.64 E26.3519
G1 X95.21 Y102.17 E26.3746
G1 X95.20 Y101.95 E26.3852
G1 X96.05 Y101.98 F4200
G1 X96.09 Y102.40 E26.4054 F578
G1 X96.22 Y102.80 E26.4255
G1 X96.44 Y103.17 E26.4461
G1 X96.81 Y103.55 E26.4715
G1 X97.27 Y103.81 E26.4968
G1 X97.79 Y103.94 E26.5225
G1 X98.22 Y103.94 E26.5431
G1 X98.63 Y103.85 E26.5632
G1 X99.11 Y103.61 E26.5889
G1 X99.50 Y103.25 E26.6143
G1 X99.74 Y102.89 E26.6351
G1 X99.91 Y102.40 E26.6599
G1 X99.95 Y101.97 E26.6806
G1 X99.90 Y101.55 E26.7008
G1 X99.76 Y101.15 E26.7211
G1 X99.53 Y100.79 E26.7416
G1 X99.23 Y100.48 E26.7623
G1 X98.78 Y100.21 E26.7874
G1 X98.27 Y100.07 E26.8127
G1 X97.84 Y100.05 E26.8333
G1 X97.42 Y100.14 E26.8539
G1 X96.94 Y100.36 E26.8792
G1 X96.54 Y100.71 E26.9047
G1 X96.24 Y101.15 E26.9302
G1 X96.08 Y101.65 E26.9553
G1 X96.05 Y101.98 E26.9712
;infill
G1 X95.63 Y101.95 F4200
G1 X95.69 Y102.52 E26.9986 F600
G1 X95.86 Y103.01 E27.0235
G1 X96.13 Y103.46 E27.0486
G1 X96.52 Y103.86 E27.0754
G1 X96.86 Y104.07 E27.0945
G1 X97.15 Y104.21 E27.1099
G1 X97.70 Y104.35 E27.1371
G1 X98.23 Y104.36 E27.1625
G1 X98.74 Y104.25 E27.1875
G1 X99.14 Y104.07 E27.2085
G1 X99.38 Y103.93 E27.2218
G1 X99.79 Y103.56 E27.2483
G1 X100.10 Y103.09 E27.2752
G1 X100.31 Y102.55 E27.3030
G1 X100.37 Y102.00 E27.3295
G1 X100.31 Y101.48 E27.3545
G1 X100.15 Y100.99 E27.3792
G1 X99.95 Y100.65 E27.3981
G1 X99.69 Y100.34 E27.4175
G1 X99.40 Y100.08 E27.4362
G1 X98.91 Y99.81 E27.4629
G1 X98.37 Y99.66 E27.4898
G1 X97.89 Y99.63 E27.5128
G1 X97.51 Y99.68 E27.5312
G1 X97.13 Y99.80 E27.5503
G1 X96.68 Y100.03 E27.5745
G1 X96.25 Y100.40 E27.6016
G1 X95.95 Y100.81 E27.6260
G1 X95.85 Y101.00 E27.6363
G1 X95.67 Y101.54 E27.6635
G1 X95.63 Y101.95 E27.6833
;shell
G1 E22.6833 F2700
G1 X103.20 Y101.95 F4200
G1 E27.6833 F2700
G1 X103.20 Y101.95 F4200
G1 X103.25 Y101.48 E27.7059 F578
G1 X103.38 Y101.02 E27.7288
G1 X103.58 Y100.60 E27.7511
G1 X103.84 Y100.22 E27.7731
G1 X104.17 Y99.88 E27.7958
G1 X104.55 Y99.60 E27.8184
G1 X104.97 Y99.40 E27.8407
G1 X105.42 Y99.26 E27.8633
G1 X105.88 Y99.20 E27.8855
G1 X106.35 Y99.22 E27.9080
G1 X106.81 Y99.32 E27.9306
G1 X107.24 Y99.49 E27.9527
G1 X107.65 Y99.74 E27.9757
G1 X108.00 Y100.04 E27.9978
G1 X108.30 Y100.40 E28.0202
G1 X108.53 Y100.81 E28.0427
G1 X108.70 Y101.25 E28.0653
G1 X108.78 Y101.70 E28.0872
G1 X108.79 Y102.18 E28.1102
G1 X108.72 Y102.64 E28.1325
G1 X108.58 Y103.09 E28.1551
G1 X108.37 Y103.50 E28.1771
G1 X108.08 Y103.87 E28.1997
G1 X107.74 Y104.19 E28.2220
G1 X107.35 Y104.45 E28.2445
G1 X106.92 Y104.64 E28.2670
G1 X106.46 Y104.76 E28.2898
G1 X106.00 Y104.80 E28.3119
G1 X105.54 Y104.76 E28.3340
G1 X105.08 Y104.64 E28.3568
G1 X104.65 Y104.45 E28.3793
G1 X104.26 Y104.19 E28.4017
G1 X103.92 Y103.87 E28.4241
G1 X103.64 Y103.50 E28.4463
G1 X103.42 Y103.08 E28.4690
G1 X103.28 Y102.64 E28.4911
G1 X103.21 Y102.17 E28.5139
G1 X103.20 Y101.95 E28.5244
G1 X104.05 Y101.97 F4200
G1 X104.09 Y102.40 E28.5451 F578
G1 X104.22 Y102.81 E28.5657
G1 X104.50 Y103.25 E28.5907
G1 X104.90 Y103.61 E28.6165
G1 X105.37 Y103.85 E28.6417
G1 X105.89 Y103.95 E28.6671
G1 X106.32 Y103.92 E28.6877
G1 X106.73 Y103.81 E28.7081
G1 X107.19 Y103.55 E28.7334
G1 X107.56 Y103.17 E28.7588
G1 X107.78 Y102.80 E28.7794
G1 X107.93 Y102.29 E28.8049
G1 X107.94 Y101.76 E28.8303
G1 X107.84 Y101.34 E28.8509
G1 X107.59 Y100.87 E28.8764
G1 X107.23 Y100.49 E28.9015
G1 X106.78 Y100.21 E28.9269
G1 X106.27 Y100.07 E28.9522
G1 X105.84 Y100.05 E28.9728
G1 X105.42 Y100.14 E28.9934
G1 X104.94 Y100.36 E29.0187
G1 X104.54 Y100.71 E29.0442
G1 X104.29 Y101.06 E29.0648
G1 X104.10 Y101.55 E29.0899
G1 X104.05 Y101.97 E29.1102
;infill
G1 X103.63 Y101.93 F4200
G1 X103.69 Y102.52 E29.1386 F600
G1 X103.86 Y103.00 E29.1630
G1 X104.16 Y103.49 E29.1905
G1 X104.53 Y103.86 E29.2156
G1 X104.86 Y104.07 E29.2343
G1 X105.28 Y104.25 E29.2562
G1 X105.82 Y104.36 E29.2826
G1 X106.36 Y104.35 E29.3084
G1 X106.77 Y104.24 E29.3288
G1 X107.14 Y104.07 E29.3483
G1 X107.48 Y103.86 E29.3674
G1 X107.87 Y103.45 E29.3945
G1 X108.15 Y103.00 E29.4199
G1 X108.30 Y102.55 E29.4426
G1 X108.36 Y102.15 E29.4620
G1 X108.35 Y101.68 E29.4845
G1 X108.22 Y101.17 E29.5097
G1 X107.96 Y100.66 E29.5371
G1 X107.69 Y100.34 E29.5572
G1 X107.40 Y100.08 E29.5758
G1 X106.91 Y99.81 E29.6026
G1 X106.37 Y99.66 E29.6295
G1 X105.89 Y99.63 E29.6525
G1 X105.33 Y99.73 E29.6798
G1 X104.77 Y99.97 E29.7089
G1 X104.45 Y100.22 E29.7284
G1 X104.20 Y100.45 E29.7446
G1 X103.91 Y100.89 E29.7699
G1 X103.70 Y101.42 E29.7972
G1 X103.63 Y101.93 E29.8218
;shell
G1 E24.8218 F2700
G1 X111.20 Y101.95 F4200
G1 E29.8218 F2700
G1 X111.20 Y101.95 F4200
G1 X111.25 Y101.48 E29.8445 F578
G1 X111.38 Y101.02 E29.8674
G1 X111.57 Y100.60 E29.8895
G1 X111.84 Y100.22 E29.9118
G1 X112.17 Y99.88 E29.9345
G1 X112.55 Y99.60 E29.9571
G1 X112.97 Y99.40 E29.9794
G1 X113.42 Y99.26 E30.0019
G1 X113.88 Y99.20 E30.0242
G1 X114.35 Y99.22 E30.0467
G1 X114.81 Y99.32 E30.0692
G1 X115.24 Y99.49 E30.0914
G1 X115.65 Y99.74 E30.1144
G1 X116.00 Y100.04 E30.1365
G1 X116.30 Y100.40 E30.1589
G1 X116.53 Y100.81 E30.1814
G1 X116.70 Y101.25 E30.2040
G1 X116.78 Y101.70 E30.2259
G1 X116.79 Y102.18 E30.2489
G1 X116.72 Y102.64 E30.2712
G1 X116.58 Y103.08 E30.2933
G1 X116.36 Y103.50 E30.3160
G1 X116.08 Y103.87 E30.3382
G1 X115.74 Y104.19 E30.3606
G1 X115.35 Y104.45 E30.3830
G1 X114.92 Y104.64 E30.4055
G1 X114.46 Y104.76 E30.4283
G1 X114.00 Y104.80 E30.4504
G1 X113.54 Y104.76 E30.4725
G1 X113.08 Y104.64 E30.4953
G1 X112.65 Y104.45 E30.5178
G1 X112.26 Y104.19 E30.5403
G1 X111.92 Y103.87 E30.5626
G1 X111.63 Y103.50 E30.5852
G1 X111.42 Y103.09 E30.6072
G1 X111.27 Y102.64 E30.6299
G1 X111.20 Y102.17 E30.6527
G1 X111.20 Y101.95 E30.6632
G1 X112.05 Y101.98 F4200
G1 X112.09 Y102.40 E30.6834 F578
G1 X112.22 Y102.81 E30.7040
G1 X112.50 Y103.25 E30.7290
G1 X112.81 Y103.55 E30.7497
G1 X113.27 Y103.81 E30.7750
G1 X113.78 Y103.94 E30.8002
G1 X114.21 Y103.94 E30.8208
G1 X114.63 Y103.85 E30.8414
G1 X115.11 Y103.61 E30.8671
G1 X115.50 Y103.25 E30.8925
G1 X115.78 Y102.80 E30.9179
G1 X115.93 Y102.29 E30.9433
G1 X115.94 Y101.76 E30.9687
G1 X115.84 Y101.34 E30.9894
G1 X115.59 Y100.87 E31.0149
G1 X115.23 Y100.49 E31.0400
G1 X114.77 Y100.21 E31.0658
G1 X114.27 Y100.07 E31.0906
G1 X113.84 Y100.05 E31.1112
G1 X113.42 Y100.14 E31.1318
G1 X112.94 Y100.36 E31.1571
G1 X112.54 Y100.71 E31.1826
G1 X112.24 Y101.15 E31.2081
G1 X112.08 Y101.65 E31.2332
G1 X112.05 Y101.98 E31.2491
;infill
G1 X111.67 Y102.45 F4200
G1 X111.63 Y102.12 E31.2650 F600
G1 X111.66 Y101.60 E31.2900
G1 X111.78 Y101.17 E31.3113
G1 X111.88 Y100.93 E31.3238
G1 X112.17 Y100.49 E31.3490
G1 X112.45 Y100.21 E31.3680
G1 X112.74 Y99.99 E31.3854
G1 X113.25 Y99.75 E31.4124
G1 X113.79 Y99.64 E31.4388
G1 X114.30 Y99.65 E31.4632
G1 X114.69 Y99.74 E31.4824
G1 X115.05 Y99.88 E31.5009
G1 X115.53 Y100.19 E31.5283
G1 X115.95 Y100.65 E31.5581
G1 X116.22 Y101.17 E31.5862
G1 X116.35 Y101.68 E31.6114
G1 X116.36 Y102.14 E31.6334
G1 X116.34 Y102.39 E31.6454
G1 X116.19 Y102.91 E31.6714
G1 X116.00 Y103.26 E31.6904
G1 X115.76 Y103.59 E31.7100
G1 X115.31 Y103.97 E31.7382
G1 X114.78 Y104.24 E31.7667
G1 X114.23 Y104.36 E31.7936
G1 X113.70 Y104.35 E31.8190
G1 X113.10 Y104.19 E31.8488
G1 X112.60 Y103.90 E31.8764
G1 X112.20 Y103.54 E31.9022
G1 X112.00 Y103.26 E31.9187
G1 X111.83 Y102.96 E31.9352
G1 X111.67 Y102.45 E31.9608
;shell
G1 E26.9608 F2700
G1 X111.20 Y109.97 F4200
G1 E31.9608 F2700
G1 X111.20 Y109.97 F4200
G1 X111.24 Y109.51 E31.9829 F578
G1 X111.36 Y109.06 E32.0052
G1 X111.56 Y108.64 E32.0275
G1 X111.82 Y108.25 E32.0500
G1 X112.14 Y107.91 E32.0723
G1 X112.51 Y107.63 E32.0945
G1 X112.93 Y107.41 E32.1173
G1 X113.36 Y107.27 E32.1389
G1 X113.83 Y107.21 E32.1616
G1 X114.29 Y107.22 E32.1836
G1 X114.74 Y107.30 E32.2055
G1 X115.18 Y107.46 E32.2280
G1 X115.59 Y107.69 E32.2505
G1 X115.95 Y107.99 E32.2729
G1 X116.25 Y108.34 E32.2950
G1 X116.50 Y108.74 E32.3176
G1 X116.67 Y109.17 E32.3397
G1 X116.77 Y109.62 E32.3618
G1 X116.80 Y110.09 E32.3844
G1 X116.74 Y110.55 E32.4066
G1 X116.61 Y111.00 E32.4290
G1 X116.42 Y111.41 E32.4507
G1 X116.15 Y111.80 E32.4734
G1 X115.82 Y112.13 E32.4957
G1 X115.44 Y112.40 E32.5181
G1 X115.03 Y112.60 E32.5399
G1 X114.57 Y112.74 E32.5629
G1 X114.12 Y112.80 E32.5847
G1 X113.65 Y112.78 E32.6072
G1 X113.19 Y112.68 E32.6298
G1 X112.76 Y112.51 E32.6519
G1 X112.37 Y112.27 E32.6738
G1 X112.01 Y111.97 E32.6963
G1 X111.71 Y111.62 E32.7184
G1 X111.47 Y111.21 E32.7411
G1 X111.31 Y110.77 E32.7635
G1 X111.22 Y110.32 E32.7855
G1 X111.20 Y109.97 E32.8023
G1 X112.05 Y109.97 F4200
G1 X112.09 Y110.40 E32.8230 F578
G1 X112.27 Y110.90 E32.8484
G1 X112.51 Y111.26 E32.8692
G1 X112.90 Y111.61 E32.8943
G1 X113.37 Y111.85 E32.9195
G1 X113.89 Y111.95 E32.9449
G1 X114.32 Y111.92 E32.9655
G1 X114.73 Y111.81 E32.9859
G1 X115.19 Y111.55 E33.0112
G1 X115.56 Y111.17 E33.0366
G1 X115.78 Y110.80 E33.0572
G1 X115.93 Y110.29 E33.0827
G1 X115.94 Y109.76 E33.1081
G1 X115.84 Y109.34 E33.1287
G1 X115.59 Y108.87 E33.1542
G1 X115.23 Y108.49 E33.1793
G1 X114.78 Y108.21 E33.2047
G1 X114.27 Y108.07 E33.2300
G1 X113.84 Y108.05 E33.2506
G1 X113.42 Y108.14 E33.2712
G1 X112.94 Y108.36 E33.2965
G1 X112.54 Y108.71 E33.3219
G1 X112.29 Y109.06 E33.3425
G1 X112.10 Y109.55 E33.3677
G1 X112.05 Y109.97 E33.3880
;infill
G1 X111.63 Y109.94 F4200
G1 X111.62 Y109.97 E33.3895 F600
G1 X111.69 Y110.53 E33.4165
G1 X111.90 Y111.10 E33.4456
G1 X112.16 Y111.50 E33.4685
G1 X112.55 Y111.87 E33.4942
G1 X112.96 Y112.13 E33.5175
G1 X113.27 Y112.26 E33.5336
G1 X113.82 Y112.36 E33.5603
G1 X114.36 Y112.34 E33.5862
G1 X114.87 Y112.21 E33.6114
G1 X115.41 Y111.90 E33.6412
G1 X115.82 Y111.52 E33.6680
G1 X116.05 Y111.19 E33.6873
G1 X116.21 Y110.85 E33.7053
G1 X116.35 Y110.28 E33.7334
G1 X116.35 Y109.68 E33.7621
G1 X116.22 Y109.16 E33.7878
G1 X115.96 Y108.66 E33.8148
G1 X115.65 Y108.30 E33.8375
G1 X115.34 Y108.05 E33.8566
G1 X114.90 Y107.81 E33.8806
G1 X114.36 Y107.66 E33.9075
G1 X113.85 Y107.63 E33.9319
G1 X113.30 Y107.74 E33.9588
G1 X112.74 Y107.99 E33.9882
G1 X112.25 Y108.40 E34.0188
G1 X111.93 Y108.83 E34.0444
G1 X111.71 Y109.41 E34.0742
G1 X111.63 Y109.94 E34.0998
;shell
G1 E29.0998 F2700
G1 X119.20 Y109.97 F4200
G1 E34.0998 F2700
G1 X119.20 Y109.97 F4200
G1 X119.24 Y109.51 E34.1219 F578
G1 X119.36 Y109.06 E34.1442
G1 X119.55 Y108.64 E34.1663
G1 X119.82 Y108.25 E34.1890
G1 X120.14 Y107.91 E34.2114
G1 X120.51 Y107.63 E34.2336
G1 X120.92 Y107.42 E34.2557
G1 X121.36 Y107.27 E34.2780
G1 X121.82 Y107.21 E34.3002
G1 X122.29 Y107.22 E34.3227
G1 X122.74 Y107.30 E34.3446
G1 X123.18 Y107.46 E34.3670
G1 X123.59 Y107.69 E34.3895
G1 X123.95 Y107.99 E34.4120
G1 X124.25 Y108.34 E34.4340
G1 X124.50 Y108.74 E34.4566
G1 X124.67 Y109.17 E34.4788
G1 X124.77 Y109.62 E34.5009
G1 X124.80 Y110.09 E34.5234
G1 X124.74 Y110.55 E34.5456
G1 X124.61 Y111.00 E34.5681
G1 X124.41 Y111.42 E34.5903
G1 X124.15 Y111.79 E34.6120
G1 X123.82 Y112.13 E34.6347
G1 X123.44 Y112.40 E34.6570
G1 X123.02 Y112.60 E34.6793
G1 X122.57 Y112.74 E34.7019
G1 X122.12 Y112.80 E34.7236
G1 X121.65 Y112.78 E34.7462
G1 X121.19 Y112.68 E34.7687
G1 X120.76 Y112.51 E34.7908
G1 X120.36 Y112.27 E34.8132
G1 X120.01 Y111.97 E34.8353
G1 X119.71 Y111.62 E34.8573
G1 X119.47 Y111.21 E34.8801
G1 X119.31 Y110.77 E34.9025
G1 X119.22 Y110.32 E34.9245
G1 X119.20 Y109.97 E34.9413
G1 X120.05 Y109.97 F4200
G1 X120.09 Y110.40 E34.9620 F578
G1 X120.22 Y110.81 E34.9826
G1 X120.50 Y111.25 E35.0076
G1 X120.90 Y111.61 E35.0333
G1 X121.37 Y111.85 E35.0586
G1 X121.79 Y111.94 E35.0792
G1 X122.21 Y111.94 E35.0993
G1 X122.63 Y111.85 E35.1199
G1 X123.10 Y111.61 E35.1451
G1 X123.50 Y111.25 E35.1709
G1 X123.78 Y110.80 E35.1963
G1 X123.93 Y110.29 E35.2218
G1 X123.93 Y109.76 E35.2471
G1 X123.84 Y109.34 E35.2677
G1 X123.59 Y108.87 E35.2932
G1 X123.23 Y108.49 E35.3183
G1 X122.78 Y108.21 E35.3437
G1 X122.27 Y108.07 E35.3690
G1 X121.84 Y108.05 E35.3896
G1 X121.42 Y108.14 E35.4102
G1 X121.03 Y108.31 E35.4306
G1 X120.68 Y108.56 E35.4512
G1 X120.34 Y108.96 E35.4763
G1 X120.13 Y109.45 E35.5018
G1 X120.05 Y109.97 E35.5270
;infill
G1 X119.63 Y109.99 F4200
G1 X119.67 Y109.58 E35.5468 F600
G1 X119.77 Y109.21 E35.5651
G1 X120.01 Y108.71 E35.5917
G1 X120.37 Y108.27 E35.6189
G1 X120.79 Y107.96 E35.6439
G1 X121.26 Y107.75 E35.6686
G1 X121.83 Y107.63 E35.6965
G1 X122.36 Y107.66 E35.7219
G1 X122.91 Y107.81 E35.7492
G1 X123.33 Y108.04 E35.7721
G1 X123.65 Y108.30 E35.7919
G1 X123.96 Y108.66 E35.8146
G1 X124.22 Y109.16 E35.8416
G1 X124.35 Y109.67 E35.8668
G1 X124.36 Y110.08 E35.8865
G1 X124.32 Y110.46 E35.9048
G1 X124.14 Y111.01 E35.9325
G1 X123.84 Y111.49 E35.9596
G1 X123.54 Y111.80 E35.9803
G1 X123.31 Y111.97 E35.9940
G1 X122.80 Y112.23 E36.0214
G1 X122.29 Y112.35 E36.0465
G1 X121.71 Y112.36 E36.0743
G1 X121.20 Y112.23 E36.0995
G1 X120.69 Y111.98 E36.1267
G1 X120.31 Y111.66 E36.1505
G1 X120.16 Y111.49 E36.1613
G1 X119.86 Y111.03 E36.1876
G1 X119.68 Y110.52 E36.2135
G1 X119.63 Y109.99 E36.2390
;shell
G1 E31.2390 F2700
G1 X119.20 Y101.97 F4200
G1 E36.2390 F2700
G1 X119.20 Y101.97 F4200
G1 X119.24 Y101.51 E36.2611 F578
G1 X119.36 Y101.06 E36.2834
G1 X119.55 Y100.64 E36.3055
G1 X119.82 Y100.25 E36.3282
G1 X120.14 Y99.91 E36.3506
G1 X120.51 Y99.63 E36.3728
G1 X120.92 Y99.42 E36.3949
G1 X121.36 Y99.27 E36.4172
G1 X121.82 Y99.21 E36.4394
G1 X122.29 Y99.22 E36.4619
G1 X122.74 Y99.30 E36.4838
G1 X123.18 Y99.46 E36.5062
G1 X123.59 Y99.69 E36.5287
G1 X123.95 Y99.99 E36.5512
G1 X124.25 Y100.34 E36.5732
G1 X124.50 Y100.74 E36.5958
G1 X124.67 Y101.17 E36.6180
G1 X124.77 Y101.62 E36.6401
G1 X124.80 Y102.09 E36.6626
G1 X124.74 Y102.55 E36.6848
G1 X124.61 Y103.00 E36.7073
G1 X124.41 Y103.42 E36.7295
G1 X124.15 Y103.79 E36.7512
G1 X123.82 Y104.13 E36.7739
G1 X123.44 Y104.40 E36.7962
G1 X123.02 Y104.60 E36.8185
G1 X122.57 Y104.74 E36.8411
G1 X122.12 Y104.80 E36.8628
G1 X121.65 Y104.78 E36.8854
G1 X121.19 Y104.68 E36.9079
G1 X120.76 Y104.51 E36.9300
G1 X120.36 Y104.27 E36.9524
G1 X120.01 Y103.97 E36.9745
G1 X119.71 Y103.62 E36.9965
G1 X119.47 Y103.21 E37.0193
G1 X119.31 Y102.77 E37.0417
G1 X119.22 Y102.32 E37.0637
G1 X119.20 Y101.97 E37.0805
G1 X120.05 Y101.97 F4200
G1 X120.09 Y102.40 E37.1012 F578
G1 X120.22 Y102.81 E37.1218
G1 X120.50 Y103.25 E37.1467
G1 X120.90 Y103.61 E37.1725
G1 X121.37 Y103.85 E37.1978
