;generated by ffslicer 1.30.3 09/11/23 14:20:18
;right_extruder_material: PLA
;layer_height: 0.2
;perimeter_shells: 2
;top_solid_layers: 4
;bottom_solid_layers: 3
;fill_density: 15%
;fill_pattern: hexagon
;base_print_speed: 50
;travel_speed: 80
;right_extruder_temperature: 200
;left_extruder_temperature: 0
;platform_temperature: 60
;right_extruder_temperature_raft0: 0
;left_extruder_temperature_raft0: 0
;right_extruder_temperature_reset: 
;left_extruder_temperature_reset: 
;start gcode
M140 S60 T0
M104 S200 T0
M104 S0 T1
G90
G28
G1 Z50.000 F420
G161 X Y F3300
M190 S60 T0
M109 S200 T0
M109 S0 T1
G92 E.0000
;layer_count: 7
M108 T0
G1 X85.00 Y85.00 F4800
;preExtrude:0.20
;preExtruder0
M106 S255
G1 Z.200 F420
G1 X85.00 Y85.00 F4800
G1 X135.00 Y85.00 E6.3859 F1200
G1 X135.00 Y135.00 E12.7719
G1 X85.00 Y135.00 E19.1578
G1 X85.00 Y85.00 E25.5438
;raft
;layer:0.29
;shell
G1 E20.5438 F2700
G1 Z.290 F420
G1 X95.85 Y104.72 F4200
G1 E25.5438 F2700
G1 X95.85 Y104.72 F4200
G1 X95.90 Y104.16 E25.5698 F600
G1 X95.99 Y103.75 E25.5892
G1 X96.13 Y103.34 E25.6093
G1 X96.38 Y102.86 E25.6344
G1 X96.63 Y102.50 E25.6547
G1 X97.00 Y102.09 E25.6802
G1 X97.33 Y101.82 E25.7000
G1 X97.80 Y101.52 E25.7258
G1 X98.19 Y101.34 E25.7457
G1 X98.72 Y101.18 E25.7713
G1 X99.15 Y101.12 E25.7914
G1 X99.57 Y101.10 E25.8109
G1 X100.12 Y101.15 E25.8364
G1 X100.54 Y101.25 E25.8564
G1 X100.94 Y101.40 E25.8762
G1 X101.31 Y101.58 E25.8953
G1 X101.77 Y101.89 E25.9209
G1 X102.09 Y102.19 E25.9412
G1 X102.37 Y102.50 E25.9606
G1 X102.68 Y102.95 E25.9859
G1 X102.87 Y103.35 E26.0064
G1 X103.01 Y103.74 E26.0256
G1 X103.12 Y104.29 E26.0515
G1 X103.15 Y104.70 E26.0706
G1 X103.11 Y105.27 E26.0970
G1 X103.03 Y105.68 E26.1164
G1 X102.84 Y106.22 E26.1429
G1 X102.65 Y106.59 E26.1621
G1 X102.34 Y107.04 E26.1874
G1 X102.04 Y107.37 E26.2081
G1 X101.72 Y107.65 E26.2278
G1 X101.38 Y107.88 E26.2468
G1 X100.88 Y108.13 E26.2726
G1 X100.35 Y108.30 E26.2984
G1 X99.92 Y108.37 E26.3186
G1 X99.50 Y108.40 E26.3381
G1 X98.96 Y108.36 E26.3631
G1 X98.53 Y108.27 E26.3835
G1 X98.01 Y108.08 E26.4091
G1 X97.63 Y107.88 E26.4290
G1 X97.17 Y107.56 E26.4549
G1 X96.86 Y107.27 E26.4746
G1 X96.59 Y106.95 E26.4940
G1 X96.35 Y106.60 E26.5136
G1 X96.11 Y106.10 E26.5393
G1 X95.97 Y105.69 E26.5594
G1 X95.89 Y105.29 E26.5783
G1 X95.85 Y104.72 E26.6047
G1 X95.45 Y104.72 F4200
G1 X95.50 Y104.10 E26.6335 F600
G1 X95.61 Y103.64 E26.6554
G1 X95.76 Y103.19 E26.6774
G1 X96.04 Y102.65 E26.7055
G1 X96.31 Y102.25 E26.7279
G1 X96.73 Y101.80 E26.7564
G1 X97.09 Y101.49 E26.7784
G1 X97.61 Y101.17 E26.8066
G1 X98.05 Y100.97 E26.8290
G1 X98.63 Y100.79 E26.8571
G1 X99.11 Y100.72 E26.8796
G1 X99.58 Y100.70 E26.9014
G1 X100.18 Y100.76 E26.9293
G1 X100.66 Y100.87 E26.9521
G1 X101.09 Y101.03 E26.9733
G1 X101.51 Y101.23 E26.9949
G1 X102.02 Y101.58 E27.0235
G1 X102.38 Y101.90 E27.0458
G1 X102.69 Y102.25 E27.0674
G1 X103.02 Y102.75 E27.0952
G1 X103.24 Y103.19 E27.1180
G1 X103.39 Y103.63 E27.1395
G1 X103.52 Y104.23 E27.1679
G1 X103.55 Y104.70 E27.1897
G1 X103.51 Y105.32 E27.2185
G1 X103.41 Y105.79 E27.2407
G1 X103.21 Y106.37 E27.2691
G1 X103.00 Y106.79 E27.2909
G1 X102.65 Y107.30 E27.3195
G1 X102.32 Y107.66 E27.3421
G1 X101.97 Y107.96 E27.3635
G1 X101.58 Y108.22 E27.3852
G1 X101.03 Y108.50 E27.4137
G1 X100.44 Y108.69 E27.4424
G1 X99.97 Y108.77 E27.4645
G1 X99.50 Y108.80 E27.4863
G1 X98.90 Y108.75 E27.5142
G1 X98.42 Y108.65 E27.5369
G1 X97.85 Y108.45 E27.5648
G1 X97.42 Y108.22 E27.5874
G1 X96.92 Y107.87 E27.6157
G1 X96.57 Y107.55 E27.6376
G1 X96.27 Y107.19 E27.6593
G1 X96.01 Y106.80 E27.6810
G1 X95.74 Y106.25 E27.7094
G1 X95.59 Y105.79 E27.7318
G1 X95.49 Y105.34 E27.7531
G1 X95.45 Y104.72 E27.7819
G1 X96.75 Y104.75 F4200
G1 X96.81 Y105.36 E27.8103 F600
G1 X97.00 Y105.91 E27.8372
G1 X97.32 Y106.43 E27.8655
G1 X97.73 Y106.86 E27.8930
G1 X98.22 Y107.19 E27.9204
G1 X98.78 Y107.41 E27.9482
G1 X99.36 Y107.50 E27.9754
G1 X99.96 Y107.46 E28.0032
G1 X100.54 Y107.30 E28.0311
G1 X101.06 Y107.02 E28.0584
G1 X101.51 Y106.63 E28.0860
G1 X101.87 Y106.16 E28.1134
G1 X102.11 Y105.62 E28.1408
G1 X102.24 Y105.03 E28.1687
G1 X102.24 Y104.44 E28.1961
G1 X102.10 Y103.86 E28.2237
G1 X101.85 Y103.32 E28.2512
G1 X101.49 Y102.85 E28.2786
G1 X101.03 Y102.46 E28.3066
G1 X100.50 Y102.19 E28.3341
G1 X99.93 Y102.03 E28.3615
G1 X99.33 Y102.00 E28.3893
G1 X98.75 Y102.10 E28.4166
G1 X98.19 Y102.33 E28.4446
G1 X97.71 Y102.66 E28.4716
G1 X97.30 Y103.09 E28.4991
G1 X97.00 Y103.61 E28.5269
G1 X96.81 Y104.17 E28.5543
G1 X96.75 Y104.75 E28.5812
G1 X97.15 Y104.75 F4200
G1 X97.21 Y105.27 E28.6055 F600
G1 X97.37 Y105.75 E28.6289
G1 X97.64 Y106.18 E28.6524
G1 X97.99 Y106.55 E28.6760
G1 X98.41 Y106.83 E28.6994
G1 X98.88 Y107.02 E28.7228
G1 X99.39 Y107.10 E28.7467
G1 X99.89 Y107.07 E28.7699
G1 X100.38 Y106.93 E28.7935
G1 X100.83 Y106.69 E28.8171
G1 X101.22 Y106.36 E28.8408
G1 X101.52 Y105.95 E28.8643
G1 X101.73 Y105.49 E28.8877
G1 X101.84 Y104.99 E28.9114
G1 X101.84 Y104.48 E28.9350
G1 X101.72 Y103.99 E28.9584
G1 X101.51 Y103.53 E28.9818
G1 X101.20 Y103.12 E29.0056
G1 X100.81 Y102.80 E29.0290
G1 X100.36 Y102.56 E29.0526
G1 X99.87 Y102.43 E29.0760
G1 X99.36 Y102.40 E29.0997
G1 X98.86 Y102.49 E29.1232
G1 X98.39 Y102.68 E29.1467
G1 X97.97 Y102.97 E29.1703
G1 X97.62 Y103.34 E29.1939
G1 X97.36 Y103.78 E29.2176
G1 X97.20 Y104.26 E29.2410
G1 X97.15 Y104.75 E29.2638
;infill
G1 X96.30 Y104.72 F4200
G1 X96.37 Y105.42 E29.2964 F600
G1 X96.51 Y105.88 E29.3186
G1 X96.72 Y106.31 E29.3408
G1 X96.99 Y106.73 E29.3639
G1 X97.46 Y107.21 E29.3950
G1 X97.99 Y107.57 E29.4247
G1 X98.63 Y107.83 E29.4566
G1 X99.12 Y107.93 E29.4798
G1 X99.58 Y107.95 E29.5011
G1 X100.06 Y107.90 E29.5235
G1 X100.70 Y107.72 E29.5542
G1 X101.28 Y107.40 E29.5849
G1 X101.73 Y107.04 E29.6116
G1 X101.98 Y106.76 E29.6290
G1 X102.28 Y106.35 E29.6525
G1 X102.53 Y105.79 E29.6809
G1 X102.66 Y105.22 E29.7080
G1 X102.69 Y104.73 E29.7307
G1 X102.67 Y104.35 E29.7483
G1 X102.51 Y103.68 E29.7802
G1 X102.25 Y103.11 E29.8092
G1 X101.83 Y102.56 E29.8412
G1 X101.47 Y102.22 E29.8642
G1 X101.26 Y102.07 E29.8761
G1 X100.69 Y101.78 E29.9057
G1 X100.05 Y101.60 E29.9365
G1 X99.56 Y101.56 E29.9593
G1 X99.28 Y101.56 E29.9722
G1 X98.66 Y101.67 E30.0014
G1 X98.02 Y101.92 E30.0332
G1 X97.59 Y102.19 E30.0567
G1 X97.32 Y102.42 E30.0731
G1 X96.90 Y102.89 E30.1023
G1 X96.57 Y103.46 E30.1328
G1 X96.38 Y104.04 E30.1611
G1 X96.30 Y104.72 E30.1927
;shell
G1 E25.1927 F2700
G1 X106.35 Y104.87 F4200
G1 E30.1927 F2700
G1 X106.35 Y104.87 F4200
G1 X106.38 Y104.29 E30.2196 F600
G1 X106.49 Y103.76 E30.2447
G1 X106.63 Y103.34 E30.2652
G1 X106.81 Y102.97 E30.2842
G1 X107.12 Y102.50 E30.3103
G1 X107.41 Y102.18 E30.3303
G1 X107.71 Y101.91 E30.3490
G1 X108.18 Y101.59 E30.3753
G1 X108.55 Y101.40 E30.3946
G1 X109.09 Y101.22 E30.4209
G1 X109.50 Y101.14 E30.4403
G1 X110.01 Y101.10 E30.4640
G1 X110.50 Y101.14 E30.4867
G1 X110.90 Y101.21 E30.5055
G1 X111.43 Y101.39 E30.5314
G1 X111.82 Y101.58 E30.5515
G1 X112.28 Y101.90 E30.5775
G1 X112.68 Y102.27 E30.6027
G1 X112.95 Y102.61 E30.6228
G1 X113.24 Y103.08 E30.6484
G1 X113.42 Y103.47 E30.6682
G1 X113.57 Y104.01 E30.6942
G1 X113.63 Y104.43 E30.7138
G1 X113.65 Y104.86 E30.7338
G1 X113.61 Y105.27 E30.7528
G1 X113.49 Y105.81 E30.7784
G1 X113.34 Y106.22 E30.7987
G1 X113.08 Y106.71 E30.8243
G1 X112.74 Y107.16 E30.8504
G1 X112.44 Y107.46 E30.8701
G1 X112.01 Y107.80 E30.8955
G1 X111.63 Y108.01 E30.9156
G1 X111.12 Y108.22 E30.9411
G1 X110.70 Y108.33 E30.9612
G1 X110.15 Y108.40 E30.9869
G1 X109.71 Y108.39 E31.0073
G1 X109.31 Y108.33 E31.0260
G1 X108.76 Y108.18 E31.0524
G1 X108.38 Y108.02 E31.0715
G1 X107.90 Y107.73 E31.0974
G1 X107.57 Y107.47 E31.1169
G1 X107.18 Y107.06 E31.1431
G1 X106.93 Y106.72 E31.1626
G1 X106.66 Y106.22 E31.1889
G1 X106.51 Y105.82 E31.2087
G1 X106.41 Y105.42 E31.2278
G1 X106.35 Y104.87 E31.2534
G1 X105.95 Y104.88 F4200
G1 X105.98 Y104.24 E31.2831 F600
G1 X106.10 Y103.65 E31.3110
G1 X106.26 Y103.19 E31.3335
G1 X106.46 Y102.78 E31.3546
G1 X106.81 Y102.26 E31.3836
G1 X107.12 Y101.90 E31.4056
G1 X107.47 Y101.59 E31.4273
G1 X107.97 Y101.24 E31.4555
G1 X108.40 Y101.03 E31.4777
G1 X108.98 Y100.83 E31.5061
G1 X109.45 Y100.74 E31.5283
G1 X110.01 Y100.70 E31.5543
G1 X110.55 Y100.74 E31.5793
G1 X111.00 Y100.83 E31.6006
G1 X111.58 Y101.02 E31.6288
G1 X112.02 Y101.24 E31.6516
G1 X112.53 Y101.59 E31.6802
G1 X112.97 Y102.00 E31.7081
G1 X113.28 Y102.38 E31.7308
G1 X113.60 Y102.89 E31.7587
G1 X113.79 Y103.34 E31.7813
G1 X113.96 Y103.92 E31.8093
G1 X114.03 Y104.40 E31.8317
G1 X114.05 Y104.87 E31.8535
G1 X114.01 Y105.33 E31.8749
G1 X113.87 Y105.93 E31.9034
G1 X113.71 Y106.38 E31.9255
G1 X113.41 Y106.93 E31.9545
G1 X113.04 Y107.42 E31.9829
G1 X112.71 Y107.76 E32.0049
G1 X112.23 Y108.13 E32.0329
G1 X111.81 Y108.37 E32.0553
G1 X111.24 Y108.60 E32.0838
G1 X110.78 Y108.72 E32.1058
G1 X110.17 Y108.80 E32.1343
G1 X109.69 Y108.79 E32.1565
G1 X109.23 Y108.73 E32.1780
G1 X108.63 Y108.56 E32.2069
G1 X108.19 Y108.38 E32.2289
G1 X107.67 Y108.06 E32.2571
G1 X107.30 Y107.76 E32.2792
G1 X106.87 Y107.32 E32.3077
G1 X106.59 Y106.93 E32.3299
G1 X106.30 Y106.39 E32.3583
G1 X106.13 Y105.94 E32.3806
G1 X106.02 Y105.49 E32.4020
G1 X105.95 Y104.88 E32.4304
G1 X107.25 Y104.75 F4200
G1 X107.31 Y105.36 E32.4588 F600
G1 X107.51 Y105.92 E32.4863
G1 X107.82 Y106.43 E32.5140
G1 X108.23 Y106.86 E32.5415
G1 X108.72 Y107.19 E32.5688
G1 X109.28 Y107.41 E32.5967
G1 X109.86 Y107.50 E32.6239
G1 X110.46 Y107.46 E32.6517
G1 X111.03 Y107.30 E32.6791
G1 X111.56 Y107.02 E32.7069
G1 X112.01 Y106.63 E32.7344
G1 X112.37 Y106.16 E32.7619
G1 X112.61 Y105.62 E32.7892
G1 X112.74 Y105.03 E32.8172
G1 X112.74 Y104.44 E32.8445
G1 X112.60 Y103.86 E32.8721
G1 X112.35 Y103.32 E32.8997
G1 X111.99 Y102.84 E32.9274
G1 X111.53 Y102.46 E32.9551
G1 X111.00 Y102.19 E32.9826
G1 X110.43 Y102.03 E33.0100
G1 X109.83 Y102.00 E33.0378
G1 X109.25 Y102.10 E33.0651
G1 X108.69 Y102.33 E33.0931
G1 X108.21 Y102.66 E33.1201
G1 X107.80 Y103.09 E33.1476
G1 X107.50 Y103.61 E33.1754
G1 X107.31 Y104.17 E33.2028
G1 X107.25 Y104.75 E33.2298
G1 X107.65 Y104.75 F4200
G1 X107.71 Y105.27 E33.2540 F600
G1 X107.87 Y105.75 E33.2774
G1 X108.14 Y106.18 E33.3009
G1 X108.49 Y106.55 E33.3245
G1 X108.91 Y106.83 E33.3479
G1 X109.38 Y107.02 E33.3714
G1 X109.89 Y107.10 E33.3953
G1 X110.39 Y107.07 E33.4184
G1 X110.88 Y106.93 E33.4420
G1 X111.33 Y106.69 E33.4657
G1 X111.72 Y106.36 E33.4893
G1 X112.02 Y105.95 E33.5128
G1 X112.23 Y105.49 E33.5362
G1 X112.34 Y104.99 E33.5599
G1 X112.34 Y104.48 E33.5836
G1 X112.22 Y103.99 E33.6069
G1 X112.01 Y103.53 E33.6303
G1 X111.70 Y103.12 E33.6541
G1 X111.31 Y102.80 E33.6775
G1 X110.86 Y102.56 E33.7011
G1 X110.37 Y102.43 E33.7246
G1 X109.86 Y102.40 E33.7482
G1 X109.36 Y102.49 E33.7717
G1 X108.89 Y102.68 E33.7952
G1 X108.47 Y102.97 E33.8188
G1 X108.12 Y103.34 E33.8424
G1 X107.86 Y103.78 E33.8661
G1 X107.70 Y104.26 E33.8895
G1 X107.65 Y104.75 E33.9123
;infill
G1 X107.52 Y105.31 F4200
G1 X107.70 Y105.83
G1 X107.99 Y106.30
G1 X108.37 Y106.69
G1 X108.82 Y107.00
G1 X110.83 Y107.87
G1 X110.83 Y107.87
G1 X110.13 Y107.94 E33.9449 F600
G1 X109.58 Y107.91 E33.9704
G1 X109.13 Y107.82 E33.9916
G1 X108.55 Y107.60 E34.0203
G1 X107.97 Y107.22 E34.0524
G1 X107.53 Y106.78 E34.0812
G1 X107.23 Y106.34 E34.1059
G1 X107.02 Y105.91 E34.1281
G1 X106.89 Y105.49 E34.1484
G1 X106.80 Y104.79 E34.1811
G1 X106.80 Y104.51 E34.1941
G1 X106.93 Y103.85 E34.2252
G1 X107.10 Y103.40 E34.2475
G1 X107.46 Y102.80 E34.2799
G1 X107.89 Y102.34 E34.3090
G1 X108.42 Y101.97 E34.3389
G1 X108.72 Y101.82 E34.3545
G1 X109.20 Y101.65 E34.3780
G1 X109.84 Y101.56 E34.4080
G1 X110.45 Y101.58 E34.4362
G1 X110.96 Y101.67 E34.4602
G1 X111.58 Y101.98 E34.4923
G1 X111.99 Y102.25 E34.5150
G1 X112.33 Y102.56 E34.5363
G1 X112.71 Y103.06 E34.5654
G1 X112.99 Y103.62 E34.5944
G1 X113.14 Y104.19 E34.6217
G1 X113.19 Y104.47 E34.6348
G1 X113.18 Y105.12 E34.6649
G1 X113.02 Y105.79 E34.6968
G1 X112.76 Y106.37 E34.7263
G1 X112.40 Y106.87 E34.7548
G1 X112.15 Y107.11 E34.7708
G1 X111.75 Y107.43 E34.7945
G1 X111.28 Y107.74 E34.8206
G1 X111.01 Y107.71 F4200
G1 X111.11 Y107.97 E34.8335 F600
;shell
G1 E29.8335 F2700
G1 X116.85 Y104.76 F4200
G1 E34.8335 F2700
G1 X116.85 Y104.76 F4200
G1 X116.92 Y104.07 E34.8656 F600
G1 X117.02 Y103.65 E34.8856
G1 X117.23 Y103.14 E34.9111
G1 X117.44 Y102.77 E34.9308
G1 X117.76 Y102.34 E34.9557
G1 X118.06 Y102.04 E34.9753
G1 X118.51 Y101.69 E35.0017
G1 X118.88 Y101.48 E35.0214
G1 X119.38 Y101.28 E35.0463
G1 X119.81 Y101.17 E35.0669
G1 X120.34 Y101.11 E35.0916
G1 X120.77 Y101.11 E35.1115
G1 X121.33 Y101.20 E35.1377
G1 X121.87 Y101.37 E35.1639
G1 X122.35 Y101.60 E35.1886
G1 X122.70 Y101.84 E35.2082
G1 X123.12 Y102.21 E35.2341
G1 X123.40 Y102.53 E35.2538
G1 X123.71 Y103.01 E35.2803
G1 X123.93 Y103.50 E35.3052
G1 X124.05 Y103.91 E35.3249
G1 X124.14 Y104.45 E35.3503
G1 X124.15 Y104.89 E35.3707
G1 X124.08 Y105.43 E35.3959
G1 X123.98 Y105.85 E35.4159
G1 X123.77 Y106.36 E35.4414
G1 X123.56 Y106.73 E35.4611
G1 X123.24 Y107.16 E35.4859
G1 X122.93 Y107.47 E35.5062
G1 X122.49 Y107.81 E35.5319
G1 X122.12 Y108.02 E35.5516
G1 X121.62 Y108.22 E35.5766
G1 X121.19 Y108.33 E35.5971
G1 X120.66 Y108.39 E35.6218
G1 X120.23 Y108.39 E35.6417
G1 X119.68 Y108.30 E35.6675
G1 X119.27 Y108.19 E35.6872
G1 X118.77 Y107.96 E35.7127
G1 X118.40 Y107.74 E35.7326
G1 X117.97 Y107.38 E35.7586
G1 X117.61 Y106.98 E35.7835
G1 X117.36 Y106.62 E35.8038
G1 X117.12 Y106.13 E35.8290
G1 X116.98 Y105.72 E35.8491
G1 X116.88 Y105.19 E35.8741
G1 X116.85 Y104.76 E35.8940
G1 X116.45 Y104.75 F4200
G1 X116.52 Y104.00 E35.9289 F600
G1 X116.64 Y103.53 E35.9513
G1 X116.86 Y102.97 E35.9792
G1 X117.10 Y102.55 E36.0016
G1 X117.46 Y102.07 E36.0294
G1 X117.80 Y101.73 E36.0516
G1 X118.28 Y101.36 E36.0797
G1 X118.70 Y101.12 E36.1021
G1 X119.25 Y100.90 E36.1295
G1 X119.73 Y100.77 E36.1525
G1 X120.33 Y100.70 E36.1805
G1 X120.81 Y100.71 E36.2027
G1 X121.42 Y100.81 E36.2313
G1 X122.02 Y101.00 E36.2605
G1 X122.55 Y101.26 E36.2878
G1 X122.95 Y101.53 E36.3102
G1 X123.41 Y101.93 E36.3384
G1 X123.72 Y102.29 E36.3604
G1 X124.06 Y102.82 E36.3895
G1 X124.30 Y103.36 E36.4169
G1 X124.44 Y103.82 E36.4391
G1 X124.54 Y104.42 E36.4673
G1 X124.55 Y104.90 E36.4895
G1 X124.48 Y105.50 E36.5175
G1 X124.36 Y105.97 E36.5400
G1 X124.14 Y106.53 E36.5678
G1 X123.90 Y106.95 E36.5902
G1 X123.54 Y107.43 E36.6180
G1 X123.20 Y107.77 E36.6403
G1 X122.72 Y108.14 E36.6683
G1 X122.29 Y108.38 E36.6911
G1 X121.75 Y108.60 E36.7181
G1 X121.27 Y108.73 E36.7411
G1 X120.67 Y108.80 E36.7691
G1 X120.19 Y108.79 E36.7913
G1 X119.60 Y108.70 E36.8190
G1 X119.13 Y108.56 E36.8417
G1 X118.58 Y108.32 E36.8694
G1 X118.17 Y108.06 E36.8919
G1 X117.69 Y107.67 E36.9206
G1 X117.29 Y107.22 E36.9484
G1 X117.02 Y106.82 E36.9708
G1 X116.75 Y106.28 E36.9987
G1 X116.59 Y105.82 E37.0213
G1 X116.48 Y105.24 E37.0486
G1 X116.45 Y104.75 E37.0713
G1 X117.76 Y104.52 F4200
G1 X117.79 Y105.24 E37.1047 F600
G1 X117.96 Y105.82 E37.1327
G1 X118.25 Y106.33 E37.1598
G1 X118.63 Y106.77 E37.1868
G1 X119.11 Y107.13 E37.2145
G1 X119.65 Y107.37 E37.2419
G1 X120.22 Y107.49 E37.2689
G1 X120.81 Y107.49 E37.2962
G1 X121.39 Y107.35 E37.3238
G1 X121.93 Y107.11 E37.3512
G1 X122.39 Y106.75 E37.3782
G1 X122.78 Y106.29 E37.4061
G1 X123.05 Y105.78 E37.4329
G1 X123.21 Y105.21 E37.4603
G1 X123.25 Y104.62 E37.4876
G1 X123.16 Y104.04 E37.5148
G1 X122.95 Y103.48 E37.5425
G1 X122.62 Y102.99 E37.5699
G1 X122.19 Y102.58 E37.5974
G1 X121.70 Y102.27 E37.6242
G1 X121.14 Y102.07 E37.6517
G1 X120.50 Y102.00 E37.6816
G1 X119.97 Y102.05 E37.7062
G1 X119.40 Y102.23 E37.7339
G1 X118.89 Y102.52 E37.7610
G1 X118.45 Y102.91 E37.7883
G1 X118.11 Y103.39 E37.8155
G1 X117.87 Y103.94 E37.8433
G1 X117.76 Y104.52 E37.8706
G1 X118.16 Y104.55 F4200
G1 X118.19 Y105.17 E37.8994 F600
G1 X118.33 Y105.66 E37.9229
G1 X118.57 Y106.10 E37.9461
G1 X118.91 Y106.48 E37.9698
G1 X119.31 Y106.78 E37.9929
G1 X119.77 Y106.98 E38.0161
G1 X120.27 Y107.09 E38.0398
G1 X120.77 Y107.09 E38.0630
G1 X121.26 Y106.97 E38.0863
G1 X121.72 Y106.76 E38.1097
G1 X122.12 Y106.46 E38.1329
G1 X122.45 Y106.07 E38.1565
G1 X122.68 Y105.63 E38.1795
G1 X122.82 Y105.14 E38.2031
G1 X122.85 Y104.64 E38.2263
G1 X122.77 Y104.14 E38.2498
