;generated by ffslicer 1.30.3 09/11/23 13:23:07
;right_extruder_material: PLA
;layer_height: 0.2
;perimeter_shells: 2
;top_solid_layers: 4
;bottom_solid_layers: 3
;fill_density: 15%
;fill_pattern: hexagon
;base_print_speed: 50
;travel_speed: 80
;right_extruder_temperature: 200
;left_extruder_temperature: 0
;platform_temperature: 60
;right_extruder_temperature_raft0: 0
;left_extruder_temperature_raft0: 0
;right_extruder_temperature_reset: 
;left_extruder_temperature_reset: 
;start gcode
M140 S60 T0
M104 S200 T0
M104 S0 T1
G90
G28
G1 Z50.000 F420
G161 X Y F3300
M190 S60 T0
M109 S200 T0
M109 S0 T1
G92 E.0000
;layer_count: 4
M108 T0
G1 X85.00 Y85.00 F4800
;preExtrude:0.20
;preExtruder0
M106 S255
G1 Z.200 F420
G1 X85.00 Y85.00 F4800
G1 X135.00 Y85.00 E6.3859 F1200
G1 X135.00 Y135.00 E12.7719
G1 X85.00 Y135.00 E19.1578
G1 X85.00 Y85.00 E25.5438
;raft
;layer:0.28
;shell
G1 E20.5438 F2700
G1 Z.280 F420
G1 X101.10 Y104.63 F4200
G1 E25.5438 F2700
G1 X101.10 Y104.63 F4200
G1 X101.17 Y104.05 E25.5699 F600
G1 X101.31 Y103.53 E25.5940
G1 X101.48 Y103.14 E25.6130
G1 X101.75 Y102.67 E25.6372
G1 X102.02 Y102.33 E25.6566
G1 X102.41 Y101.95 E25.6810
G1 X102.76 Y101.69 E25.7005
G1 X103.26 Y101.42 E25.7259
G1 X103.78 Y101.23 E25.7506
G1 X104.31 Y101.13 E25.7747
G1 X104.75 Y101.10 E25.7944
G1 X105.30 Y101.14 E25.8191
G1 X105.83 Y101.27 E25.8435
G1 X106.23 Y101.42 E25.8626
G1 X106.74 Y101.69 E25.8884
G1 X107.16 Y102.02 E25.9122
G1 X107.47 Y102.31 E25.9312
G1 X107.80 Y102.75 E25.9558
G1 X108.02 Y103.13 E25.9754
G1 X108.22 Y103.63 E25.9995
G1 X108.33 Y104.05 E26.0189
G1 X108.39 Y104.59 E26.0432
G1 X108.39 Y105.02 E26.0624
G1 X108.31 Y105.57 E26.0873
G1 X108.19 Y105.97 E26.1059
G1 X107.96 Y106.48 E26.1310
G1 X107.74 Y106.85 E26.1502
G1 X107.38 Y107.28 E26.1753
G1 X106.96 Y107.65 E26.2003
G1 X106.51 Y107.95 E26.2245
G1 X106.11 Y108.13 E26.2441
G1 X105.61 Y108.30 E26.2677
G1 X105.17 Y108.37 E26.2876
G1 X104.63 Y108.40 E26.3118
G1 X104.20 Y108.36 E26.3311
G1 X103.67 Y108.23 E26.3555
G1 X103.27 Y108.08 E26.3746
G1 X102.76 Y107.81 E26.4004
G1 X102.34 Y107.48 E26.4242
G1 X102.03 Y107.18 E26.4435
G1 X101.70 Y106.75 E26.4677
G1 X101.48 Y106.37 E26.4874
G1 X101.28 Y105.87 E26.5114
G1 X101.17 Y105.45 E26.5309
G1 X101.10 Y104.90 E26.5556
G1 X101.10 Y104.63 E26.5677
G1 X100.70 Y104.60 F4200
G1 X100.77 Y103.98 E26.5956 F600
G1 X100.93 Y103.40 E26.6225
G1 X101.12 Y102.96 E26.6439
G1 X101.42 Y102.44 E26.6708
G1 X101.73 Y102.06 E26.6927
G1 X102.15 Y101.64 E26.7192
G1 X102.55 Y101.35 E26.7413
G1 X103.10 Y101.05 E26.7693
G1 X103.68 Y100.84 E26.7969
G1 X104.26 Y100.73 E26.8233
G1 X104.75 Y100.70 E26.8452
G1 X105.36 Y100.75 E26.8726
G1 X105.95 Y100.88 E26.8996
G1 X106.40 Y101.05 E26.9211
G1 X106.96 Y101.35 E26.9495
G1 X107.42 Y101.71 E26.9756
G1 X107.77 Y102.05 E26.9974
G1 X108.14 Y102.53 E27.0245
G1 X108.38 Y102.96 E27.0465
G1 X108.60 Y103.50 E27.0726
G1 X108.73 Y103.98 E27.0948
G1 X108.80 Y104.57 E27.1214
G1 X108.79 Y105.06 E27.1433
G1 X108.70 Y105.65 E27.1700
G1 X108.56 Y106.12 E27.1919
G1 X108.32 Y106.66 E27.2183
G1 X108.06 Y107.08 E27.2404
G1 X107.67 Y107.56 E27.2680
G1 X107.21 Y107.97 E27.2956
G1 X106.71 Y108.29 E27.3221
G1 X106.26 Y108.51 E27.3445
G1 X105.70 Y108.69 E27.3708
G1 X105.22 Y108.77 E27.3926
G1 X104.62 Y108.80 E27.4194
G1 X104.14 Y108.75 E27.4410
G1 X103.55 Y108.62 E27.4680
G1 X103.10 Y108.45 E27.4895
G1 X102.54 Y108.15 E27.5179
G1 X102.08 Y107.79 E27.5440
G1 X101.73 Y107.45 E27.5658
G1 X101.36 Y106.97 E27.5929
G1 X101.12 Y106.54 E27.6149
G1 X100.90 Y106.00 E27.6410
G1 X100.77 Y105.52 E27.6632
G1 X100.70 Y104.93 E27.6898
G1 X100.70 Y104.60 E27.7045
G1 X102.01 Y104.52 F4200
G1 X102.04 Y105.25 E27.7372 F600
G1 X102.21 Y105.82 E27.7638
G1 X102.50 Y106.33 E27.7900
G1 X102.89 Y106.78 E27.8166
G1 X103.36 Y107.13 E27.8428
G1 X103.90 Y107.37 E27.8692
G1 X104.48 Y107.49 E27.8957
G1 X105.07 Y107.49 E27.9221
G1 X105.64 Y107.35 E27.9483
G1 X106.18 Y107.10 E27.9749
G1 X106.65 Y106.75 E28.0011
G1 X107.03 Y106.29 E28.0278
G1 X107.31 Y105.77 E28.0542
G1 X107.46 Y105.20 E28.0805
G1 X107.50 Y104.61 E28.1070
G1 X107.41 Y104.03 E28.1332
G1 X107.19 Y103.48 E28.1597
G1 X106.87 Y102.99 E28.1858
G1 X106.44 Y102.58 E28.2124
G1 X105.94 Y102.27 E28.2387
G1 X105.38 Y102.07 E28.2653
G1 X104.76 Y102.00 E28.2932
G1 X104.21 Y102.05 E28.3179
G1 X103.65 Y102.23 E28.3442
G1 X103.14 Y102.52 E28.3704
G1 X102.70 Y102.92 E28.3970
G1 X102.36 Y103.39 E28.4229
G1 X102.12 Y103.94 E28.4497
G1 X102.01 Y104.52 E28.4761
G1 X102.41 Y104.55 F4200
G1 X102.44 Y105.18 E28.5043 F600
G1 X102.58 Y105.66 E28.5266
G1 X102.83 Y106.10 E28.5493
G1 X103.16 Y106.48 E28.5718
G1 X103.57 Y106.78 E28.5945
G1 X104.03 Y106.99 E28.6171
G1 X104.52 Y107.09 E28.6394
G1 X105.02 Y107.09 E28.6618
G1 X105.51 Y106.97 E28.6843
G1 X105.97 Y106.76 E28.7069
G1 X106.37 Y106.45 E28.7296
G1 X106.70 Y106.07 E28.7521
G1 X106.93 Y105.62 E28.7747
G1 X107.07 Y105.14 E28.7970
G1 X107.10 Y104.63 E28.8198
G1 X107.02 Y104.14 E28.8420
G1 X106.84 Y103.67 E28.8645
G1 X106.56 Y103.25 E28.8871
G1 X106.20 Y102.90 E28.9095
G1 X105.77 Y102.63 E28.9322
G1 X105.29 Y102.46 E28.9550
G1 X104.75 Y102.40 E28.9793
G1 X104.29 Y102.44 E28.9999
G1 X103.81 Y102.60 E29.0226
G1 X103.37 Y102.85 E29.0452
G1 X103.00 Y103.18 E29.0673
G1 X102.70 Y103.59 E29.0900
G1 X102.50 Y104.06 E29.1129
G1 X102.41 Y104.55 E29.1351
;infill
G1 X101.56 Y104.86 F4200
G1 X101.56 Y104.45 E29.1535 F600
G1 X101.68 Y103.85 E29.1808
G1 X101.88 Y103.34 E29.2053
G1 X102.13 Y102.93 E29.2268
G1 X102.39 Y102.60 E29.2456
G1 X102.90 Y102.14 E29.2763
G1 X103.47 Y101.82 E29.3055
G1 X103.72 Y101.71 E29.3177
G1 X104.37 Y101.58 E29.3473
G1 X104.79 Y101.56 E29.3661
G1 X105.45 Y101.63 E29.3958
G1 X106.03 Y101.82 E29.4231
G1 X106.52 Y102.09 E29.4481
G1 X106.90 Y102.39 E29.4697
G1 X107.19 Y102.68 E29.4881
G1 X107.42 Y103.00 E29.5057
G1 X107.61 Y103.31 E29.5219
G1 X107.84 Y103.94 E29.5519
G1 X107.95 Y104.61 E29.5823
G1 X107.91 Y105.25 E29.6109
G1 X107.77 Y105.80 E29.6363
G1 X107.56 Y106.27 E29.6593
G1 X107.38 Y106.57 E29.6749
G1 X106.98 Y107.04 E29.7025
G1 X106.61 Y107.36 E29.7244
G1 X106.21 Y107.60 E29.7453
G1 X105.75 Y107.78 E29.7673
G1 X105.16 Y107.92 E29.7944
G1 X104.50 Y107.94 E29.8240
G1 X103.80 Y107.80 E29.8559
G1 X103.17 Y107.53 E29.8865
G1 X102.63 Y107.14 E29.9163
G1 X102.14 Y106.60 E29.9489
G1 X102.16 Y106.28 E29.9632
G1 X102.12 Y106.14 E29.9697
G1 X101.79 Y105.97 E29.9863
G1 X101.61 Y105.37 E30.0143
G1 X101.56 Y104.86 E30.0372
;shell
G1 E25.0372 F2700
G1 X111.60 Y104.63 F4200
G1 E30.0372 F2700
G1 X111.60 Y104.63 F4200
G1 X111.67 Y104.05 E30.0633 F600
G1 X111.81 Y103.53 E30.0874
G1 X111.98 Y103.14 E30.1064
G1 X112.25 Y102.67 E30.1306
G1 X112.52 Y102.33 E30.1501
G1 X112.91 Y101.95 E30.1744
G1 X113.26 Y101.69 E30.1939
G1 X113.76 Y101.42 E30.2193
G1 X114.28 Y101.23 E30.2440
G1 X114.81 Y101.13 E30.2681
G1 X115.25 Y101.10 E30.2879
G1 X115.80 Y101.14 E30.3125
G1 X116.33 Y101.27 E30.3369
G1 X116.73 Y101.42 E30.3560
G1 X117.24 Y101.69 E30.3818
G1 X117.66 Y102.02 E30.4057
G1 X117.97 Y102.31 E30.4247
G1 X118.30 Y102.75 E30.4492
G1 X118.52 Y103.13 E30.4689
G1 X118.72 Y103.63 E30.4929
G1 X118.83 Y104.05 E30.5123
G1 X118.89 Y104.59 E30.5366
G1 X118.89 Y105.02 E30.5559
G1 X118.81 Y105.57 E30.5807
G1 X118.69 Y105.97 E30.5994
G1 X118.46 Y106.48 E30.6244
G1 X118.24 Y106.85 E30.6436
G1 X117.88 Y107.28 E30.6687
G1 X117.46 Y107.65 E30.6937
G1 X117.01 Y107.95 E30.7179
G1 X116.61 Y108.13 E30.7375
G1 X116.11 Y108.30 E30.7611
G1 X115.67 Y108.37 E30.7810
G1 X115.13 Y108.40 E30.8052
G1 X114.70 Y108.36 E30.8245
G1 X114.17 Y108.23 E30.8489
G1 X113.77 Y108.08 E30.8680
G1 X113.26 Y107.81 E30.8938
G1 X112.84 Y107.48 E30.9177
G1 X112.53 Y107.18 E30.9369
G1 X112.20 Y106.75 E30.9612
G1 X111.98 Y106.37 E30.9808
G1 X111.78 Y105.87 E31.0049
G1 X111.67 Y105.45 E31.0243
G1 X111.60 Y104.90 E31.0491
G1 X111.60 Y104.63 E31.0611
G1 X111.20 Y104.60 F4200
G1 X111.27 Y103.98 E31.0890 F600
G1 X111.43 Y103.40 E31.1159
G1 X111.62 Y102.96 E31.1373
G1 X111.92 Y102.44 E31.1642
G1 X112.23 Y102.06 E31.1861
G1 X112.65 Y101.64 E31.2127
G1 X113.05 Y101.35 E31.2347
G1 X113.60 Y101.05 E31.2628
G1 X114.18 Y100.84 E31.2903
G1 X114.76 Y100.73 E31.3167
G1 X115.25 Y100.70 E31.3387
G1 X115.86 Y100.75 E31.3660
G1 X116.45 Y100.88 E31.3930
G1 X116.90 Y101.05 E31.4145
G1 X117.46 Y101.35 E31.4429
G1 X117.92 Y101.71 E31.4690
G1 X118.27 Y102.05 E31.4909
G1 X118.64 Y102.53 E31.5179
G1 X118.88 Y102.96 E31.5400
G1 X119.10 Y103.50 E31.5660
G1 X119.23 Y103.98 E31.5882
G1 X119.30 Y104.57 E31.6148
G1 X119.29 Y105.06 E31.6367
G1 X119.20 Y105.65 E31.6634
G1 X119.06 Y106.12 E31.6853
G1 X118.82 Y106.66 E31.7117
G1 X118.56 Y107.08 E31.7338
G1 X118.17 Y107.56 E31.7615
G1 X117.71 Y107.97 E31.7890
G1 X117.21 Y108.29 E31.8155
G1 X116.76 Y108.51 E31.8379
G1 X116.20 Y108.69 E31.8642
G1 X115.72 Y108.77 E31.8860
G1 X115.12 Y108.80 E31.9128
G1 X114.64 Y108.75 E31.9344
G1 X114.05 Y108.62 E31.9614
G1 X113.60 Y108.45 E31.9829
G1 X113.04 Y108.15 E32.0113
G1 X112.58 Y107.79 E32.0374
G1 X112.23 Y107.45 E32.0592
G1 X111.86 Y106.97 E32.0863
G1 X111.62 Y106.54 E32.1083
G1 X111.40 Y106.00 E32.1344
G1 X111.27 Y105.52 E32.1566
G1 X111.20 Y104.93 E32.1832
G1 X111.20 Y104.60 E32.1980
G1 X112.51 Y104.52 F4200
G1 X112.54 Y105.25 E32.2306 F600
G1 X112.71 Y105.82 E32.2572
G1 X113.00 Y106.33 E32.2834
G1 X113.39 Y106.78 E32.3100
G1 X113.86 Y107.13 E32.3362
G1 X114.40 Y107.37 E32.3627
G1 X114.98 Y107.49 E32.3891
G1 X115.57 Y107.49 E32.4155
G1 X116.14 Y107.35 E32.4417
G1 X116.68 Y107.10 E32.4683
G1 X117.15 Y106.75 E32.4945
G1 X117.53 Y106.29 E32.5212
G1 X117.81 Y105.77 E32.5476
G1 X117.96 Y105.20 E32.5740
G1 X118.00 Y104.61 E32.6004
G1 X117.91 Y104.03 E32.6266
G1 X117.69 Y103.48 E32.6531
G1 X117.37 Y102.99 E32.6793
G1 X116.94 Y102.58 E32.7058
G1 X116.44 Y102.27 E32.7321
G1 X115.88 Y102.07 E32.7587
G1 X115.26 Y102.00 E32.7866
G1 X114.71 Y102.05 E32.8113
G1 X114.15 Y102.23 E32.8376
G1 X113.64 Y102.52 E32.8638
G1 X113.20 Y102.92 E32.8904
G1 X112.86 Y103.39 E32.9163
G1 X112.62 Y103.94 E32.9431
G1 X112.51 Y104.52 E32.9695
G1 X112.91 Y104.55 F4200
G1 X112.94 Y105.18 E32.9977 F600
G1 X113.08 Y105.66 E33.0201
G1 X113.33 Y106.10 E33.0427
G1 X113.66 Y106.48 E33.0652
G1 X114.07 Y106.78 E33.0879
G1 X114.53 Y106.99 E33.1105
G1 X115.02 Y107.09 E33.1329
G1 X115.52 Y107.09 E33.1552
G1 X116.01 Y106.97 E33.1778
G1 X116.47 Y106.76 E33.2004
G1 X116.87 Y106.45 E33.2230
G1 X117.20 Y106.07 E33.2455
G1 X117.43 Y105.62 E33.2681
G1 X117.57 Y105.14 E33.2904
G1 X117.60 Y104.63 E33.3133
G1 X117.52 Y104.14 E33.3355
G1 X117.34 Y103.67 E33.3580
G1 X117.06 Y103.25 E33.3805
G1 X116.70 Y102.90 E33.4030
G1 X116.27 Y102.63 E33.4257
G1 X115.79 Y102.46 E33.4484
G1 X115.25 Y102.40 E33.4727
G1 X114.79 Y102.44 E33.4934
G1 X114.31 Y102.60 E33.5160
G1 X113.87 Y102.85 E33.5386
G1 X113.50 Y103.18 E33.5608
G1 X113.20 Y103.59 E33.5835
G1 X113.00 Y104.06 E33.6063
G1 X112.91 Y104.55 E33.6286
;infill
G1 X112.06 Y104.86 F4200
G1 X112.06 Y104.45 E33.6469 F600
G1 X112.18 Y103.85 E33.6743
G1 X112.38 Y103.34 E33.6987
G1 X112.63 Y102.93 E33.7202
G1 X112.89 Y102.60 E33.7390
G1 X113.40 Y102.14 E33.7697
G1 X113.97 Y101.82 E33.7989
G1 X114.22 Y101.71 E33.8111
G1 X114.87 Y101.58 E33.8408
G1 X115.29 Y101.56 E33.8595
G1 X115.95 Y101.63 E33.8892
G1 X116.53 Y101.82 E33.9165
G1 X117.02 Y102.09 E33.9415
G1 X117.40 Y102.39 E33.9631
G1 X117.69 Y102.68 E33.9815
G1 X117.92 Y103.00 E33.9991
G1 X118.11 Y103.31 E34.0153
G1 X118.34 Y103.94 E34.0453
G1 X118.45 Y104.61 E34.0757
G1 X118.41 Y105.25 E34.1043
G1 X118.27 Y105.80 E34.1297
G1 X118.06 Y106.27 E34.1527
G1 X117.88 Y106.57 E34.1684
G1 X117.48 Y107.04 E34.1960
G1 X117.11 Y107.36 E34.2178
G1 X116.71 Y107.60 E34.2387
G1 X116.25 Y107.78 E34.2608
G1 X115.66 Y107.92 E34.2879
G1 X115.00 Y107.94 E34.3174
G1 X114.30 Y107.80 E34.3493
G1 X113.67 Y107.53 E34.3799
G1 X113.13 Y107.14 E34.4097
G1 X112.64 Y106.60 E34.4423
G1 X112.66 Y106.28 E34.4566
G1 X112.62 Y106.14 E34.4631
G1 X112.29 Y105.97 E34.4797
G1 X112.11 Y105.37 E34.5077
G1 X112.06 Y104.86 E34.5306
;shell
G1 E29.5306 F2700
G1 X111.60 Y115.13 F4200
G1 E34.5306 F2700
G1 X111.60 Y115.13 F4200
G1 X111.67 Y114.55 E34.5568 F600
G1 X111.80 Y114.05 E34.5799
G1 X111.98 Y113.63 E34.6003
G1 X112.25 Y113.18 E34.6237
G1 X112.53 Y112.82 E34.6441
G1 X112.91 Y112.45 E34.6678
G1 X113.26 Y112.19 E34.6873
G1 X113.76 Y111.92 E34.7127
G1 X114.28 Y111.73 E34.7375
G1 X114.79 Y111.63 E34.7607
G1 X115.25 Y111.60 E34.7813
G1 X115.80 Y111.64 E34.8060
G1 X116.32 Y111.76 E34.8298
G1 X116.74 Y111.92 E34.8499
G1 X117.24 Y112.19 E34.8753
G1 X117.65 Y112.50 E34.8983
G1 X117.97 Y112.82 E34.9185
G1 X118.30 Y113.24 E34.9424
G1 X118.52 Y113.62 E34.9620
G1 X118.72 Y114.12 E34.9861
G1 X118.83 Y114.55 E35.0059
G1 X118.89 Y115.08 E35.0298
G1 X118.89 Y115.53 E35.0499
G1 X118.81 Y116.05 E35.0734
G1 X118.69 Y116.48 E35.0934
G1 X118.47 Y116.96 E35.1170
G1 X118.23 Y117.35 E35.1374
G1 X117.88 Y117.78 E35.1622
G1 X117.46 Y118.15 E35.1872
G1 X117.02 Y118.44 E35.2108
G1 X116.62 Y118.63 E35.2306
G1 X116.12 Y118.79 E35.2541
G1 X115.68 Y118.87 E35.2740
G1 X115.14 Y118.90 E35.2982
G1 X114.69 Y118.86 E35.3184
G1 X114.18 Y118.74 E35.3418
G1 X113.76 Y118.58 E35.3619
G1 X113.26 Y118.31 E35.3873
G1 X112.85 Y118.00 E35.4103
G1 X112.53 Y117.68 E35.4305
G1 X112.20 Y117.26 E35.4544
G1 X111.98 Y116.88 E35.4740
G1 X111.78 Y116.38 E35.4981
G1 X111.67 Y115.95 E35.5180
G1 X111.61 Y115.42 E35.5418
G1 X111.60 Y115.13 E35.5548
G1 X111.20 Y115.10 F4200
G1 X111.27 Y114.48 E35.5827 F600
G1 X111.43 Y113.92 E35.6087
G1 X111.62 Y113.45 E35.6314
G1 X111.91 Y112.96 E35.6568
G1 X112.23 Y112.56 E35.6797
G1 X112.65 Y112.15 E35.7059
G1 X113.04 Y111.86 E35.7277
G1 X113.60 Y111.55 E35.7563
G1 X114.18 Y111.34 E35.7839
G1 X114.74 Y111.23 E35.8094
G1 X115.25 Y111.20 E35.8322
G1 X115.86 Y111.25 E35.8596
G1 X116.44 Y111.38 E35.8861
G1 X116.90 Y111.55 E35.9081
G1 X117.46 Y111.85 E35.9365
G1 X117.91 Y112.20 E35.9619
G1 X118.27 Y112.55 E35.9844
G1 X118.63 Y113.01 E36.0105
G1 X118.88 Y113.45 E36.0331
G1 X119.10 Y113.99 E36.0592
G1 X119.22 Y114.47 E36.0813
G1 X119.29 Y115.06 E36.1079
G1 X119.29 Y115.56 E36.1302
G1 X119.20 Y116.13 E36.1560
G1 X119.06 Y116.61 E36.1784
G1 X118.83 Y117.15 E36.2046
G1 X118.56 Y117.58 E36.2273
G1 X118.17 Y118.06 E36.2549
G1 X117.70 Y118.47 E36.2828
G1 X117.22 Y118.79 E36.3086
G1 X116.76 Y119.01 E36.3314
G1 X116.22 Y119.18 E36.3567
G1 X115.71 Y119.27 E36.3799
G1 X115.13 Y119.30 E36.4058
G1 X114.64 Y119.25 E36.4278
G1 X114.06 Y119.12 E36.4544
G1 X113.60 Y118.95 E36.4763
G1 X113.04 Y118.65 E36.5047
G1 X112.59 Y118.30 E36.5302
G1 X112.23 Y117.95 E36.5527
G1 X111.87 Y117.49 E36.5788
G1 X111.62 Y117.05 E36.6014
G1 X111.40 Y116.51 E36.6275
G1 X111.28 Y116.03 E36.6496
G1 X111.21 Y115.44 E36.6761
G1 X111.20 Y115.10 E36.6913
G1 X112.50 Y115.14 F4200
G1 X112.55 Y115.77 E36.7196 F600
G1 X112.72 Y116.33 E36.7457
G1 X113.01 Y116.85 E36.7724
G1 X113.40 Y117.29 E36.7986
G1 X113.88 Y117.63 E36.8249
G1 X114.42 Y117.87 E36.8514
G1 X114.99 Y117.99 E36.8774
G1 X115.58 Y117.98 E36.9038
G1 X116.16 Y117.85 E36.9303
G1 X116.69 Y117.60 E36.9565
G1 X117.16 Y117.23 E36.9833
G1 X117.54 Y116.78 E37.0096
G1 X117.81 Y116.26 E37.0358
G1 X117.97 Y115.69 E37.0623
G1 X118.00 Y115.10 E37.0887
G1 X117.91 Y114.52 E37.1149
G1 X117.69 Y113.97 E37.1414
G1 X117.36 Y113.48 E37.1678
G1 X116.93 Y113.07 E37.1943
G1 X116.43 Y112.76 E37.2206
G1 X115.87 Y112.57 E37.2471
G1 X115.23 Y112.50 E37.2759
G1 X114.59 Y112.58 E37.3047
G1 X114.00 Y112.79 E37.3327
G1 X113.51 Y113.12 E37.3591
G1 X113.09 Y113.54 E37.3856
G1 X112.78 Y114.04 E37.4119
G1 X112.58 Y114.59 E37.4381
G1 X112.50 Y115.14 E37.4629
G1 X112.90 Y115.16 F4200
G1 X112.94 Y115.69 E37.4867 F600
G1 X113.09 Y116.17 E37.5092
G1 X113.34 Y116.61 E37.5318
G1 X113.67 Y116.99 E37.5543
G1 X114.08 Y117.29 E37.5770
G1 X114.54 Y117.49 E37.5994
G1 X115.03 Y117.59 E37.6218
G1 X115.54 Y117.58 E37.6446
G1 X116.03 Y117.47 E37.6670
G1 X116.48 Y117.25 E37.6894
G1 X116.88 Y116.94 E37.7121
G1 X117.20 Y116.56 E37.7343
G1 X117.44 Y116.11 E37.7571
G1 X117.57 Y115.62 E37.7797
G1 X117.60 Y115.12 E37.8021
G1 X117.52 Y114.62 E37.8247
G1 X117.33 Y114.15 E37.8474
G1 X117.05 Y113.74 E37.8696
G1 X116.69 Y113.39 E37.8920
G1 X116.25 Y113.13 E37.9149
