;generated by ffslicer 1.30.3 09/11/23 15:25:01
;right_extruder_material: PLA
;layer_height: 0.2
;perimeter_shells: 2
;top_solid_layers: 4
;bottom_solid_layers: 3
;fill_density: 15%
;fill_pattern: hexagon
;base_print_speed: 50
;travel_speed: 80
;right_extruder_temperature: 200
;left_extruder_temperature: 0
;platform_temperature: 60
;right_extruder_temperature_raft0: 0
;left_extruder_temperature_raft0: 0
;right_extruder_temperature_reset: 
;left_extruder_temperature_reset: 
;start gcode
M140 S60 T0
M104 S200 T0
M104 S0 T1
G90
G28
G1 Z50.000 F420
G161 X Y F3300
M190 S60 T0
M109 S200 T0
M109 S0 T1
G92 E.0000
;layer_count: 7
M108 T0
G1 X93.81 Y82.00 F4800
;preExtrude:0.20
;preExtruder0
M106 S255
G1 Z.200 F420
G1 X93.81 Y82.00 F4800
G1 X131.46 Y82.00 E4.8086 F1200
G1 X133.01 Y82.15 E5.0075
G1 X134.49 Y82.49 E5.2015
G1 X135.83 Y82.98 E5.3837
G1 X137.16 Y83.64 E5.5733
G1 X138.58 Y84.60 E5.7922
G1 X139.71 Y85.61 E5.9858
G1 X140.70 Y86.73 E6.1767
G1 X141.65 Y88.16 E6.3960
G1 X142.31 Y89.52 E6.5891
G1 X142.81 Y90.93 E6.7801
G1 X143.16 Y92.61 E6.9993
G1 X143.25 Y93.93 E7.1683
G1 X143.25 Y125.98 E11.2617
G1 X143.15 Y127.41 E11.4448
G1 X142.84 Y128.96 E11.6466
G1 X142.27 Y130.59 E11.8672
G1 X141.55 Y132.00 E12.0694
G1 X140.57 Y133.42 E12.2897
G1 X139.55 Y134.54 E12.4832
G1 X138.48 Y135.47 E12.6643
G1 X137.24 Y136.31 E12.8556
G1 X135.62 Y137.12 E13.0869
G1 X133.91 Y137.66 E13.3159
G1 X132.43 Y137.93 E13.5081
G1 X131.24 Y138.00 E13.6603
G1 X89.11 Y138.00 E19.0411
G1 X88.06 Y137.98 E19.1753
G1 X86.58 Y137.78 E19.3660
G1 X84.93 Y137.32 E19.5848
G1 X83.48 Y136.70 E19.7862
G1 X82.00 Y135.82 E20.0061
G1 X80.75 Y134.83 E20.2098
G1 X79.56 Y133.59 E20.4293
G1 X78.63 Y132.30 E20.6324
G1 X77.81 Y130.79 E20.8518
G1 X77.28 Y129.37 E21.0454
G1 X76.93 Y127.92 E21.2359
G1 X76.75 Y126.32 E21.4416
G1 X76.75 Y94.20 E25.5439
;raft
;layer:0.29
;shell
G1 E20.5439 F2700
G1 Z.290 F420
G1 X85.35 Y94.37 F4200
G1 E25.5439 F2700
G1 X85.35 Y94.37 F4200
G1 X85.38 Y93.79 E25.5708 F600
G1 X85.49 Y93.26 E25.5958
G1 X85.63 Y92.84 E25.6163
G1 X85.82 Y92.47 E25.6356
G1 X86.13 Y92.00 E25.6617
G1 X86.41 Y91.68 E25.6813
G1 X86.72 Y91.41 E25.7004
G1 X87.18 Y91.09 E25.7263
G1 X87.56 Y90.90 E25.7460
G1 X88.09 Y90.72 E25.7719
G1 X88.50 Y90.64 E25.7912
G1 X89.01 Y90.60 E25.8149
G1 X89.50 Y90.64 E25.8377
G1 X89.90 Y90.71 E25.8565
G1 X90.43 Y90.89 E25.8824
G1 X90.82 Y91.08 E25.9025
G1 X91.28 Y91.40 E25.9284
G1 X91.68 Y91.77 E25.9537
G1 X91.95 Y92.11 E25.9738
G1 X92.24 Y92.58 E25.9993
G1 X92.42 Y92.97 E26.0192
G1 X92.57 Y93.51 E26.0452
G1 X92.64 Y93.93 E26.0649
G1 X92.65 Y94.36 E26.0848
G1 X92.61 Y94.77 E26.1039
G1 X92.49 Y95.31 E26.1295
G1 X92.34 Y95.72 E26.1497
G1 X92.08 Y96.21 E26.1754
G1 X91.74 Y96.66 E26.2015
G1 X91.44 Y96.96 E26.2211
G1 X91.01 Y97.30 E26.2465
G1 X90.63 Y97.51 E26.2666
G1 X90.12 Y97.72 E26.2921
G1 X89.70 Y97.83 E26.3122
G1 X89.15 Y97.90 E26.3379
G1 X88.72 Y97.89 E26.3578
G1 X88.31 Y97.83 E26.3770
G1 X87.76 Y97.68 E26.4034
G1 X87.38 Y97.52 E26.4225
G1 X86.90 Y97.23 E26.4485
G1 X86.57 Y96.97 E26.4679
G1 X86.18 Y96.56 E26.4941
G1 X85.93 Y96.22 E26.5136
G1 X85.66 Y95.72 E26.5400
G1 X85.51 Y95.32 E26.5597
G1 X85.41 Y94.92 E26.5788
G1 X85.35 Y94.37 E26.6044
G1 X84.95 Y94.38 F4200
G1 X84.98 Y93.74 E26.6341 F600
G1 X85.10 Y93.15 E26.6620
G1 X85.26 Y92.69 E26.6845
G1 X85.47 Y92.28 E26.7059
G1 X85.81 Y91.76 E26.7346
G1 X86.12 Y91.40 E26.7566
G1 X86.47 Y91.09 E26.7783
G1 X86.98 Y90.74 E26.8069
G1 X87.41 Y90.53 E26.8290
G1 X87.98 Y90.33 E26.8570
G1 X88.45 Y90.24 E26.8792
G1 X89.01 Y90.20 E26.9052
G1 X89.55 Y90.24 E26.9302
G1 X90.00 Y90.33 E26.9515
G1 X90.58 Y90.52 E26.9797
G1 X91.02 Y90.74 E27.0025
G1 X91.53 Y91.09 E27.0312
G1 X91.97 Y91.50 E27.0590
G1 X92.28 Y91.88 E27.0817
G1 X92.60 Y92.39 E27.1096
G1 X92.80 Y92.84 E27.1324
G1 X92.97 Y93.42 E27.1604
G1 X93.03 Y93.90 E27.1828
G1 X93.05 Y94.37 E27.2045
G1 X93.01 Y94.83 E27.2259
G1 X92.87 Y95.43 E27.2544
G1 X92.71 Y95.88 E27.2765
G1 X92.42 Y96.43 E27.3053
G1 X92.04 Y96.92 E27.3340
G1 X91.71 Y97.26 E27.3560
G1 X91.23 Y97.63 E27.3840
G1 X90.81 Y97.87 E27.4064
G1 X90.25 Y98.10 E27.4345
G1 X89.78 Y98.22 E27.4569
G1 X89.17 Y98.30 E27.4854
G1 X88.69 Y98.29 E27.5076
G1 X88.23 Y98.23 E27.5291
G1 X87.64 Y98.06 E27.5575
G1 X87.20 Y97.88 E27.5795
G1 X86.67 Y97.56 E27.6082
G1 X86.30 Y97.26 E27.6303
G1 X85.87 Y96.82 E27.6588
G1 X85.59 Y96.43 E27.6810
G1 X85.30 Y95.89 E27.7094
G1 X85.13 Y95.44 E27.7316
G1 X85.02 Y94.99 E27.7531
G1 X84.95 Y94.38 E27.7815
G1 X86.25 Y94.25 F4200
G1 X86.32 Y94.86 E27.8099 F600
G1 X86.51 Y95.42 E27.8373
G1 X86.82 Y95.93 E27.8649
G1 X87.23 Y96.36 E27.8925
G1 X87.72 Y96.69 E27.9198
G1 X88.28 Y96.91 E27.9477
G1 X88.86 Y97.00 E27.9748
G1 X89.46 Y96.96 E28.0027
G1 X90.04 Y96.80 E28.0305
G1 X90.56 Y96.52 E28.0579
G1 X91.01 Y96.13 E28.0854
G1 X91.37 Y95.66 E28.1129
G1 X91.61 Y95.12 E28.1402
G1 X91.74 Y94.53 E28.1682
G1 X91.74 Y93.94 E28.1955
G1 X91.60 Y93.36 E28.2231
G1 X91.35 Y92.82 E28.2507
G1 X90.99 Y92.34 E28.2785
G1 X90.53 Y91.96 E28.3061
G1 X90.00 Y91.69 E28.3336
G1 X89.43 Y91.53 E28.3610
G1 X88.84 Y91.50 E28.3884
G1 X88.25 Y91.60 E28.4161
G1 X87.69 Y91.83 E28.4441
G1 X87.21 Y92.16 E28.4711
G1 X86.80 Y92.59 E28.4986
G1 X86.50 Y93.11 E28.5264
G1 X86.31 Y93.67 E28.5538
G1 X86.25 Y94.25 E28.5808
G1 X86.65 Y94.25 F4200
G1 X86.71 Y94.77 E28.6050 F600
G1 X86.87 Y95.25 E28.6284
G1 X87.14 Y95.68 E28.6519
G1 X87.49 Y96.05 E28.6755
G1 X87.91 Y96.33 E28.6989
G1 X88.38 Y96.52 E28.7224
G1 X88.89 Y96.60 E28.7463
G1 X89.39 Y96.57 E28.7694
G1 X89.88 Y96.43 E28.7930
G1 X90.33 Y96.19 E28.8166
G1 X90.72 Y95.86 E28.8403
G1 X91.02 Y95.45 E28.8638
G1 X91.23 Y94.99 E28.8872
G1 X91.34 Y94.49 E28.9109
G1 X91.34 Y93.98 E28.9345
G1 X91.22 Y93.49 E28.9579
G1 X91.01 Y93.03 E28.9813
G1 X90.70 Y92.62 E29.0051
G1 X90.31 Y92.30 E29.0285
G1 X89.86 Y92.06 E29.0521
G1 X89.37 Y91.93 E29.0756
G1 X88.86 Y91.90 E29.0992
G1 X88.36 Y91.99 E29.1227
G1 X87.89 Y92.18 E29.1462
G1 X87.47 Y92.47 E29.1698
G1 X87.12 Y92.84 E29.1934
G1 X86.86 Y93.28 E29.2171
G1 X86.70 Y93.76 E29.2405
G1 X86.65 Y94.25 E29.2633
;infill
G1 X86.52 Y94.81 F4200
G1 X86.70 Y95.33
G1 X86.99 Y95.80
G1 X87.37 Y96.19
G1 X87.82 Y96.50
G1 X89.83 Y97.37
G1 X89.83 Y97.37
G1 X89.13 Y97.44 E29.2959 F600
G1 X88.58 Y97.41 E29.3214
G1 X88.13 Y97.32 E29.3426
G1 X87.55 Y97.10 E29.3713
G1 X86.97 Y96.72 E29.4034
G1 X86.53 Y96.28 E29.4323
G1 X86.23 Y95.84 E29.4569
G1 X86.02 Y95.41 E29.4791
G1 X85.89 Y94.99 E29.4994
G1 X85.81 Y94.29 E29.5320
G1 X85.81 Y94.01 E29.5450
G1 X85.93 Y93.35 E29.5761
G1 X86.10 Y92.90 E29.5983
G1 X86.46 Y92.30 E29.6307
G1 X86.89 Y91.84 E29.6599
G1 X87.42 Y91.47 E29.6898
G1 X87.72 Y91.32 E29.7053
G1 X88.20 Y91.15 E29.7289
G1 X88.84 Y91.06 E29.7588
G1 X89.45 Y91.08 E29.7871
G1 X89.96 Y91.17 E29.8111
G1 X90.59 Y91.48 E29.8436
G1 X90.99 Y91.75 E29.8659
G1 X91.33 Y92.06 E29.8872
G1 X91.71 Y92.56 E29.9163
G1 X91.99 Y93.12 E29.9453
G1 X92.14 Y93.69 E29.9726
G1 X92.19 Y93.97 E29.9857
G1 X92.18 Y94.62 E30.0158
G1 X92.03 Y95.29 E30.0476
G1 X91.76 Y95.87 E30.0772
G1 X91.40 Y96.37 E30.1058
G1 X91.15 Y96.61 E30.1218
G1 X90.75 Y96.93 E30.1455
G1 X90.28 Y97.24 E30.1716
G1 X90.01 Y97.21 F4200
G1 X90.11 Y97.47 E30.1845 F600
;shell
G1 E25.1845 F2700
G1 X95.85 Y94.22 F4200
G1 E30.1845 F2700
G1 X95.85 Y94.22 F4200
G1 X95.90 Y93.66 E30.2105 F600
G1 X95.99 Y93.25 E30.2300
G1 X96.13 Y92.84 E30.2500
G1 X96.38 Y92.36 E30.2751
G1 X96.63 Y92.00 E30.2954
G1 X97.00 Y91.59 E30.3209
G1 X97.33 Y91.32 E30.3407
G1 X97.80 Y91.02 E30.3665
G1 X98.19 Y90.85 E30.3862
G1 X98.72 Y90.68 E30.4120
G1 X99.15 Y90.62 E30.4321
G1 X99.57 Y90.60 E30.4515
G1 X100.12 Y90.65 E30.4771
G1 X100.54 Y90.75 E30.4971
G1 X101.05 Y90.95 E30.5224
G1 X101.43 Y91.15 E30.5423
G1 X101.89 Y91.49 E30.5688
G1 X102.19 Y91.78 E30.5881
G1 X102.53 Y92.22 E30.6139
G1 X102.75 Y92.59 E30.6338
G1 X102.96 Y93.10 E30.6593
G1 X103.07 Y93.52 E30.6794
G1 X103.14 Y93.93 E30.6987
G1 X103.15 Y94.36 E30.7186
G1 X103.11 Y94.77 E30.7377
G1 X102.99 Y95.31 E30.7633
G1 X102.84 Y95.72 E30.7835
G1 X102.65 Y96.09 E30.8028
G1 X102.34 Y96.54 E30.8281
G1 X102.04 Y96.87 E30.8487
G1 X101.72 Y97.14 E30.8681
G1 X101.38 Y97.38 E30.8874
G1 X100.88 Y97.63 E30.9132
G1 X100.47 Y97.77 E30.9333
G1 X99.93 Y97.87 E30.9587
G1 X99.50 Y97.90 E30.9787
G1 X98.96 Y97.86 E31.0038
G1 X98.53 Y97.77 E31.0241
G1 X98.01 Y97.58 E31.0497
G1 X97.63 Y97.38 E31.0696
G1 X97.17 Y97.06 E31.0956
G1 X96.87 Y96.78 E31.1146
G1 X96.51 Y96.34 E31.1409
G1 X96.22 Y95.85 E31.1672
G1 X96.06 Y95.47 E31.1863
G1 X95.91 Y94.92 E31.2127
G1 X95.86 Y94.49 E31.2328
G1 X95.85 Y94.22 E31.2453
G1 X95.45 Y94.21 F4200
G1 X95.50 Y93.60 E31.2736 F600
G1 X95.61 Y93.14 E31.2955
G1 X95.76 Y92.69 E31.3175
G1 X96.04 Y92.15 E31.3456
G1 X96.31 Y91.75 E31.3680
G1 X96.73 Y91.30 E31.3965
G1 X97.09 Y90.99 E31.4185
G1 X97.61 Y90.67 E31.4467
G1 X98.05 Y90.47 E31.4691
G1 X98.63 Y90.29 E31.4972
G1 X99.11 Y90.22 E31.5197
G1 X99.58 Y90.20 E31.5415
G1 X100.18 Y90.26 E31.5694
G1 X100.65 Y90.37 E31.5917
G1 X101.22 Y90.59 E31.6200
G1 X101.65 Y90.81 E31.6424
G1 X102.15 Y91.19 E31.6715
G1 X102.48 Y91.51 E31.6927
G1 X102.86 Y91.99 E31.7211
G1 X103.11 Y92.41 E31.7437
G1 X103.34 Y92.97 E31.7717
G1 X103.47 Y93.43 E31.7939
G1 X103.53 Y93.90 E31.8158
G1 X103.55 Y94.37 E31.8376
G1 X103.51 Y94.83 E31.8590
G1 X103.37 Y95.43 E31.8875
G1 X103.21 Y95.88 E31.9096
G1 X102.99 Y96.30 E31.9316
G1 X102.65 Y96.80 E31.9595
G1 X102.32 Y97.16 E31.9822
G1 X101.97 Y97.46 E32.0035
G1 X101.59 Y97.72 E32.0248
G1 X101.03 Y98.00 E32.0538
G1 X100.58 Y98.15 E32.0758
G1 X99.98 Y98.27 E32.1041
G1 X99.50 Y98.30 E32.1264
G1 X98.90 Y98.25 E32.1542
G1 X98.42 Y98.15 E32.1769
G1 X97.85 Y97.95 E32.2049
G1 X97.42 Y97.72 E32.2275
G1 X96.92 Y97.37 E32.2557
G1 X96.57 Y97.05 E32.2777
G1 X96.18 Y96.57 E32.3063
G1 X95.86 Y96.03 E32.3354
G1 X95.68 Y95.59 E32.3574
G1 X95.52 Y95.00 E32.3857
G1 X95.46 Y94.53 E32.4076
G1 X95.45 Y94.21 E32.4225
G1 X96.75 Y94.25 F4200
G1 X96.81 Y94.86 E32.4508 F600
G1 X97.01 Y95.42 E32.4784
G1 X97.32 Y95.93 E32.5060
G1 X97.73 Y96.36 E32.5335
G1 X98.22 Y96.69 E32.5609
G1 X98.78 Y96.91 E32.5887
G1 X99.36 Y97.00 E32.6159
G1 X99.96 Y96.96 E32.6437
G1 X100.54 Y96.80 E32.6716
G1 X101.06 Y96.52 E32.6989
G1 X101.51 Y96.13 E32.7265
G1 X101.87 Y95.66 E32.7539
G1 X102.11 Y95.12 E32.7813
G1 X102.24 Y94.53 E32.8092
G1 X102.24 Y93.94 E32.8366
G1 X102.10 Y93.36 E32.8642
G1 X101.85 Y92.82 E32.8917
G1 X101.49 Y92.35 E32.9191
G1 X101.03 Y91.96 E32.9471
G1 X100.50 Y91.69 E32.9746
G1 X99.93 Y91.53 E33.0020
G1 X99.34 Y91.50 E33.0294
G1 X98.75 Y91.60 E33.0571
G1 X98.19 Y91.83 E33.0851
G1 X97.71 Y92.16 E33.1121
G1 X97.30 Y92.59 E33.1396
G1 X97.00 Y93.11 E33.1674
G1 X96.81 Y93.67 E33.1948
G1 X96.75 Y94.25 E33.2217
G1 X97.15 Y94.25 F4200
G1 X97.21 Y94.77 E33.2460 F600
G1 X97.37 Y95.25 E33.2694
G1 X97.64 Y95.68 E33.2929
G1 X97.99 Y96.05 E33.3165
G1 X98.41 Y96.33 E33.3399
G1 X98.88 Y96.52 E33.3633
G1 X99.39 Y96.60 E33.3872
G1 X99.89 Y96.57 E33.4104
G1 X100.38 Y96.43 E33.4340
G1 X100.83 Y96.19 E33.4576
G1 X101.22 Y95.86 E33.4813
G1 X101.52 Y95.45 E33.5048
G1 X101.73 Y94.99 E33.5282
G1 X101.84 Y94.49 E33.5519
G1 X101.84 Y93.98 E33.5755
G1 X101.72 Y93.49 E33.5989
G1 X101.51 Y93.03 E33.6223
G1 X101.20 Y92.62 E33.6461
G1 X100.81 Y92.30 E33.6695
G1 X100.36 Y92.06 E33.6931
G1 X99.87 Y91.93 E33.7165
G1 X99.36 Y91.90 E33.7402
G1 X98.86 Y91.99 E33.7637
G1 X98.39 Y92.18 E33.7872
G1 X97.97 Y92.47 E33.8108
G1 X97.62 Y92.84 E33.8344
G1 X97.36 Y93.28 E33.8581
G1 X97.20 Y93.76 E33.8815
G1 X97.15 Y94.25 E33.9043
;infill
G1 X96.30 Y94.22 F4200
G1 X96.36 Y94.84 E33.9331 F600
G1 X96.49 Y95.32 E33.9562
G1 X96.61 Y95.63 E33.9715
G1 X96.94 Y96.17 E34.0008
G1 X97.46 Y96.71 E34.0356
G1 X97.99 Y97.07 E34.0652
G1 X98.63 Y97.33 E34.0972
G1 X99.01 Y97.40 E34.1151
G1 X99.60 Y97.45 E34.1425
G1 X100.00 Y97.41 E34.1611
G1 X100.66 Y97.23 E34.1928
G1 X101.14 Y96.99 E34.2176
G1 X101.46 Y96.78 E34.2354
G1 X101.85 Y96.41 E34.2603
G1 X102.27 Y95.86 E34.2923
G1 X102.55 Y95.22 E34.3246
G1 X102.68 Y94.55 E34.3562
G1 X102.68 Y93.92 E34.3854
G1 X102.54 Y93.25 E34.4171
G1 X102.25 Y92.61 E34.4496
G1 X101.85 Y92.08 E34.4804
G1 X101.59 Y91.84 E34.4967
G1 X101.25 Y91.58 E34.5166
G1 X100.70 Y91.29 E34.5454
G1 X100.05 Y91.10 E34.5767
G1 X99.34 Y91.06 E34.6096
G1 X98.85 Y91.12 E34.6325
G1 X98.42 Y91.25 E34.6533
G1 X97.95 Y91.45 E34.6769
G1 X97.41 Y91.83 E34.7075
G1 X96.92 Y92.36 E34.7409
G1 X96.58 Y92.96 E34.7728
G1 X96.38 Y93.54 E34.8012
G1 X96.30 Y94.22 E34.8329
;shell
G1 E29.8329 F2700
G1 X106.35 Y94.22 F4200
G1 E34.8329 F2700
G1 X106.35 Y94.22 F4200
G1 X106.40 Y93.66 E34.8590 F600
G1 X106.49 Y93.25 E34.8784
G1 X106.69 Y92.72 E34.9046
G1 X106.96 Y92.23 E34.9305
G1 X107.22 Y91.89 E34.9504
G1 X107.60 Y91.50 E34.9756
G1 X107.94 Y91.24 E34.9954
G1 X108.43 Y90.95 E35.0217
G1 X108.81 Y90.80 E35.0407
G1 X109.37 Y90.66 E35.0674
G1 X109.78 Y90.61 E35.0865
G1 X110.34 Y90.62 E35.1124
G1 X110.76 Y90.68 E35.1321
G1 X111.30 Y90.84 E35.1582
G1 X111.68 Y91.01 E35.1774
G1 X112.17 Y91.32 E35.2043
G1 X112.49 Y91.58 E35.2234
G1 X112.86 Y91.99 E35.2489
G1 X113.11 Y92.34 E35.2688
G1 X113.36 Y92.83 E35.2943
G1 X113.51 Y93.24 E35.3145
G1 X113.62 Y93.78 E35.3400
G1 X113.65 Y94.22 E35.3605
G1 X113.63 Y94.63 E35.3795
G1 X113.53 Y95.18 E35.4053
G1 X113.40 Y95.58 E35.4248
G1 X113.15 Y96.08 E35.4507
G1 X112.92 Y96.44 E35.4705
G1 X112.55 Y96.86 E35.4964
G1 X112.22 Y97.15 E35.5167
G1 X111.88 Y97.38 E35.5357
G1 X111.38 Y97.63 E35.5616
G1 X110.98 Y97.77 E35.5812
G1 X110.43 Y97.87 E35.6071
G1 X110.00 Y97.90 E35.6271
G1 X109.46 Y97.86 E35.6522
G1 X109.03 Y97.77 E35.6725
G1 X108.51 Y97.58 E35.6981
G1 X108.12 Y97.38 E35.7184
G1 X107.78 Y97.15 E35.7374
G1 X107.36 Y96.77 E35.7636
G1 X107.09 Y96.45 E35.7830
G1 X106.85 Y96.10 E35.8027
G1 X106.61 Y95.59 E35.8288
G1 X106.48 Y95.20 E35.8478
G1 X106.37 Y94.64 E35.8742
G1 X106.35 Y94.22 E35.8937
G1 X105.95 Y94.21 F4200
G1 X106.00 Y93.60 E35.9220 F600
G1 X106.11 Y93.13 E35.9444
G1 X106.32 Y92.55 E35.9729
G1 X106.63 Y92.01 E36.0018
G1 X106.91 Y91.63 E36.0236
G1 X107.34 Y91.20 E36.0518
G1 X107.72 Y90.90 E36.0742
G1 X108.25 Y90.60 E36.1024
G1 X108.69 Y90.42 E36.1244
G1 X109.29 Y90.26 E36.1531
G1 X109.77 Y90.21 E36.1755
G1 X110.37 Y90.22 E36.2033
G1 X110.85 Y90.29 E36.2257
G1 X111.44 Y90.46 E36.2542
G1 X111.88 Y90.66 E36.2765
G1 X112.40 Y90.99 E36.3050
G1 X112.77 Y91.29 E36.3271
G1 X113.18 Y91.74 E36.3553
G1 X113.45 Y92.13 E36.3772
G1 X113.73 Y92.67 E36.4054
G1 X113.89 Y93.13 E36.4279
G1 X114.02 Y93.73 E36.4564
G1 X114.05 Y94.21 E36.4786
G1 X114.03 Y94.68 E36.5004
G1 X113.92 Y95.28 E36.5287
G1 X113.77 Y95.73 E36.5506
G1 X113.50 Y96.28 E36.5790
G1 X113.23 Y96.69 E36.6017
G1 X112.83 Y97.14 E36.6296
G1 X112.47 Y97.46 E36.6519
G1 X112.08 Y97.72 E36.6736
G1 X111.53 Y98.00 E36.7022
G1 X111.08 Y98.15 E36.7241
G1 X110.48 Y98.27 E36.7525
G1 X110.00 Y98.30 E36.7747
G1 X109.40 Y98.25 E36.8026
G1 X108.92 Y98.15 E36.8253
G1 X108.35 Y97.95 E36.8533
G1 X107.92 Y97.72 E36.8758
G1 X107.53 Y97.46 E36.8975
G1 X107.08 Y97.06 E36.9254
G1 X106.77 Y96.69 E36.9478
G1 X106.51 Y96.30 E36.9695
G1 X106.24 Y95.75 E36.9978
G1 X106.09 Y95.29 E37.0202
G1 X105.97 Y94.69 E37.0486
G1 X105.95 Y94.21 E37.0708
G1 X107.25 Y94.25 F4200
G1 X107.31 Y94.86 E37.0992 F600
G1 X107.50 Y95.41 E37.1261
G1 X107.82 Y95.93 E37.1544
G1 X108.23 Y96.36 E37.1819
G1 X108.72 Y96.69 E37.2093
G1 X109.28 Y96.91 E37.2371
G1 X109.86 Y97.00 E37.2643
G1 X110.46 Y96.96 E37.2921
G1 X111.03 Y96.80 E37.3195
G1 X111.56 Y96.52 E37.3473
G1 X112.01 Y96.13 E37.3749
G1 X112.37 Y95.66 E37.4023
G1 X112.61 Y95.12 E37.4296
G1 X112.74 Y94.53 E37.4576
G1 X112.74 Y93.94 E37.4849
G1 X112.60 Y93.36 E37.5125
G1 X112.35 Y92.82 E37.5401
G1 X111.98 Y92.34 E37.5682
G1 X111.53 Y91.96 E37.5954
G1 X111.00 Y91.69 E37.6230
G1 X110.43 Y91.53 E37.6504
G1 X109.83 Y91.50 E37.6782
G1 X109.25 Y91.60 E37.7054
G1 X108.69 Y91.83 E37.7335
G1 X108.21 Y92.16 E37.7604
G1 X107.80 Y92.59 E37.7879
G1 X107.50 Y93.11 E37.8157
G1 X107.31 Y93.67 E37.8431
G1 X107.25 Y94.25 E37.8701
G1 X107.65 Y94.25 F4200
G1 X107.71 Y94.77 E37.8943 F600
G1 X107.87 Y95.25 E37.9178
G1 X108.14 Y95.68 E37.9413
G1 X108.49 Y96.05 E37.9649
G1 X108.91 Y96.33 E37.9882
G1 X109.38 Y96.52 E38.0117
G1 X109.89 Y96.60 E38.0356
G1 X110.39 Y96.57 E38.0588
