;generated by ffslicer 1.30.3 09/06/23 17:15:51
;right_extruder_material: PLA
;layer_height: 0.2
;perimeter_shells: 2
;top_solid_layers: 4
;bottom_solid_layers: 3
;fill_density: 15%
;fill_pattern: hexagon
;base_print_speed: 50
;travel_speed: 80
;right_extruder_temperature: 200
;left_extruder_temperature: 0
;platform_temperature: 60
;right_extruder_temperature_raft0: 0
;left_extruder_temperature_raft0: 0
;right_extruder_temperature_reset: 
;left_extruder_temperature_reset: 
;start gcode
M140 S60 T0
M104 S200 T0
M104 S0 T1
G90
G28
G1 Z50.000 F420
G161 X Y F3300
M190 S60 T0
M109 S200 T0
M109 S0 T1
G92 E.0000
;layer_count: 20
M108 T0
G1 X84.50 Y123.82 F4800
;preExtrude:0.20
;preExtruder0
M106 S255
G1 Z.200 F420
G1 X84.50 Y123.82 F4800
G1 X84.50 Y100.72 E2.9503 F1200
G1 X84.57 Y99.60 E3.0936
G1 X84.73 Y98.41 E3.2470
G1 X84.98 Y97.23 E3.4010
G1 X85.00 Y97.16 E3.4103
G1 X85.00 Y85.00 E4.9634
G1 X135.00 Y85.00 E11.3493
G1 X135.00 Y94.24 E12.5295
G1 X135.28 Y95.18 E12.6547
G1 X135.51 Y97.02 E12.8916
G1 X135.46 Y98.55 E13.0871
G1 X135.00 Y102.94 E13.6508
G1 X135.00 Y135.00 E17.7455
G1 X85.00 Y135.00 E24.1315
G1 X85.00 Y126.84 E25.1736
G1 X84.61 Y125.21 E25.3877
G1 X84.50 Y123.82 E25.5658
;raft
;layer:0.30
;shell
G1 E20.5658 F2700
G1 Z.300 F420
G1 X92.70 Y123.50 F4200
G1 E25.5658 F2700
G1 X92.70 Y123.50 F4200
G1 X92.73 Y123.08 E25.5859 F600
G1 X92.84 Y122.66 E25.6067
G1 X93.04 Y122.19 E25.6312
G1 X93.28 Y121.83 E25.6519
G1 X93.64 Y121.45 E25.6770
G1 X94.08 Y121.15 E25.7025
G1 X94.57 Y120.93 E25.7282
G1 X95.08 Y120.82 E25.7532
G1 X95.51 Y120.80 E25.7738
G1 X95.93 Y120.85 E25.7941
G1 X96.33 Y120.97 E25.8141
G1 X96.72 Y121.15 E25.8347
G1 X97.07 Y121.38 E25.8547
G1 X97.45 Y121.74 E25.8798
G1 X97.75 Y122.18 E25.9053
G1 X97.94 Y122.57 E25.9261
G1 X98.07 Y123.07 E25.9508
G1 X98.10 Y123.50 E25.9715
G1 X98.07 Y123.92 E25.9916
G1 X97.97 Y124.33 E26.0118
G1 X97.76 Y124.82 E26.0374
G1 X97.52 Y125.17 E26.0577
G1 X97.16 Y125.55 E26.0828
G1 X96.73 Y125.85 E26.1079
G1 X96.24 Y126.07 E26.1336
G1 X95.82 Y126.17 E26.1543
G1 X95.40 Y126.20 E26.1745
G1 X94.99 Y126.17 E26.1941
G1 X94.56 Y126.07 E26.2153
G1 X94.08 Y125.86 E26.2404
G1 X93.65 Y125.56 E26.2655
G1 X93.35 Y125.26 E26.2858
G1 X93.05 Y124.82 E26.3113
G1 X92.84 Y124.34 E26.3364
G1 X92.74 Y123.92 E26.3571
G1 X92.70 Y123.50 E26.3773
G1 X93.60 Y123.53 F4200
G1 X93.67 Y124.00 E26.4001 F600
G1 X93.86 Y124.43 E26.4226
G1 X94.16 Y124.80 E26.4454
G1 X94.54 Y125.08 E26.4680
G1 X94.98 Y125.25 E26.4906
G1 X95.45 Y125.30 E26.5132
G1 X95.92 Y125.23 E26.5360
G1 X96.35 Y125.03 E26.5587
G1 X96.72 Y124.73 E26.5815
G1 X97.00 Y124.34 E26.6045
G1 X97.16 Y123.90 E26.6269
G1 X97.20 Y123.42 E26.6500
G1 X97.12 Y122.96 E26.6724
G1 X96.92 Y122.53 E26.6951
G1 X96.61 Y122.17 E26.7178
G1 X96.22 Y121.90 E26.7405
G1 X95.78 Y121.74 E26.7630
G1 X95.30 Y121.70 E26.7860
G1 X94.84 Y121.79 E26.8085
G1 X94.41 Y122.00 E26.8314
G1 X94.05 Y122.31 E26.8542
G1 X93.79 Y122.70 E26.8766
G1 X93.64 Y123.15 E26.8993
G1 X93.60 Y123.53 E26.9176
;infill
G1 X93.18 Y123.16 F4200
G1 X93.15 Y123.50 E26.9340 F600
G1 X93.23 Y124.08 E26.9620
G1 X93.44 Y124.59 E26.9884
G1 X93.70 Y124.96 E27.0101
G1 X93.94 Y125.21 E27.0267
G1 X94.37 Y125.48 E27.0510
G1 X94.89 Y125.69 E27.0779
G1 X95.50 Y125.74 E27.1072
G1 X96.09 Y125.64 E27.1358
G1 X96.63 Y125.38 E27.1645
G1 X97.03 Y125.04 E27.1897
G1 X97.37 Y124.59 E27.2167
G1 X97.54 Y124.19 E27.2375
G1 X97.62 Y123.86 E27.2538
G1 X97.64 Y123.37 E27.2773
G1 X97.55 Y122.86 E27.3021
G1 X97.40 Y122.47 E27.3221
G1 X97.23 Y122.18 E27.3382
G1 X96.79 Y121.74 E27.3680
G1 X96.37 Y121.48 E27.3916
G1 X95.84 Y121.29 E27.4186
G1 X95.31 Y121.26 E27.4440
G1 X94.74 Y121.35 E27.4717
G1 X94.37 Y121.52 E27.4912
G1 X93.93 Y121.81 E27.5164
G1 X93.67 Y122.07 E27.5340
G1 X93.33 Y122.61 E27.5646
G1 X93.18 Y123.16 E27.5919
;shell
G1 E22.5919 F2700
G1 X100.50 Y123.50 F4200
G1 E27.5919 F2700
G1 X100.50 Y123.50 F4200
G1 X100.53 Y123.08 E27.6121 F600
G1 X100.64 Y122.66 E27.6329
G1 X100.84 Y122.19 E27.6573
G1 X101.08 Y121.83 E27.6780
G1 X101.44 Y121.45 E27.7031
G1 X101.88 Y121.15 E27.7286
G1 X102.37 Y120.93 E27.7543
G1 X102.88 Y120.82 E27.7793
G1 X103.31 Y120.80 E27.7999
G1 X103.73 Y120.85 E27.8202
G1 X104.13 Y120.97 E27.8402
G1 X104.52 Y121.15 E27.8608
G1 X104.87 Y121.38 E27.8808
G1 X105.25 Y121.74 E27.9059
G1 X105.55 Y122.18 E27.9314
G1 X105.74 Y122.57 E27.9522
G1 X105.87 Y123.07 E27.9769
G1 X105.90 Y123.50 E27.9976
G1 X105.87 Y123.92 E28.0177
G1 X105.77 Y124.33 E28.0380
G1 X105.56 Y124.82 E28.0635
G1 X105.32 Y125.17 E28.0838
G1 X104.96 Y125.55 E28.1089
G1 X104.53 Y125.85 E28.1340
G1 X104.04 Y126.07 E28.1597
G1 X103.62 Y126.17 E28.1804
G1 X103.20 Y126.20 E28.2006
G1 X102.79 Y126.17 E28.2203
G1 X102.36 Y126.07 E28.2414
G1 X101.88 Y125.86 E28.2665
G1 X101.45 Y125.56 E28.2916
G1 X101.15 Y125.26 E28.3119
G1 X100.85 Y124.82 E28.3374
G1 X100.64 Y124.34 E28.3625
G1 X100.54 Y123.92 E28.3832
G1 X100.50 Y123.50 E28.4034
G1 X101.40 Y123.53 F4200
G1 X101.47 Y124.00 E28.4262 F600
G1 X101.66 Y124.43 E28.4487
G1 X101.96 Y124.80 E28.4715
G1 X102.34 Y125.08 E28.4941
G1 X102.78 Y125.25 E28.5167
G1 X103.25 Y125.30 E28.5393
G1 X103.72 Y125.23 E28.5621
G1 X104.15 Y125.03 E28.5848
G1 X104.52 Y124.73 E28.6076
G1 X104.80 Y124.34 E28.6306
G1 X104.96 Y123.90 E28.6530
G1 X105.00 Y123.42 E28.6761
G1 X104.92 Y122.96 E28.6985
G1 X104.72 Y122.53 E28.7212
G1 X104.41 Y122.17 E28.7439
G1 X104.02 Y121.90 E28.7667
G1 X103.58 Y121.74 E28.7891
G1 X103.10 Y121.70 E28.8121
G1 X102.64 Y121.79 E28.8346
G1 X102.21 Y122.00 E28.8575
G1 X101.85 Y122.31 E28.8803
G1 X101.59 Y122.70 E28.9027
G1 X101.44 Y123.15 E28.9254
G1 X101.40 Y123.53 E28.9437
;infill
G1 X100.98 Y123.16 F4200
G1 X100.95 Y123.50 E28.9601 F600
G1 X101.03 Y124.08 E28.9881
G1 X101.24 Y124.59 E29.0145
G1 X101.50 Y124.96 E29.0362
G1 X101.74 Y125.21 E29.0528
G1 X102.17 Y125.48 E29.0771
G1 X102.69 Y125.69 E29.1040
G1 X103.30 Y125.74 E29.1333
G1 X103.89 Y125.64 E29.1620
G1 X104.43 Y125.38 E29.1907
G1 X104.83 Y125.04 E29.2158
G1 X105.17 Y124.59 E29.2428
G1 X105.34 Y124.19 E29.2636
G1 X105.42 Y123.86 E29.2799
G1 X105.44 Y123.37 E29.3034
G1 X105.35 Y122.86 E29.3282
G1 X105.20 Y122.47 E29.3482
G1 X105.03 Y122.18 E29.3643
G1 X104.59 Y121.74 E29.3941
G1 X104.17 Y121.48 E29.4178
G1 X103.64 Y121.29 E29.4447
G1 X103.11 Y121.26 E29.4701
G1 X102.54 Y121.35 E29.4978
G1 X102.17 Y121.52 E29.5173
G1 X101.73 Y121.81 E29.5425
G1 X101.47 Y122.07 E29.5601
G1 X101.13 Y122.61 E29.5907
G1 X100.98 Y123.16 E29.6180
;shell
G1 E24.6180 F2700
G1 X108.30 Y122.92 F4200
G1 E29.6180 F2700
G1 X108.30 Y122.92 F4200
G1 X108.36 Y122.43 E29.6417 F429
G1 X108.49 Y122.04 E29.6613
G1 X108.69 Y121.69 E29.6806
G1 X108.95 Y121.38 E29.7000
G1 X109.28 Y121.13 E29.7199
G1 X109.64 Y120.94 E29.7393
G1 X110.04 Y120.83 E29.7592
G1 X110.44 Y120.80 E29.7784
G1 X110.85 Y120.85 E29.7982
G1 X111.24 Y120.97 E29.8178
G1 X111.59 Y121.17 E29.8371
G1 X111.91 Y121.44 E29.8571
G1 X112.16 Y121.76 E29.8766
G1 X112.35 Y122.12 E29.8961
G1 X112.47 Y122.51 E29.9156
G1 X112.50 Y122.92 E29.9353
G1 X112.46 Y123.33 E29.9550
G1 X112.34 Y123.72 E29.9746
G1 X112.14 Y124.08 E29.9943
G1 X111.88 Y124.39 E30.0137
G1 X111.56 Y124.65 E30.0334
G1 X111.20 Y124.84 E30.0529
G1 X110.81 Y124.96 E30.0725
G1 X110.40 Y125.00 E30.0922
G1 X110.00 Y124.96 E30.1114
G1 X109.60 Y124.84 E30.1314
G1 X109.24 Y124.65 E30.1509
G1 X108.93 Y124.39 E30.1703
G1 X108.66 Y124.08 E30.1900
G1 X108.47 Y123.72 E30.2095
G1 X108.35 Y123.33 E30.2290
G1 X108.30 Y122.92 E30.2488
G1 X108.60 Y122.87 F4200
G1 X108.66 Y123.37 E30.2729 F429
G1 X108.86 Y123.83 E30.2970
G1 X109.18 Y124.22 E30.3211
G1 X109.59 Y124.51 E30.3452
G1 X110.07 Y124.67 E30.3694
G1 X110.58 Y124.69 E30.3939
G1 X111.07 Y124.57 E30.4180
G1 X111.51 Y124.32 E30.4423
G1 X111.86 Y123.96 E30.4663
G1 X112.10 Y123.52 E30.4903
G1 X112.20 Y123.02 E30.5147
G1 X112.16 Y122.52 E30.5388
G1 X111.99 Y122.04 E30.5632
G1 X111.69 Y121.64 E30.5871
G1 X111.28 Y121.33 E30.6117
G1 X110.81 Y121.15 E30.6358
G1 X110.31 Y121.10 E30.6599
G1 X109.81 Y121.20 E30.6843
G1 X109.36 Y121.43 E30.7085
G1 X109.00 Y121.77 E30.7322
G1 X108.74 Y122.21 E30.7567
G1 X108.61 Y122.69 E30.7805
G1 X108.60 Y122.87 E30.7892
;shell
G1 E25.7892 F2700
G1 X114.90 Y122.92 F4200
G1 E30.7892 F2700
G1 X114.90 Y122.92 F4200
G1 X114.96 Y122.43 E30.8128 F429
G1 X115.09 Y122.04 E30.8325
G1 X115.29 Y121.69 E30.8518
G1 X115.55 Y121.38 E30.8712
G1 X115.88 Y121.13 E30.8910
G1 X116.24 Y120.94 E30.9105
G1 X116.64 Y120.83 E30.9304
G1 X117.04 Y120.80 E30.9496
G1 X117.45 Y120.85 E30.9694
G1 X117.84 Y120.97 E30.9889
G1 X118.20 Y121.17 E31.0086
G1 X118.51 Y121.44 E31.0283
G1 X118.76 Y121.76 E31.0478
G1 X118.95 Y122.12 E31.0673
G1 X119.07 Y122.51 E31.0868
G1 X119.10 Y122.92 E31.1065
G1 X119.06 Y123.33 E31.1262
G1 X118.93 Y123.72 E31.1459
G1 X118.74 Y124.08 E31.1654
G1 X118.48 Y124.39 E31.1848
G1 X118.16 Y124.65 E31.2045
G1 X117.80 Y124.84 E31.2240
G1 X117.41 Y124.96 E31.2436
G1 X117.00 Y125.00 E31.2633
G1 X116.60 Y124.96 E31.2826
G1 X116.20 Y124.84 E31.3026
G1 X115.84 Y124.65 E31.3221
G1 X115.53 Y124.39 E31.3414
G1 X115.26 Y124.08 E31.3611
G1 X115.07 Y123.72 E31.3806
G1 X114.95 Y123.33 E31.4002
G1 X114.90 Y122.92 E31.4200
G1 X115.20 Y122.87 F4200
G1 X115.26 Y123.37 E31.4441 F429
G1 X115.46 Y123.83 E31.4681
G1 X115.78 Y124.22 E31.4923
G1 X116.19 Y124.51 E31.5163
G1 X116.67 Y124.67 E31.5405
G1 X117.18 Y124.69 E31.5650
G1 X117.67 Y124.57 E31.5892
G1 X118.11 Y124.32 E31.6134
G1 X118.46 Y123.96 E31.6374
G1 X118.70 Y123.52 E31.6614
G1 X118.80 Y123.02 E31.6859
G1 X118.76 Y122.52 E31.7099
G1 X118.59 Y122.04 E31.7343
G1 X118.29 Y121.64 E31.7582
G1 X117.88 Y121.33 E31.7828
G1 X117.41 Y121.15 E31.8069
G1 X116.91 Y121.10 E31.8310
G1 X116.41 Y121.20 E31.8554
G1 X115.96 Y121.43 E31.8796
G1 X115.60 Y121.77 E31.9034
G1 X115.34 Y122.21 E31.9278
G1 X115.21 Y122.69 E31.9517
G1 X115.20 Y122.87 E31.9603
;shell
G1 E26.9603 F2700
G1 X120.10 Y114.88 F4200
G1 E31.9603 F2700
G1 X120.10 Y114.88 F4200
G1 X120.15 Y114.40 E31.9834 F600
G1 X120.25 Y114.04 E32.0013
G1 X120.46 Y113.60 E32.0246
G1 X120.69 Y113.28 E32.0435
G1 X120.96 Y113.01 E32.0618
G1 X121.27 Y112.79 E32.0800
G1 X121.70 Y112.57 E32.1032
G1 X122.07 Y112.46 E32.1216
G1 X122.54 Y112.40 E32.1443
G1 X122.93 Y112.43 E32.1631
G1 X123.31 Y112.51 E32.1817
G1 X123.67 Y112.64 E32.2000
G1 X124.00 Y112.83 E32.2182
G1 X124.36 Y113.13 E32.2407
G1 X124.62 Y113.44 E32.2601
G1 X124.82 Y113.77 E32.2785
G1 X124.97 Y114.12 E32.2968
G1 X125.08 Y114.58 E32.3194
G1 X125.10 Y114.97 E32.3381
G1 X125.06 Y115.36 E32.3569
G1 X124.96 Y115.73 E32.3753
G1 X124.80 Y116.08 E32.3937
G1 X124.60 Y116.40 E32.4118
G1 X124.27 Y116.75 E32.4348
G1 X123.96 Y116.99 E32.4536
G1 X123.63 Y117.17 E32.4716
G1 X123.18 Y117.33 E32.4945
G1 X122.79 Y117.39 E32.5134
G1 X122.41 Y117.39 E32.5316
G1 X122.02 Y117.33 E32.5505
G1 X121.59 Y117.18 E32.5723
G1 X121.23 Y116.99 E32.5918
G1 X120.93 Y116.76 E32.6099
G1 X120.61 Y116.41 E32.6326
G1 X120.40 Y116.09 E32.6509
G1 X120.21 Y115.64 E32.6743
G1 X120.13 Y115.27 E32.6924
G1 X120.10 Y114.88 E32.7112
G1 X119.70 Y114.87 F4200
G1 X119.76 Y114.33 E32.7372 F600
G1 X119.88 Y113.89 E32.7591
G1 X120.12 Y113.40 E32.7852
G1 X120.39 Y113.03 E32.8071
G1 X120.70 Y112.71 E32.8285
G1 X121.06 Y112.44 E32.8500
G1 X121.55 Y112.20 E32.8761
G1 X121.99 Y112.07 E32.8981
G1 X122.53 Y112.00 E32.9242
G1 X122.99 Y112.03 E32.9463
G1 X123.43 Y112.12 E32.9678
G1 X123.85 Y112.28 E32.9893
G1 X124.23 Y112.50 E33.0103
G1 X124.65 Y112.85 E33.0365
G1 X124.95 Y113.20 E33.0586
G1 X125.18 Y113.58 E33.0799
G1 X125.35 Y113.99 E33.1011
G1 X125.47 Y114.52 E33.1272
G1 X125.50 Y114.98 E33.1492
G1 X125.45 Y115.43 E33.1709
G1 X125.33 Y115.86 E33.1923
G1 X125.16 Y116.26 E33.2131
G1 X124.91 Y116.64 E33.2349
G1 X124.55 Y117.05 E33.2610
G1 X124.18 Y117.33 E33.2833
G1 X123.79 Y117.54 E33.3045
G1 X123.28 Y117.72 E33.3304
G1 X122.82 Y117.79 E33.3527
G1 X122.38 Y117.79 E33.3737
G1 X121.93 Y117.72 E33.3956
G1 X121.42 Y117.55 E33.4213
G1 X121.02 Y117.33 E33.4432
G1 X120.66 Y117.05 E33.4650
G1 X120.29 Y116.66 E33.4908
G1 X120.04 Y116.27 E33.5129
G1 X119.83 Y115.77 E33.5389
G1 X119.73 Y115.32 E33.5610
G1 X119.70 Y114.87 E33.5826
G1 X120.40 Y114.86 F4200
G1 X120.46 Y115.44 E33.6105 F600
G1 X120.68 Y115.98 E33.6384
G1 X121.03 Y116.45 E33.6665
G1 X121.50 Y116.81 E33.6949
G1 X122.03 Y117.03 E33.7223
G1 X122.61 Y117.11 E33.7504
G1 X123.20 Y117.02 E33.7790
G1 X123.73 Y116.79 E33.8066
G1 X124.19 Y116.43 E33.8346
G1 X124.53 Y115.96 E33.8624
G1 X124.74 Y115.40 E33.8911
G1 X124.80 Y114.83 E33.9185
G1 X124.70 Y114.25 E33.9467
G1 X124.46 Y113.72 E33.9746
G1 X124.08 Y113.27 E34.0028
G1 X123.60 Y112.94 E34.0307
G1 X123.05 Y112.74 E34.0587
G1 X122.46 Y112.70 E34.0870
G1 X121.89 Y112.81 E34.1148
G1 X121.37 Y113.07 E34.1427
G1 X120.93 Y113.46 E34.1708
G1 X120.61 Y113.95 E34.1989
G1 X120.43 Y114.49 E34.2261
G1 X120.40 Y114.86 E34.2439
G1 X120.80 Y114.86 F4200
G1 X120.85 Y115.34 E34.2670 F600
G1 X121.03 Y115.78 E34.2898
G1 X121.32 Y116.17 E34.3131
G1 X121.70 Y116.46 E34.3360
G1 X122.14 Y116.64 E34.3587
G1 X122.61 Y116.70 E34.3814
G1 X123.09 Y116.63 E34.4046
G1 X123.52 Y116.45 E34.4270
G1 X123.90 Y116.15 E34.4502
G1 X124.18 Y115.76 E34.4732
G1 X124.35 Y115.31 E34.4962
G1 X124.40 Y114.84 E34.5188
G1 X124.32 Y114.37 E34.5417
G1 X124.12 Y113.93 E34.5648
G1 X123.81 Y113.57 E34.5876
G1 X123.42 Y113.30 E34.6103
G1 X122.97 Y113.14 E34.6332
G1 X122.49 Y113.10 E34.6562
G1 X122.02 Y113.19 E34.6792
G1 X121.59 Y113.41 E34.7023
G1 X121.23 Y113.72 E34.7250
G1 X120.97 Y114.12 E34.7479
G1 X120.83 Y114.57 E34.7705
G1 X120.80 Y114.86 E34.7844
;shell
G1 E29.7844 F2700
G1 X120.10 Y106.68 F4200
G1 E34.7844 F2700
G1 X120.10 Y106.68 F4200
G1 X120.15 Y106.20 E34.8075 F600
G1 X120.25 Y105.84 E34.8254
G1 X120.46 Y105.40 E34.8488
G1 X120.69 Y105.08 E34.8677
G1 X120.96 Y104.81 E34.8859
G1 X121.27 Y104.59 E34.9042
G1 X121.70 Y104.37 E34.9273
G1 X122.07 Y104.26 E34.9458
G1 X122.54 Y104.20 E34.9685
G1 X122.93 Y104.23 E34.9872
G1 X123.31 Y104.31 E35.0058
G1 X123.67 Y104.44 E35.0241
G1 X124.00 Y104.63 E35.0424
G1 X124.36 Y104.93 E35.0648
G1 X124.62 Y105.24 E35.0842
G1 X124.82 Y105.57 E35.1027
G1 X124.97 Y105.92 E35.1209
G1 X125.08 Y106.38 E35.1436
G1 X125.10 Y106.77 E35.1623
G1 X125.06 Y107.16 E35.1810
G1 X124.96 Y107.53 E35.1994
G1 X124.80 Y107.88 E35.2178
G1 X124.60 Y108.20 E35.2359
G1 X124.27 Y108.55 E35.2590
G1 X123.96 Y108.79 E35.2777
G1 X123.63 Y108.97 E35.2957
G1 X123.18 Y109.13 E35.3186
G1 X122.79 Y109.19 E35.3375
G1 X122.41 Y109.19 E35.3557
G1 X122.02 Y109.13 E35.3746
G1 X121.59 Y108.98 E35.3964
G1 X121.23 Y108.79 E35.4159
G1 X120.93 Y108.56 E35.4340
G1 X120.61 Y108.21 E35.4567
G1 X120.40 Y107.89 E35.4751
G1 X120.21 Y107.44 E35.4985
G1 X120.13 Y107.07 E35.5166
G1 X120.10 Y106.68 E35.5353
G1 X119.70 Y106.67 F4200
G1 X119.76 Y106.13 E35.5613 F600
G1 X119.88 Y105.69 E35.5832
G1 X120.12 Y105.20 E35.6093
G1 X120.39 Y104.83 E35.6313
G1 X120.70 Y104.51 E35.6526
G1 X121.06 Y104.24 E35.6742
G1 X121.55 Y104.00 E35.7003
G1 X121.99 Y103.87 E35.7223
G1 X122.53 Y103.80 E35.7483
G1 X122.99 Y103.83 E35.7704
G1 X123.43 Y103.92 E35.7919
G1 X123.85 Y104.08 E35.8135
G1 X124.23 Y104.30 E35.8345
G1 X124.65 Y104.65 E35.8607
G1 X124.95 Y105.00 E35.8827
G1 X125.18 Y105.38 E35.9040
G1 X125.35 Y105.79 E35.9253
G1 X125.47 Y106.32 E35.9513
G1 X125.50 Y106.78 E35.9734
G1 X125.45 Y107.23 E35.9951
G1 X125.33 Y107.66 E36.0164
G1 X125.16 Y108.06 E36.0373
G1 X124.91 Y108.44 E36.0590
G1 X124.55 Y108.85 E36.0852
G1 X124.18 Y109.13 E36.1074
G1 X123.79 Y109.34 E36.1286
G1 X123.28 Y109.52 E36.1545
G1 X122.82 Y109.59 E36.1768
G1 X122.38 Y109.59 E36.1979
G1 X121.93 Y109.52 E36.2197
G1 X121.42 Y109.35 E36.2454
G1 X121.02 Y109.13 E36.2673
G1 X120.66 Y108.85 E36.2891
G1 X120.29 Y108.46 E36.3149
G1 X120.04 Y108.07 E36.3371
G1 X119.83 Y107.57 E36.3631
G1 X119.73 Y107.12 E36.3851
G1 X119.70 Y106.67 E36.4067
G1 X120.40 Y106.66 F4200
G1 X120.46 Y107.24 E36.4347 F600
G1 X120.68 Y107.78 E36.4626
G1 X121.03 Y108.25 E36.4907
G1 X121.50 Y108.61 E36.5190
G1 X122.03 Y108.83 E36.5465
G1 X122.61 Y108.91 E36.5745
G1 X123.20 Y108.82 E36.6031
G1 X123.73 Y108.59 E36.6308
G1 X124.19 Y108.23 E36.6588
G1 X124.53 Y107.76 E36.6865
G1 X124.74 Y107.20 E36.7152
