;generated by ffslicer 1.30.3 09/07/23 14:40:45
;right_extruder_material: PLA
;layer_height: 0.2
;perimeter_shells: 2
;top_solid_layers: 4
;bottom_solid_layers: 3
;fill_density: 15%
;fill_pattern: hexagon
;base_print_speed: 50
;travel_speed: 80
;right_extruder_temperature: 200
;left_extruder_temperature: 0
;platform_temperature: 60
;right_extruder_temperature_raft0: 0
;left_extruder_temperature_raft0: 0
;right_extruder_temperature_reset: 
;left_extruder_temperature_reset: 
;start gcode
M140 S60 T0
M104 S200 T0
M104 S0 T1
G90
G28
G1 Z50.000 F420
G161 X Y F3300
M190 S60 T0
M109 S200 T0
M109 S0 T1
G92 E.0000
;layer_count: 18
M108 T0
G1 X85.00 Y134.99 F4800
;preExtrude:0.20
;preExtruder0
M106 S255
G1 Z.200 F420
G1 X85.00 Y134.99 F4800
G1 X85.00 Y84.99 E6.3859 F1200
G1 X135.00 Y84.99 E12.7719
G1 X135.00 Y134.99 E19.1578
G1 X85.00 Y134.99 E25.5438
;raft
;layer:0.30
;shell
G1 E20.5438 F2700
G1 Z.300 F420
G1 X94.81 Y118.27 F4200
G1 E25.5438 F2700
G1 X94.81 Y118.27 F4200
G1 X94.86 Y117.75 E25.5688 F600
G1 X95.00 Y117.25 E25.5937
G1 X95.22 Y116.77 E25.6190
G1 X95.50 Y116.34 E25.6435
G1 X95.85 Y115.95 E25.6686
G1 X96.25 Y115.62 E25.6935
G1 X96.69 Y115.35 E25.7182
G1 X97.17 Y115.16 E25.7429
G1 X97.69 Y115.04 E25.7685
G1 X98.20 Y115.00 E25.7930
G1 X98.71 Y115.04 E25.8175
G1 X99.23 Y115.16 E25.8430
G1 X99.71 Y115.35 E25.8678
G1 X100.16 Y115.62 E25.8929
G1 X100.56 Y115.95 E25.9177
G1 X100.90 Y116.34 E25.9425
G1 X101.19 Y116.78 E25.9678
G1 X101.40 Y117.25 E25.9924
G1 X101.54 Y117.75 E26.0173
G1 X101.59 Y118.27 E26.0423
G1 X101.57 Y118.80 E26.0677
G1 X101.48 Y119.30 E26.0920
G1 X101.30 Y119.78 E26.1166
G1 X101.05 Y120.25 E26.1421
G1 X100.74 Y120.66 E26.1667
G1 X100.37 Y121.02 E26.1914
G1 X99.93 Y121.32 E26.2169
G1 X99.47 Y121.55 E26.2416
G1 X98.98 Y121.71 E26.2663
G1 X98.46 Y121.79 E26.2915
G1 X97.95 Y121.79 E26.3159
G1 X97.42 Y121.71 E26.3416
G1 X96.93 Y121.55 E26.3662
G1 X96.47 Y121.32 E26.3909
G1 X96.03 Y121.02 E26.4164
G1 X95.66 Y120.66 E26.4411
G1 X95.35 Y120.25 E26.4657
G1 X95.10 Y119.79 E26.4908
G1 X94.92 Y119.30 E26.5158
G1 X94.83 Y118.80 E26.5401
G1 X94.81 Y118.27 E26.5655
G1 X94.40 Y118.26 F4200
G1 X94.47 Y117.68 E26.5935 F600
G1 X94.62 Y117.12 E26.6213
G1 X94.86 Y116.58 E26.6496
G1 X95.18 Y116.09 E26.6776
G1 X95.57 Y115.66 E26.7054
G1 X96.01 Y115.29 E26.7329
G1 X96.52 Y114.99 E26.7613
G1 X97.05 Y114.78 E26.7886
G1 X97.63 Y114.64 E26.8172
G1 X98.20 Y114.60 E26.8445
G1 X98.78 Y114.64 E26.8724
G1 X99.35 Y114.78 E26.9005
G1 X99.88 Y114.99 E26.9278
G1 X100.39 Y115.29 E26.9561
G1 X100.84 Y115.66 E26.9840
G1 X101.22 Y116.09 E27.0115
G1 X101.54 Y116.59 E27.0400
G1 X101.78 Y117.11 E27.0674
G1 X101.93 Y117.68 E27.0956
G1 X102.00 Y118.26 E27.1236
G1 X101.97 Y118.84 E27.1514
G1 X101.86 Y119.40 E27.1787
G1 X101.67 Y119.95 E27.2066
G1 X101.39 Y120.47 E27.2349
G1 X101.04 Y120.93 E27.2626
G1 X100.62 Y121.33 E27.2904
G1 X100.14 Y121.67 E27.3185
G1 X99.62 Y121.92 E27.3462
G1 X99.07 Y122.10 E27.3739
G1 X98.49 Y122.19 E27.4020
G1 X97.91 Y122.19 E27.4298
G1 X97.33 Y122.10 E27.4579
G1 X96.78 Y121.92 E27.4856
G1 X96.26 Y121.67 E27.5132
G1 X95.78 Y121.33 E27.5414
G1 X95.36 Y120.93 E27.5692
G1 X95.01 Y120.47 E27.5969
G1 X94.73 Y119.95 E27.6252
G1 X94.54 Y119.40 E27.6530
G1 X94.43 Y118.84 E27.6804
G1 X94.40 Y118.26 E27.7082
G1 X95.50 Y118.37 F4200
G1 X95.56 Y118.96 E27.7366 F600
G1 X95.74 Y119.51 E27.7643
G1 X96.02 Y120.00 E27.7913
G1 X96.40 Y120.42 E27.8185
G1 X96.87 Y120.75 E27.8460
G1 X97.40 Y120.98 E27.8736
G1 X97.95 Y121.09 E27.9005
G1 X98.52 Y121.08 E27.9278
G1 X99.07 Y120.96 E27.9548
G1 X99.59 Y120.72 E27.9822
G1 X100.05 Y120.37 E28.0099
G1 X100.42 Y119.94 E28.0370
G1 X100.70 Y119.44 E28.0645
G1 X100.86 Y118.90 E28.0915
G1 X100.90 Y118.33 E28.1188
G1 X100.83 Y117.76 E28.1463
G1 X100.64 Y117.23 E28.1733
G1 X100.34 Y116.74 E28.2008
G1 X99.94 Y116.33 E28.2283
G1 X99.47 Y116.02 E28.2552
G1 X98.94 Y115.80 E28.2827
G1 X98.38 Y115.70 E28.3100
G1 X97.81 Y115.73 E28.3373
G1 X97.25 Y115.87 E28.3649
G1 X96.75 Y116.12 E28.3917
G1 X96.30 Y116.48 E28.4193
G1 X95.94 Y116.92 E28.4465
G1 X95.68 Y117.43 E28.4740
G1 X95.53 Y117.97 E28.5008
G1 X95.50 Y118.37 E28.5200
G1 X95.90 Y118.37 F4200
G1 X95.95 Y118.88 E28.5446 F600
G1 X96.10 Y119.34 E28.5677
G1 X96.35 Y119.76 E28.5911
G1 X96.67 Y120.12 E28.6142
G1 X97.07 Y120.40 E28.6376
G1 X97.51 Y120.60 E28.6607
G1 X97.99 Y120.69 E28.6841
G1 X98.47 Y120.69 E28.7071
G1 X98.95 Y120.58 E28.7307
G1 X99.39 Y120.37 E28.7541
G1 X99.77 Y120.08 E28.7770
G1 X100.09 Y119.71 E28.8004
G1 X100.32 Y119.29 E28.8233
G1 X100.46 Y118.82 E28.8468
G1 X100.50 Y118.34 E28.8699
G1 X100.44 Y117.86 E28.8930
G1 X100.27 Y117.40 E28.9165
G1 X100.02 Y116.99 E28.9395
G1 X99.68 Y116.64 E28.9629
G1 X99.28 Y116.37 E28.9860
G1 X98.83 Y116.19 E29.0092
G1 X98.35 Y116.10 E29.0326
G1 X97.87 Y116.12 E29.0556
G1 X97.40 Y116.24 E29.0789
G1 X96.96 Y116.46 E29.1024
G1 X96.59 Y116.76 E29.1252
G1 X96.28 Y117.14 E29.1487
G1 X96.06 Y117.57 E29.1719
G1 X95.93 Y118.03 E29.1948
G1 X95.90 Y118.37 E29.2111
;infill
G1 X96.13 Y116.12 F4200
G1 X96.13 Y116.12
G1 X96.06 Y116.23 E29.2173 F600
G1 X95.68 Y116.67 E29.2452
G1 X95.37 Y117.28 E29.2780
G1 X95.21 Y117.82 E29.3049
G1 X95.15 Y118.36 E29.3310
G1 X95.22 Y119.02 E29.3627
G1 X95.41 Y119.63 E29.3933
G1 X95.73 Y120.18 E29.4238
G1 X96.16 Y120.66 E29.4547
G1 X96.68 Y121.04 E29.4855
G1 X97.27 Y121.30 E29.5164
G1 X97.89 Y121.43 E29.5468
G1 X98.60 Y121.43 E29.5808
G1 X98.76 Y121.36 E29.5891
G1 X99.17 Y121.29 E29.6090
G1 X99.75 Y121.03 E29.6395
G1 X100.27 Y120.63 E29.6709
G1 X100.69 Y120.15 E29.7015
G1 X100.98 Y119.64 E29.7296
G1 X101.10 Y119.33 E29.7455
G1 X101.18 Y119.05 F4200
G1 X101.25 Y118.34 E29.7796 F600
G1 X101.17 Y117.70 E29.8105
G1 X100.96 Y117.10 E29.8410
G1 X100.63 Y116.55 E29.8717
G1 X100.18 Y116.09 E29.9025
G1 X99.61 Y115.70 E29.9356
G1 X99.06 Y115.48 E29.9640
G1 X98.42 Y115.37 E29.9951
G1 X97.78 Y115.38 E30.0257
G1 X97.15 Y115.54 E30.0569
G1 X96.63 Y115.78 E30.0843
G1 X96.48 Y116.04 F4200
G1 X96.31 Y115.86 E30.0962 F600
;shell
G1 E25.0962 F2700
G1 X104.81 Y118.27 F4200
G1 E30.0962 F2700
G1 X104.81 Y118.27 F4200
G1 X104.86 Y117.75 E30.1212 F600
G1 X105.00 Y117.25 E30.1460
G1 X105.22 Y116.77 E30.1713
G1 X105.50 Y116.34 E30.1959
G1 X105.85 Y115.95 E30.2210
G1 X106.25 Y115.62 E30.2458
G1 X106.69 Y115.35 E30.2706
G1 X107.17 Y115.16 E30.2953
G1 X107.69 Y115.04 E30.3209
G1 X108.20 Y115.00 E30.3454
G1 X108.71 Y115.04 E30.3699
G1 X109.23 Y115.16 E30.3954
G1 X109.71 Y115.35 E30.4201
G1 X110.16 Y115.62 E30.4453
G1 X110.56 Y115.95 E30.4701
G1 X110.90 Y116.34 E30.4949
G1 X111.19 Y116.78 E30.5201
G1 X111.40 Y117.25 E30.5448
G1 X111.54 Y117.75 E30.5697
G1 X111.59 Y118.27 E30.5947
G1 X111.57 Y118.80 E30.6201
G1 X111.48 Y119.30 E30.6444
G1 X111.30 Y119.78 E30.6690
G1 X111.05 Y120.25 E30.6945
G1 X110.74 Y120.66 E30.7191
G1 X110.37 Y121.02 E30.7438
G1 X109.93 Y121.32 E30.7693
G1 X109.47 Y121.55 E30.7939
G1 X108.98 Y121.71 E30.8186
G1 X108.46 Y121.79 E30.8438
G1 X107.95 Y121.79 E30.8682
G1 X107.42 Y121.71 E30.8939
G1 X106.93 Y121.55 E30.9186
G1 X106.47 Y121.32 E30.9432
G1 X106.03 Y121.02 E30.9687
G1 X105.66 Y120.66 E30.9935
G1 X105.35 Y120.25 E31.0181
G1 X105.10 Y119.79 E31.0432
G1 X104.92 Y119.30 E31.0682
G1 X104.83 Y118.80 E31.0925
G1 X104.81 Y118.27 E31.1179
G1 X104.40 Y118.26 F4200
G1 X104.47 Y117.68 E31.1459 F600
G1 X104.62 Y117.12 E31.1736
G1 X104.86 Y116.58 E31.2019
G1 X105.18 Y116.09 E31.2300
G1 X105.57 Y115.66 E31.2578
G1 X106.01 Y115.29 E31.2853
G1 X106.52 Y114.99 E31.3137
G1 X107.05 Y114.78 E31.3410
G1 X107.63 Y114.64 E31.3695
G1 X108.20 Y114.60 E31.3969
G1 X108.78 Y114.64 E31.4247
G1 X109.35 Y114.78 E31.4529
G1 X109.88 Y114.99 E31.4802
G1 X110.39 Y115.29 E31.5085
G1 X110.84 Y115.66 E31.5364
G1 X111.22 Y116.09 E31.5639
G1 X111.54 Y116.59 E31.5923
G1 X111.78 Y117.11 E31.6197
G1 X111.93 Y117.68 E31.6480
G1 X112.00 Y118.26 E31.6760
G1 X111.97 Y118.84 E31.7038
G1 X111.86 Y119.40 E31.7311
G1 X111.67 Y119.95 E31.7590
G1 X111.39 Y120.47 E31.7873
G1 X111.04 Y120.93 E31.8149
G1 X110.62 Y121.33 E31.8427
G1 X110.14 Y121.67 E31.8709
G1 X109.62 Y121.92 E31.8985
G1 X109.07 Y122.10 E31.9263
G1 X108.49 Y122.19 E31.9544
G1 X107.91 Y122.19 E31.9821
G1 X107.33 Y122.10 E32.0103
G1 X106.78 Y121.92 E32.0380
G1 X106.26 Y121.67 E32.0656
G1 X105.78 Y121.33 E32.0938
G1 X105.36 Y120.93 E32.1216
G1 X105.01 Y120.47 E32.1492
G1 X104.73 Y119.95 E32.1775
G1 X104.54 Y119.40 E32.2054
G1 X104.43 Y118.84 E32.2327
G1 X104.40 Y118.26 E32.2605
G1 X105.50 Y118.37 F4200
G1 X105.56 Y118.96 E32.2889 F600
G1 X105.74 Y119.51 E32.3167
G1 X106.02 Y120.00 E32.3437
G1 X106.40 Y120.42 E32.3708
G1 X106.87 Y120.75 E32.3983
G1 X107.40 Y120.98 E32.4260
G1 X107.95 Y121.09 E32.4529
G1 X108.52 Y121.08 E32.4802
G1 X109.07 Y120.96 E32.5071
G1 X109.59 Y120.72 E32.5346
G1 X110.05 Y120.37 E32.5622
G1 X110.42 Y119.94 E32.5894
G1 X110.70 Y119.44 E32.6169
G1 X110.86 Y118.90 E32.6438
G1 X110.90 Y118.33 E32.6712
G1 X110.83 Y117.76 E32.6987
G1 X110.64 Y117.23 E32.7257
G1 X110.34 Y116.74 E32.7532
G1 X109.94 Y116.33 E32.7806
G1 X109.47 Y116.02 E32.8076
G1 X108.94 Y115.80 E32.8351
G1 X108.38 Y115.70 E32.8623
G1 X107.81 Y115.73 E32.8897
G1 X107.25 Y115.87 E32.9173
G1 X106.75 Y116.12 E32.9441
G1 X106.30 Y116.48 E32.9717
G1 X105.94 Y116.92 E32.9989
G1 X105.68 Y117.43 E33.0263
G1 X105.53 Y117.97 E33.0532
G1 X105.50 Y118.37 E33.0724
G1 X105.90 Y118.37 F4200
G1 X105.95 Y118.88 E33.0969 F600
G1 X106.10 Y119.34 E33.1201
G1 X106.35 Y119.76 E33.1435
G1 X106.67 Y120.12 E33.1666
G1 X107.07 Y120.40 E33.1900
G1 X107.51 Y120.60 E33.2131
G1 X107.99 Y120.69 E33.2365
G1 X108.47 Y120.69 E33.2595
G1 X108.95 Y120.58 E33.2831
G1 X109.39 Y120.37 E33.3064
G1 X109.77 Y120.08 E33.3293
G1 X110.09 Y119.71 E33.3527
G1 X110.32 Y119.29 E33.3757
G1 X110.46 Y118.82 E33.3992
G1 X110.50 Y118.34 E33.4222
G1 X110.44 Y117.86 E33.4454
G1 X110.27 Y117.40 E33.4689
G1 X110.02 Y116.99 E33.4919
G1 X109.68 Y116.64 E33.5153
G1 X109.28 Y116.37 E33.5384
G1 X108.83 Y116.19 E33.5616
G1 X108.35 Y116.10 E33.5850
G1 X107.87 Y116.12 E33.6080
G1 X107.40 Y116.24 E33.6312
G1 X106.96 Y116.46 E33.6548
G1 X106.59 Y116.76 E33.6776
G1 X106.28 Y117.14 E33.7011
G1 X106.06 Y117.57 E33.7242
G1 X105.93 Y118.03 E33.7471
G1 X105.90 Y118.37 E33.7635
;infill
G1 X106.13 Y116.12 F4200
G1 X106.13 Y116.12
G1 X106.06 Y116.23 E33.7697 F600
G1 X105.68 Y116.67 E33.7976
G1 X105.37 Y117.28 E33.8303
G1 X105.21 Y117.82 E33.8573
G1 X105.15 Y118.36 E33.8833
G1 X105.22 Y119.02 E33.9151
G1 X105.41 Y119.63 E33.9457
G1 X105.73 Y120.18 E33.9762
G1 X106.16 Y120.66 E34.0071
G1 X106.68 Y121.04 E34.0379
G1 X107.27 Y121.30 E34.0688
G1 X107.89 Y121.43 E34.0991
G1 X108.60 Y121.43 E34.1331
G1 X108.76 Y121.36 E34.1415
G1 X109.17 Y121.29 E34.1614
G1 X109.75 Y121.03 E34.1919
G1 X110.27 Y120.63 E34.2233
G1 X110.69 Y120.15 E34.2538
G1 X110.98 Y119.64 E34.2819
G1 X111.10 Y119.33 E34.2978
G1 X111.18 Y119.05 F4200
G1 X111.25 Y118.34 E34.3320 F600
G1 X111.17 Y117.70 E34.3629
G1 X110.96 Y117.10 E34.3933
G1 X110.63 Y116.55 E34.4241
G1 X110.18 Y116.09 E34.4549
G1 X109.61 Y115.70 E34.4880
G1 X109.06 Y115.48 E34.5163
G1 X108.42 Y115.37 E34.5474
G1 X107.78 Y115.38 E34.5781
G1 X107.15 Y115.54 E34.6092
G1 X106.63 Y115.78 E34.6367
G1 X106.48 Y116.04 F4200
G1 X106.31 Y115.86 E34.6485 F600
;shell
G1 E29.6485 F2700
G1 X111.60 Y104.93 F4200
G1 E34.6485 F2700
G1 X111.60 Y104.93 F4200
G1 X111.63 Y104.41 E34.6735 F600
G1 X111.69 Y103.90 E34.6981
G1 X111.80 Y103.37 E34.7240
G1 X111.94 Y102.87 E34.7488
G1 X112.12 Y102.38 E34.7738
G1 X112.35 Y101.90 E34.7993
G1 X112.60 Y101.46 E34.8236
G1 X112.90 Y101.00 E34.8499
G1 X113.22 Y100.59 E34.8748
G1 X113.56 Y100.22 E34.8989
G1 X113.95 Y99.86 E34.9243
G1 X114.36 Y99.53 E34.9495
G1 X114.80 Y99.23 E34.9750
G1 X115.25 Y98.97 E34.9999
G1 X115.71 Y98.75 E35.0243
G1 X116.21 Y98.56 E35.0499
G1 X116.71 Y98.41 E35.0749
G1 X117.24 Y98.30 E35.1008
G1 X117.74 Y98.23 E35.1250
G1 X118.41 Y98.20 E35.1571
G1 X119.06 Y98.23 E35.1883
G1 X119.56 Y98.30 E35.2125
G1 X120.09 Y98.41 E35.2384
G1 X120.59 Y98.56 E35.2634
G1 X121.07 Y98.75 E35.2881
G1 X121.56 Y98.98 E35.3141
G1 X122.00 Y99.23 E35.3383
G1 X122.44 Y99.53 E35.3638
G1 X122.85 Y99.86 E35.3890
G1 X123.24 Y100.22 E35.4144
G1 X123.58 Y100.60 E35.4389
G1 X123.91 Y101.02 E35.4644
G1 X124.20 Y101.44 E35.4889
G1 X124.46 Y101.91 E35.5146
G1 X124.68 Y102.38 E35.5395
G1 X124.86 Y102.87 E35.5645
G1 X125.00 Y103.37 E35.5893
G1 X125.11 Y103.90 E35.6153
G1 X125.17 Y104.41 E35.6399
G1 X125.20 Y104.94 E35.6653
G1 X125.18 Y105.46 E35.6902
G1 X125.13 Y105.97 E35.7147
G1 X125.03 Y106.50 E35.7406
G1 X124.90 Y106.99 E35.7649
G1 X124.72 Y107.51 E35.7912
G1 X124.51 Y107.98 E35.8159
G1 X124.27 Y108.43 E35.8403
G1 X123.99 Y108.88 E35.8657
G1 X123.67 Y109.30 E35.8910
G1 X123.33 Y109.68 E35.9154
G1 X122.95 Y110.05 E35.9408
G1 X122.54 Y110.39 E35.9663
G1 X122.12 Y110.69 E35.9910
G1 X121.66 Y110.97 E36.0168
G1 X121.19 Y111.20 E36.0419
G1 X120.73 Y111.39 E36.0657
G1 X120.21 Y111.55 E36.0918
G1 X119.70 Y111.67 E36.1169
G1 X119.17 Y111.76 E36.1426
G1 X118.67 Y111.79 E36.1666
G1 X118.13 Y111.79 E36.1925
G1 X117.63 Y111.76 E36.2165
G1 X117.10 Y111.67 E36.2422
G1 X116.59 Y111.55 E36.2673
G1 X116.08 Y111.39 E36.2929
G1 X115.61 Y111.20 E36.3172
G1 X115.14 Y110.97 E36.3422
G1 X114.67 Y110.69 E36.3685
G1 X114.27 Y110.40 E36.3921
G1 X113.85 Y110.05 E36.4183
G1 X113.47 Y109.68 E36.4437
G1 X113.14 Y109.31 E36.4674
G1 X112.81 Y108.87 E36.4938
G1 X112.53 Y108.44 E36.5184
G1 X112.28 Y107.97 E36.5439
G1 X112.08 Y107.50 E36.5683
G1 X111.90 Y106.99 E36.5942
G1 X111.77 Y106.50 E36.6185
G1 X111.67 Y105.97 E36.6443
G1 X111.62 Y105.46 E36.6689
G1 X111.60 Y104.93 E36.6943
G1 X111.20 Y104.94 F4200
G1 X111.23 Y104.37 E36.7216 F600
G1 X111.29 Y103.83 E36.7476
G1 X111.41 Y103.27 E36.7751
G1 X111.56 Y102.75 E36.8010
G1 X111.76 Y102.22 E36.8281
G1 X111.99 Y101.73 E36.8541
G1 X112.26 Y101.25 E36.8804
G1 X112.57 Y100.77 E36.9078
G1 X112.90 Y100.35 E36.9334
G1 X113.29 Y99.93 E36.9608
G1 X113.68 Y99.56 E36.9866
G1 X114.12 Y99.21 E37.0135
G1 X114.58 Y98.89 E37.0403
G1 X115.06 Y98.62 E37.0667
G1 X115.57 Y98.38 E37.0937
G1 X116.08 Y98.18 E37.1200
G1 X116.61 Y98.03 E37.1463
G1 X117.16 Y97.91 E37.1733
G1 X117.70 Y97.83 E37.1994
G1 X118.41 Y97.80 E37.2335
G1 X119.10 Y97.83 E37.2666
G1 X119.63 Y97.91 E37.2922
G1 X120.19 Y98.03 E37.3197
G1 X120.72 Y98.18 E37.3460
G1 X121.23 Y98.38 E37.3723
G1 X121.74 Y98.62 E37.3993
G1 X122.22 Y98.90 E37.4259
G1 X122.67 Y99.20 E37.4518
G1 X123.12 Y99.56 E37.4794
G1 X123.51 Y99.93 E37.5051
G1 X123.89 Y100.35 E37.5323
G1 X124.24 Y100.79 E37.5592
G1 X124.54 Y101.24 E37.5851
G1 X124.81 Y101.73 E37.6119
G1 X125.04 Y102.22 E37.6378
G1 X125.24 Y102.75 E37.6649
G1 X125.39 Y103.27 E37.6909
G1 X125.50 Y103.83 E37.7182
G1 X125.57 Y104.37 E37.7443
G1 X125.60 Y104.94 E37.7716
G1 X125.58 Y105.48 E37.7975
G1 X125.53 Y106.03 E37.8239
G1 X125.42 Y106.59 E37.8513
G1 X125.28 Y107.11 E37.8771
G1 X125.10 Y107.64 E37.9039
G1 X124.87 Y108.16 E37.9311
G1 X124.61 Y108.64 E37.9573
G1 X124.32 Y109.10 E37.9833
G1 X123.98 Y109.55 E38.0103
G1 X123.62 Y109.96 E38.0364
G1 X123.21 Y110.35 E38.0635
G1 X122.79 Y110.71 E38.0900
G1 X122.34 Y111.03 E38.1165
G1 X121.85 Y111.32 E38.1438
G1 X121.36 Y111.56 E38.1699
G1 X120.85 Y111.77 E38.1963
G1 X120.32 Y111.94 E38.2230
G1 X119.78 Y112.07 E38.2496
G1 X119.22 Y112.15 E38.2767
G1 X118.68 Y112.19 E38.3026
G1 X118.12 Y112.19 E38.3294
G1 X117.58 Y112.15 E38.3553
G1 X117.02 Y112.07 E38.3824
G1 X116.48 Y111.94 E38.4090
G1 X115.94 Y111.77 E38.4361
G1 X115.44 Y111.56 E38.4621
G1 X114.95 Y111.32 E38.4883
G1 X114.46 Y111.03 E38.5155
G1 X114.01 Y110.71 E38.5420
G1 X113.58 Y110.35 E38.5688
G1 X113.18 Y109.96 E38.5956
G1 X112.82 Y109.55 E38.6217
G1 X112.48 Y109.10 E38.6487
G1 X112.19 Y108.64 E38.6748
G1 X111.92 Y108.14 E38.7020
G1 X111.70 Y107.65 E38.7277
G1 X111.52 Y107.11 E38.7550
G1 X111.38 Y106.59 E38.7808
G1 X111.27 Y106.03 E38.8081
G1 X111.22 Y105.48 E38.8345
G1 X111.20 Y104.94 E38.8604
G1 X115.70 Y104.85 F4200
G1 X115.70 Y104.85
G1 X115.73 Y105.44 E38.8887 F600
G1 X115.89 Y106.01 E38.9171
G1 X116.17 Y106.52 E38.9449
G1 X116.54 Y106.97 E38.9728
G1 X117.02 Y107.32 E39.0013
G1 X117.54 Y107.56 E39.0287
G1 X118.12 Y107.69 E39.0572
