;generated by ffslicer 1.30.3 09/15/23 19:34:06
;right_extruder_material: PLA
;layer_height: 0.2
;perimeter_shells: 2
;top_solid_layers: 4
;bottom_solid_layers: 3
;fill_density: 15%
;fill_pattern: hexagon
;base_print_speed: 50
;travel_speed: 80
;right_extruder_temperature: 200
;left_extruder_temperature: 0
;platform_temperature: 60
;right_extruder_temperature_raft0: 0
;left_extruder_temperature_raft0: 0
;right_extruder_temperature_reset: 
;left_extruder_temperature_reset: 
;start gcode
M140 S60 T0
M104 S200 T0
M104 S0 T1
G90
G28
G1 Z50.000 F420
G161 X Y F3300
M190 S60 T0
M109 S200 T0
M109 S0 T1
G92 E.0000
;layer_count: 25
M108 T0
G1 X84.99 Y85.00 F4800
;preExtrude:0.20
;preExtruder0
M106 S255
G1 Z.200 F420
G1 X84.99 Y85.00 F4800
G1 X134.99 Y85.00 E6.3859 F1200
G1 X134.99 Y135.00 E12.7719
G1 X84.99 Y135.00 E19.1578
G1 X84.99 Y85.00 E25.5438
;raft
;layer:0.30
;shell
G1 E20.5438 F2700
G1 Z.300 F420
G1 X102.60 Y109.98 F4200
G1 E25.5438 F2700
G1 X102.60 Y109.98 F4200
G1 X102.64 Y109.51 E25.5664 F300
G1 X102.76 Y109.05 E25.5891
G1 X102.95 Y108.61 E25.6121
G1 X103.20 Y108.23 E25.6339
G1 X103.52 Y107.88 E25.6566
G1 X103.90 Y107.59 E25.6795
G1 X104.30 Y107.36 E25.7016
G1 X104.75 Y107.20 E25.7245
G1 X105.20 Y107.12 E25.7464
G1 X105.67 Y107.11 E25.7689
G1 X106.14 Y107.17 E25.7916
G1 X106.59 Y107.31 E25.8141
G1 X107.01 Y107.52 E25.8366
G1 X107.39 Y107.81 E25.8595
G1 X107.72 Y108.13 E25.8815
G1 X107.99 Y108.52 E25.9043
G1 X108.20 Y108.94 E25.9268
G1 X108.33 Y109.39 E25.9492
G1 X108.39 Y109.85 E25.9714
G1 X108.38 Y110.33 E25.9944
G1 X108.29 Y110.78 E26.0164
G1 X108.12 Y111.23 E26.0394
G1 X107.90 Y111.63 E26.0613
G1 X107.60 Y112.00 E26.0841
G1 X107.25 Y112.31 E26.1065
G1 X106.85 Y112.56 E26.1291
G1 X106.42 Y112.75 E26.1516
G1 X105.97 Y112.86 E26.1738
G1 X105.50 Y112.90 E26.1964
G1 X105.03 Y112.86 E26.2190
G1 X104.58 Y112.75 E26.2412
G1 X104.15 Y112.56 E26.2637
G1 X103.75 Y112.31 E26.2863
G1 X103.40 Y112.00 E26.3087
G1 X103.10 Y111.63 E26.3315
G1 X102.88 Y111.23 E26.3533
G1 X102.71 Y110.78 E26.3764
G1 X102.62 Y110.32 E26.3988
G1 X102.60 Y109.98 E26.4151
G1 X102.20 Y109.97 F4200
G1 X102.25 Y109.44 E26.4406 F300
G1 X102.38 Y108.92 E26.4663
G1 X102.60 Y108.42 E26.4925
G1 X102.89 Y107.98 E26.5177
G1 X103.25 Y107.58 E26.5435
G1 X103.67 Y107.25 E26.5691
G1 X104.14 Y106.99 E26.5948
G1 X104.64 Y106.81 E26.6202
G1 X105.17 Y106.72 E26.6460
G1 X105.70 Y106.71 E26.6714
G1 X106.23 Y106.78 E26.6970
G1 X106.74 Y106.94 E26.7226
G1 X107.22 Y107.18 E26.7483
G1 X107.65 Y107.50 E26.7740
G1 X108.03 Y107.88 E26.7997
G1 X108.33 Y108.31 E26.8248
G1 X108.57 Y108.80 E26.8509
G1 X108.73 Y109.30 E26.8761
G1 X108.80 Y109.83 E26.9017
G1 X108.78 Y110.37 E26.9276
G1 X108.68 Y110.89 E26.9529
G1 X108.49 Y111.39 E26.9785
G1 X108.23 Y111.86 E27.0043
G1 X107.89 Y112.28 E27.0301
G1 X107.50 Y112.63 E27.0552
G1 X107.04 Y112.92 E27.0813
G1 X106.55 Y113.13 E27.1068
G1 X106.03 Y113.26 E27.1325
G1 X105.50 Y113.30 E27.1580
G1 X104.97 Y113.26 E27.1834
G1 X104.45 Y113.13 E27.2091
G1 X103.96 Y112.92 E27.2346
G1 X103.50 Y112.63 E27.2607
G1 X103.11 Y112.28 E27.2858
G1 X102.77 Y111.86 E27.3116
G1 X102.51 Y111.39 E27.3374
G1 X102.32 Y110.89 E27.3630
G1 X102.22 Y110.37 E27.3883
G1 X102.20 Y109.97 E27.4075
G1 X102.90 Y109.89 F4200
G1 X102.94 Y110.46 E27.4349 F300
G1 X103.09 Y110.99 E27.4613
G1 X103.36 Y111.48 E27.4881
G1 X103.73 Y111.90 E27.5149
G1 X104.17 Y112.24 E27.5415
G1 X104.68 Y112.47 E27.5683
G1 X105.23 Y112.59 E27.5953
G1 X105.78 Y112.59 E27.6216
G1 X106.33 Y112.47 E27.6486
G1 X106.84 Y112.24 E27.6754
G1 X107.28 Y111.90 E27.7020
G1 X107.65 Y111.48 E27.7288
G1 X107.91 Y110.99 E27.7554
G1 X108.06 Y110.45 E27.7822
G1 X108.10 Y109.89 E27.8091
G1 X108.02 Y109.34 E27.8357
G1 X107.82 Y108.82 E27.8624
G1 X107.51 Y108.35 E27.8894
G1 X107.12 Y107.96 E27.9158
G1 X106.64 Y107.66 E27.9429
G1 X106.11 Y107.47 E27.9699
G1 X105.50 Y107.40 E27.9993
G1 X104.88 Y107.47 E28.0292
G1 X104.35 Y107.66 E28.0561
G1 X103.88 Y107.96 E28.0828
G1 X103.48 Y108.36 E28.1099
G1 X103.18 Y108.82 E28.1362
G1 X102.98 Y109.35 E28.1634
G1 X102.90 Y109.89 E28.1895
G1 X103.30 Y109.91 F4200
G1 X103.33 Y110.39 E28.2125 F300
G1 X103.46 Y110.84 E28.2350
G1 X103.69 Y111.25 E28.2575
G1 X104.00 Y111.61 E28.2802
G1 X104.38 Y111.89 E28.3028
G1 X104.81 Y112.09 E28.3256
G1 X105.27 Y112.19 E28.3481
G1 X105.74 Y112.19 E28.3706
G1 X106.20 Y112.09 E28.3932
G1 X106.63 Y111.89 E28.4159
G1 X107.01 Y111.61 E28.4385
G1 X107.31 Y111.25 E28.4609
G1 X107.54 Y110.83 E28.4839
G1 X107.67 Y110.38 E28.5063
G1 X107.70 Y109.91 E28.5288
G1 X107.63 Y109.44 E28.5516
G1 X107.46 Y109.00 E28.5742
G1 X107.20 Y108.61 E28.5966
G1 X106.87 Y108.28 E28.6190
G1 X106.47 Y108.02 E28.6418
G1 X106.02 Y107.86 E28.6647
G1 X105.50 Y107.80 E28.6898
G1 X104.97 Y107.86 E28.7153
G1 X104.53 Y108.03 E28.7379
G1 X104.13 Y108.28 E28.7605
G1 X103.79 Y108.61 E28.7832
G1 X103.54 Y109.01 E28.8058
G1 X103.37 Y109.45 E28.8284
G1 X103.30 Y109.91 E28.8507
;shell
G1 E23.8507 F2700
G1 X111.60 Y107.10 F4200
G1 E28.8507 F2700
G1 X111.60 Y107.10 F4200
G1 X117.40 Y107.10 E29.1285 F300
G1 X117.40 Y112.90 E29.4063
G1 X111.60 Y112.90 E29.6841
G1 X111.60 Y107.10 E29.9618
G1 X111.20 Y106.70 F4200
G1 X117.80 Y106.70 E30.2779 F300
G1 X117.80 Y113.30 E30.5940
G1 X111.20 Y113.30 E30.9102
G1 X111.20 Y106.70 E31.2263
G1 X111.90 Y107.40 F4200
G1 X111.90 Y112.60 E31.4753 F300
G1 X117.10 Y112.60 E31.7244
G1 X117.10 Y107.40 E31.9734
G1 X111.90 Y107.40 E32.2225
G1 X112.30 Y107.80 F4200
G1 X112.30 Y112.20 E32.4332 F300
G1 X116.70 Y112.20 E32.6439
G1 X116.70 Y107.80 E32.8547
G1 X112.30 Y107.80 E33.0654
;percent
;layer:0.20
;shell
G1 Z.500 F420
G1 X111.60 Y107.10 F4800
G1 X117.40 Y107.10 E33.2506 F300
G1 X117.40 Y112.90 E33.4358
G1 X111.60 Y112.90 E33.6210
G1 X111.60 Y107.10 E33.8062
G1 X111.20 Y106.70 F4800
G1 X117.80 Y106.70 E34.0169 F300
G1 X117.80 Y113.30 E34.2276
G1 X111.20 Y113.30 E34.4384
G1 X111.20 Y106.70 E34.6491
G1 X111.90 Y107.40 F4800
G1 X111.90 Y112.60 E34.8151 F300
G1 X117.10 Y112.60 E34.9812
G1 X117.10 Y107.40 E35.1472
G1 X111.90 Y107.40 E35.3133
G1 X112.30 Y107.80 F4800
G1 X112.30 Y112.20 E35.4537 F300
G1 X116.70 Y112.20 E35.5942
G1 X116.70 Y107.80 E35.7347
G1 X112.30 Y107.80 E35.8752
;shell
G1 E30.8752 F2700
G1 X102.60 Y109.98 F4800
G1 E35.8752 F2700
G1 X102.60 Y109.98 F4800
G1 X102.64 Y109.51 E35.8903 F300
G1 X102.76 Y109.05 E35.9055
G1 X102.95 Y108.61 E35.9208
G1 X103.20 Y108.23 E35.9353
G1 X103.52 Y107.88 E35.9504
G1 X103.90 Y107.59 E35.9657
G1 X104.30 Y107.36 E35.9804
G1 X104.75 Y107.20 E35.9957
G1 X105.20 Y107.12 E36.0103
G1 X105.67 Y107.11 E36.0253
G1 X106.14 Y107.17 E36.0404
G1 X106.59 Y107.31 E36.0555
G1 X107.01 Y107.52 E36.0705
G1 X107.39 Y107.81 E36.0857
G1 X107.72 Y108.13 E36.1004
G1 X107.99 Y108.52 E36.1155
G1 X108.20 Y108.94 E36.1305
G1 X108.33 Y109.39 E36.1455
G1 X108.39 Y109.85 E36.1603
G1 X108.38 Y110.33 E36.1756
G1 X108.29 Y110.78 E36.1903
G1 X108.12 Y111.23 E36.2056
G1 X107.90 Y111.63 E36.2202
G1 X107.60 Y112.00 E36.2354
G1 X107.25 Y112.31 E36.2504
G1 X106.85 Y112.56 E36.2654
G1 X106.42 Y112.75 E36.2804
G1 X105.97 Y112.86 E36.2952
G1 X105.50 Y112.90 E36.3103
G1 X105.03 Y112.86 E36.3253
G1 X104.58 Y112.75 E36.3401
G1 X104.15 Y112.56 E36.3551
G1 X103.75 Y112.31 E36.3702
G1 X103.40 Y112.00 E36.3851
G1 X103.10 Y111.63 E36.4004
G1 X102.88 Y111.23 E36.4149
G1 X102.71 Y110.78 E36.4303
G1 X102.62 Y110.32 E36.4453
G1 X102.60 Y109.98 E36.4561
G1 X102.20 Y109.97 F4800
G1 X102.25 Y109.44 E36.4731 F300
G1 X102.38 Y108.92 E36.4902
G1 X102.60 Y108.42 E36.5077
G1 X102.89 Y107.98 E36.5245
G1 X103.25 Y107.58 E36.5417
G1 X103.67 Y107.25 E36.5587
G1 X104.14 Y106.99 E36.5759
G1 X104.64 Y106.81 E36.5929
G1 X105.17 Y106.72 E36.6100
G1 X105.70 Y106.71 E36.6270
G1 X106.23 Y106.78 E36.6440
G1 X106.74 Y106.94 E36.6611
G1 X107.22 Y107.18 E36.6782
G1 X107.65 Y107.50 E36.6953
G1 X108.03 Y107.88 E36.7125
G1 X108.33 Y108.31 E36.7292
G1 X108.57 Y108.80 E36.7467
G1 X108.73 Y109.30 E36.7634
G1 X108.80 Y109.83 E36.7805
G1 X108.78 Y110.37 E36.7977
G1 X108.68 Y110.89 E36.8147
G1 X108.49 Y111.39 E36.8317
G1 X108.23 Y111.86 E36.8489
G1 X107.89 Y112.28 E36.8661
G1 X107.50 Y112.63 E36.8829
G1 X107.04 Y112.92 E36.9002
G1 X106.55 Y113.13 E36.9173
G1 X106.03 Y113.26 E36.9344
G1 X105.50 Y113.30 E36.9513
G1 X104.97 Y113.26 E36.9683
G1 X104.45 Y113.13 E36.9854
G1 X103.96 Y112.92 E37.0024
G1 X103.50 Y112.63 E37.0198
G1 X103.11 Y112.28 E37.0365
G1 X102.77 Y111.86 E37.0538
G1 X102.51 Y111.39 E37.0709
G1 X102.32 Y110.89 E37.0880
G1 X102.22 Y110.37 E37.1049
G1 X102.20 Y109.97 E37.1177
G1 X102.90 Y109.89 F4800
G1 X102.94 Y110.46 E37.1360 F300
G1 X103.09 Y110.99 E37.1535
G1 X103.37 Y111.49 E37.1718
G1 X103.73 Y111.91 E37.1895
G1 X104.17 Y112.24 E37.2071
G1 X104.69 Y112.47 E37.2252
G1 X105.23 Y112.59 E37.2429
G1 X105.79 Y112.59 E37.2608
G1 X106.34 Y112.47 E37.2787
G1 X106.84 Y112.23 E37.2964
G1 X107.29 Y111.89 E37.3145
G1 X107.65 Y111.47 E37.3321
G1 X107.91 Y110.98 E37.3498
G1 X108.06 Y110.44 E37.3677
G1 X108.10 Y109.88 E37.3857
G1 X108.02 Y109.33 E37.4034
G1 X107.82 Y108.81 E37.4212
G1 X107.51 Y108.35 E37.4389
G1 X107.11 Y107.96 E37.4567
G1 X106.64 Y107.66 E37.4745
G1 X106.11 Y107.47 E37.4925
G1 X105.50 Y107.40 E37.5121
G1 X104.87 Y107.47 E37.5324
G1 X104.34 Y107.67 E37.5504
G1 X103.87 Y107.97 E37.5683
G1 X103.48 Y108.36 E37.5859
G1 X103.17 Y108.83 E37.6038
G1 X102.98 Y109.35 E37.6215
G1 X102.90 Y109.89 E37.6389
G1 X103.30 Y109.91 F4800
G1 X103.33 Y110.39 E37.6543 F300
G1 X103.47 Y110.84 E37.6693
G1 X103.69 Y111.26 E37.6845
G1 X104.00 Y111.61 E37.6994
G1 X104.38 Y111.90 E37.7147
G1 X104.81 Y112.09 E37.7297
G1 X105.27 Y112.19 E37.7447
G1 X105.74 Y112.19 E37.7597
G1 X106.21 Y112.09 E37.7751
G1 X106.63 Y111.89 E37.7899
G1 X107.01 Y111.60 E37.8052
G1 X107.32 Y111.24 E37.8204
G1 X107.54 Y110.83 E37.8352
G1 X107.67 Y110.37 E37.8505
G1 X107.70 Y109.90 E37.8655
G1 X107.63 Y109.44 E37.8804
G1 X107.46 Y109.00 E37.8954
G1 X107.20 Y108.60 E37.9107
G1 X106.86 Y108.27 E37.9258
G1 X106.46 Y108.02 E37.9409
G1 X106.02 Y107.86 E37.9558
G1 X105.50 Y107.80 E37.9725
G1 X104.97 Y107.86 E37.9895
G1 X104.52 Y108.03 E38.0049
G1 X104.12 Y108.28 E38.0200
G1 X103.79 Y108.61 E38.0349
G1 X103.53 Y109.01 E38.0501
G1 X103.37 Y109.45 E38.0651
G1 X103.30 Y109.91 E38.0799
;percent
;layer:0.20
;shell
G1 Z.700 F420
G1 X102.60 Y109.98 F4800
G1 X102.64 Y109.51 E38.0950 F300
G1 X102.76 Y109.05 E38.1102
G1 X102.95 Y108.61 E38.1255
G1 X103.20 Y108.23 E38.1400
G1 X103.52 Y107.88 E38.1551
G1 X103.90 Y107.59 E38.1704
G1 X104.30 Y107.36 E38.1851
G1 X104.75 Y107.20 E38.2004
G1 X105.20 Y107.12 E38.2150
G1 X105.67 Y107.11 E38.2300
G1 X106.14 Y107.17 E38.2451
G1 X106.59 Y107.31 E38.2601
G1 X107.01 Y107.52 E38.2751
G1 X107.39 Y107.81 E38.2904
G1 X107.72 Y108.13 E38.3051
G1 X107.99 Y108.52 E38.3202
G1 X108.20 Y108.94 E38.3352
G1 X108.33 Y109.39 E38.3502
G1 X108.39 Y109.85 E38.3650
G1 X108.38 Y110.33 E38.3803
G1 X108.29 Y110.78 E38.3950
G1 X108.12 Y111.23 E38.4103
G1 X107.90 Y111.63 E38.4249
G1 X107.60 Y112.00 E38.4401
G1 X107.25 Y112.31 E38.4550
G1 X106.85 Y112.56 E38.4701
G1 X106.42 Y112.75 E38.4851
G1 X105.97 Y112.86 E38.4999
G1 X105.50 Y112.90 E38.5150
G1 X105.03 Y112.86 E38.5300
G1 X104.58 Y112.75 E38.5448
G1 X104.15 Y112.56 E38.5598
G1 X103.75 Y112.31 E38.5749
G1 X103.40 Y112.00 E38.5898
G1 X103.10 Y111.63 E38.6050
G1 X102.88 Y111.23 E38.6196
G1 X102.71 Y110.78 E38.6350
G1 X102.62 Y110.32 E38.6499
G1 X102.60 Y109.98 E38.6608
G1 X102.20 Y109.97 F4800
G1 X102.25 Y109.44 E38.6778 F300
G1 X102.38 Y108.92 E38.6949
G1 X102.60 Y108.42 E38.7124
G1 X102.89 Y107.98 E38.7292
G1 X103.25 Y107.58 E38.7464
G1 X103.67 Y107.25 E38.7634
G1 X104.14 Y106.99 E38.7806
G1 X104.64 Y106.81 E38.7976
G1 X105.17 Y106.72 E38.8147
G1 X105.70 Y106.71 E38.8316
G1 X106.23 Y106.78 E38.8487
G1 X106.74 Y106.94 E38.8658
G1 X107.22 Y107.18 E38.8829
G1 X107.65 Y107.50 E38.9000
G1 X108.03 Y107.88 E38.9172
G1 X108.33 Y108.31 E38.9339
G1 X108.57 Y108.80 E38.9514
G1 X108.73 Y109.30 E38.9681
G1 X108.80 Y109.83 E38.9852
G1 X108.78 Y110.37 E39.0024
G1 X108.68 Y110.89 E39.0193
G1 X108.49 Y111.39 E39.0364
G1 X108.23 Y111.86 E39.0536
G1 X107.89 Y112.28 E39.0708
G1 X107.50 Y112.63 E39.0876
G1 X107.04 Y112.92 E39.1049
G1 X106.55 Y113.13 E39.1219
G1 X106.03 Y113.26 E39.1391
G1 X105.50 Y113.30 E39.1560
G1 X104.97 Y113.26 E39.1730
G1 X104.45 Y113.13 E39.1901
G1 X103.96 Y112.92 E39.2071
G1 X103.50 Y112.63 E39.2245
G1 X103.11 Y112.28 E39.2412
G1 X102.77 Y111.86 E39.2585
G1 X102.51 Y111.39 E39.2756
G1 X102.32 Y110.89 E39.2927
G1 X102.22 Y110.37 E39.3096
G1 X102.20 Y109.97 E39.3224
G1 X102.90 Y109.89 F4800
G1 X102.94 Y110.47 E39.3410 F300
G1 X103.10 Y111.00 E39.3586
G1 X103.37 Y111.50 E39.3768
G1 X103.73 Y111.91 E39.3942
G1 X104.18 Y112.24 E39.4120
G1 X104.69 Y112.47 E39.4299
G1 X105.24 Y112.59 E39.4479
G1 X105.79 Y112.59 E39.4654
G1 X106.34 Y112.46 E39.4835
G1 X106.85 Y112.23 E39.5013
G1 X107.29 Y111.89 E39.5191
G1 X107.65 Y111.46 E39.5370
G1 X107.91 Y110.98 E39.5544
G1 X108.06 Y110.44 E39.5723
G1 X108.10 Y109.87 E39.5906
G1 X108.02 Y109.33 E39.6080
G1 X107.81 Y108.81 E39.6259
G1 X107.51 Y108.34 E39.6437
G1 X107.11 Y107.95 E39.6615
G1 X106.63 Y107.66 E39.6795
G1 X106.10 Y107.47 E39.6974
G1 X105.49 Y107.40 E39.7170
G1 X104.87 Y107.47 E39.7370
G1 X104.34 Y107.67 E39.7550
G1 X103.87 Y107.97 E39.7728
G1 X103.48 Y108.37 E39.7907
G1 X103.17 Y108.84 E39.8087
G1 X102.98 Y109.36 E39.8263
G1 X102.90 Y109.89 E39.8434
G1 X103.30 Y109.91 F4800
G1 X103.33 Y110.40 E39.8591 F300
G1 X103.47 Y110.85 E39.8742
G1 X103.70 Y111.26 E39.8892
G1 X104.01 Y111.62 E39.9043
G1 X104.39 Y111.90 E39.9194
G1 X104.82 Y112.09 E39.9344
G1 X105.28 Y112.19 E39.9495
G1 X105.75 Y112.19 E39.9645
G1 X106.21 Y112.08 E39.9796
G1 X106.64 Y111.88 E39.9947
G1 X107.01 Y111.60 E40.0095
G1 X107.32 Y111.24 E40.0247
G1 X107.54 Y110.82 E40.0398
G1 X107.67 Y110.37 E40.0548
G1 X107.70 Y109.90 E40.0698
G1 X107.63 Y109.43 E40.0850
G1 X107.46 Y108.99 E40.1001
G1 X107.20 Y108.60 E40.1150
G1 X106.86 Y108.27 E40.1302
G1 X106.46 Y108.02 E40.1452
G1 X106.01 Y107.86 E40.1605
G1 X105.49 Y107.80 E40.1772
G1 X104.96 Y107.87 E40.1943
G1 X104.52 Y108.03 E40.2092
G1 X104.12 Y108.29 E40.2244
G1 X103.79 Y108.62 E40.2393
G1 X103.53 Y109.02 E40.2546
G1 X103.37 Y109.46 E40.2695
G1 X103.30 Y109.91 E40.2841
;shell
G1 E35.2841 F2700
G1 X111.60 Y107.10 F4800
G1 E40.2841 F2700
G1 X111.60 Y107.10 F4800
G1 X117.40 Y107.10 E40.4693 F300
G1 X117.40 Y112.90 E40.6545
G1 X111.60 Y112.90 E40.8396
G1 X111.60 Y107.10 E41.0248
G1 X111.20 Y106.70 F4800
G1 X117.80 Y106.70 E41.2356 F300
G1 X117.80 Y113.30 E41.4463
G1 X111.20 Y113.30 E41.6570
G1 X111.20 Y106.70 E41.8678
G1 X111.90 Y107.40 F4800
G1 X111.90 Y112.60 E42.0338 F300
G1 X117.10 Y112.60 E42.1998
G1 X117.10 Y107.40 E42.3659
G1 X111.90 Y107.40 E42.5319
G1 X112.30 Y107.80 F4800
G1 X112.30 Y112.20 E42.6724 F300
G1 X116.70 Y112.20 E42.8129
G1 X116.70 Y107.80 E42.9534
G1 X112.30 Y107.80 E43.0939
;percent
;layer:0.20
;shell
G1 Z.900 F420
G1 X111.60 Y107.10 F4800
G1 X117.40 Y107.10 E43.2791 F300
G1 X117.40 Y112.90 E43.4643
G1 X111.60 Y112.90 E43.6495
G1 X111.60 Y107.10 E43.8346
G1 X111.20 Y106.70 F4800
G1 X117.80 Y106.70 E44.0454 F300
G1 X117.80 Y113.30 E44.2561
G1 X111.20 Y113.30 E44.4669
G1 X111.20 Y106.70 E44.6776
G1 X111.90 Y107.40 F4800
G1 X111.90 Y112.60 E44.8436 F300
G1 X117.10 Y112.60 E45.0097
G1 X117.10 Y107.40 E45.1757
G1 X111.90 Y107.40 E45.3417
G1 X112.30 Y107.80 F4800
G1 X112.30 Y112.20 E45.4822 F300
G1 X116.70 Y112.20 E45.6227
G1 X116.70 Y107.80 E45.7632
G1 X112.30 Y107.80 E45.9037
;shell
G1 E40.9037 F2700
G1 X102.60 Y109.98 F4800
G1 E45.9037 F2700
G1 X102.60 Y109.98 F4800
G1 X102.64 Y109.51 E45.9188 F300
G1 X102.76 Y109.05 E45.9339
G1 X102.95 Y108.61 E45.9492
G1 X103.20 Y108.23 E45.9638
G1 X103.52 Y107.88 E45.9789
G1 X103.90 Y107.59 E45.9942
G1 X104.30 Y107.36 E46.0089
G1 X104.75 Y107.20 E46.0242
G1 X105.20 Y107.12 E46.0387
G1 X105.67 Y107.11 E46.0538
G1 X106.14 Y107.17 E46.0689
G1 X106.59 Y107.31 E46.0839
G1 X107.01 Y107.52 E46.0989
G1 X107.39 Y107.81 E46.1142
G1 X107.72 Y108.13 E46.1289
G1 X107.99 Y108.52 E46.1440
G1 X108.20 Y108.94 E46.1590
G1 X108.33 Y109.39 E46.1740
G1 X108.39 Y109.85 E46.1888
G1 X108.38 Y110.32 E46.2038
