;generated by ffslicer 1.30.3 09/05/23 22:56:42
;right_extruder_material: PLA
;layer_height: 0.2
;perimeter_shells: 2
;top_solid_layers: 4
;bottom_solid_layers: 3
;fill_density: 15%
;fill_pattern: hexagon
;base_print_speed: 50
;travel_speed: 80
;right_extruder_temperature: 200
;left_extruder_temperature: 0
;platform_temperature: 60
;right_extruder_temperature_raft0: 0
;left_extruder_temperature_raft0: 0
;right_extruder_temperature_reset: 
;left_extruder_temperature_reset: 
;start gcode
M140 S60 T0
M104 S200 T0
M104 S0 T1
G90
G28
G1 Z50.000 F420
G161 X Y F3300
M190 S60 T0
M109 S200 T0
M109 S0 T1
G92 E.0000
;layer_count: 52
M108 T0
G1 X85.00 Y85.00 F4800
;preExtrude:0.20
;preExtruder0
M106 S255
G1 Z.200 F420
G1 X85.00 Y85.00 F4800
G1 X135.00 Y85.00 E6.3859 F1200
G1 X135.00 Y135.00 E12.7719
G1 X85.00 Y135.00 E19.1578
G1 X85.00 Y85.00 E25.5438
;raft
;layer:0.30
;shell
G1 E20.5438 F2700
G1 Z.300 F420
G1 X103.30 Y105.73 F4200
G1 E25.5438 F2700
G1 X103.30 Y105.73 F4200
G1 X103.35 Y105.36 E25.5617 F341
G1 X103.44 Y105.02 E25.5785
G1 X103.59 Y104.68 E25.5963
G1 X103.77 Y104.37 E25.6135
G1 X104.00 Y104.09 E25.6308
G1 X104.27 Y103.85 E25.6481
G1 X104.58 Y103.64 E25.6661
G1 X104.91 Y103.48 E25.6836
G1 X105.24 Y103.38 E25.7002
G1 X105.61 Y103.31 E25.7182
G1 X105.97 Y103.30 E25.7354
G1 X106.34 Y103.35 E25.7533
G1 X106.68 Y103.44 E25.7702
G1 X107.02 Y103.59 E25.7880
G1 X107.33 Y103.77 E25.8051
G1 X107.61 Y104.00 E25.8225
G1 X107.85 Y104.27 E25.8398
G1 X108.06 Y104.58 E25.8577
G1 X108.22 Y104.91 E25.8753
G1 X108.33 Y105.24 E25.8919
G1 X108.39 Y105.61 E25.9099
G1 X108.40 Y105.97 E25.9271
G1 X108.35 Y106.34 E25.9450
G1 X108.26 Y106.68 E25.9619
G1 X108.11 Y107.02 E25.9797
G1 X107.93 Y107.33 E25.9968
G1 X107.70 Y107.61 E26.0142
G1 X107.42 Y107.86 E26.0322
G1 X107.13 Y108.06 E26.0491
G1 X106.79 Y108.22 E26.0670
G1 X106.46 Y108.33 E26.0837
G1 X106.09 Y108.39 E26.1017
G1 X105.73 Y108.40 E26.1189
G1 X105.36 Y108.35 E26.1368
G1 X105.02 Y108.26 E26.1536
G1 X104.68 Y108.11 E26.1714
G1 X104.37 Y107.93 E26.1886
G1 X104.09 Y107.70 E26.2060
G1 X103.84 Y107.42 E26.2239
G1 X103.65 Y107.13 E26.2405
G1 X103.48 Y106.79 E26.2588
G1 X103.37 Y106.46 E26.2754
G1 X103.31 Y106.09 E26.2934
G1 X103.30 Y105.73 E26.3106
G1 X102.90 Y105.71 F4200
G1 X102.95 Y105.29 E26.3309 F341
G1 X103.06 Y104.89 E26.3507
G1 X103.23 Y104.50 E26.3711
G1 X103.45 Y104.14 E26.3913
G1 X103.71 Y103.82 E26.4111
G1 X104.03 Y103.53 E26.4318
G1 X104.38 Y103.30 E26.4518
G1 X104.76 Y103.11 E26.4722
G1 X105.15 Y102.98 E26.4919
G1 X105.57 Y102.91 E26.5122
G1 X105.99 Y102.90 E26.5324
G1 X106.41 Y102.95 E26.5526
G1 X106.81 Y103.06 E26.5725
G1 X107.20 Y103.23 E26.5929
G1 X107.56 Y103.45 E26.6131
G1 X107.88 Y103.71 E26.6328
G1 X108.17 Y104.03 E26.6535
G1 X108.41 Y104.38 E26.6738
G1 X108.59 Y104.76 E26.6940
G1 X108.72 Y105.15 E26.7137
G1 X108.79 Y105.57 E26.7341
G1 X108.80 Y105.99 E26.7542
G1 X108.75 Y106.41 E26.7744
G1 X108.64 Y106.81 E26.7943
G1 X108.47 Y107.20 E26.8147
G1 X108.25 Y107.56 E26.8349
G1 X107.99 Y107.88 E26.8546
G1 X107.67 Y108.17 E26.8753
G1 X107.32 Y108.41 E26.8956
G1 X106.94 Y108.59 E26.9158
G1 X106.55 Y108.72 E26.9355
G1 X106.13 Y108.79 E26.9559
G1 X105.71 Y108.80 E26.9760
G1 X105.29 Y108.75 E26.9962
G1 X104.89 Y108.64 E27.0161
G1 X104.50 Y108.47 E27.0365
G1 X104.14 Y108.25 E27.0567
G1 X103.82 Y107.99 E27.0764
G1 X103.53 Y107.67 E27.0971
G1 X103.30 Y107.32 E27.1172
G1 X103.11 Y106.94 E27.1375
G1 X102.98 Y106.55 E27.1572
G1 X102.91 Y106.13 E27.1776
G1 X102.90 Y105.71 E27.1977
G1 X103.59 Y105.85 F4200
G1 X103.67 Y106.44 E27.2263 F341
G1 X103.90 Y106.98 E27.2544
G1 X104.26 Y107.45 E27.2827
G1 X104.72 Y107.80 E27.3104
G1 X105.27 Y108.03 E27.3390
G1 X105.85 Y108.11 E27.3670
G1 X106.44 Y108.03 E27.3955
G1 X106.98 Y107.80 E27.4236
G1 X107.45 Y107.44 E27.4520
G1 X107.80 Y106.98 E27.4797
G1 X108.03 Y106.44 E27.5078
G1 X108.11 Y105.85 E27.5363
G1 X108.03 Y105.26 E27.5648
G1 X107.80 Y104.72 E27.5929
G1 X107.44 Y104.25 E27.6213
G1 X106.98 Y103.90 E27.6490
G1 X106.44 Y103.67 E27.6771
G1 X105.85 Y103.59 E27.7056
G1 X105.26 Y103.67 E27.7341
G1 X104.72 Y103.89 E27.7620
G1 X104.25 Y104.26 E27.7907
G1 X103.90 Y104.72 E27.8184
G1 X103.67 Y105.27 E27.8469
G1 X103.59 Y105.85 E27.8750
G1 X104.00 Y105.85 F4200
G1 X104.06 Y106.33 E27.8981 F341
G1 X104.25 Y106.78 E27.9215
G1 X104.54 Y107.16 E27.9444
G1 X104.93 Y107.45 E27.9677
G1 X105.37 Y107.64 E27.9906
G1 X105.85 Y107.70 E28.0138
G1 X106.33 Y107.64 E28.0370
G1 X106.78 Y107.45 E28.0604
G1 X107.16 Y107.16 E28.0833
G1 X107.45 Y106.78 E28.1062
G1 X107.64 Y106.33 E28.1296
G1 X107.70 Y105.85 E28.1527
G1 X107.64 Y105.37 E28.1759
G1 X107.45 Y104.92 E28.1993
G1 X107.16 Y104.54 E28.2222
G1 X106.78 Y104.25 E28.2451
G1 X106.33 Y104.06 E28.2685
G1 X105.85 Y104.00 E28.2916
G1 X105.37 Y104.06 E28.3148
G1 X104.92 Y104.25 E28.3382
G1 X104.54 Y104.54 E28.3611
G1 X104.25 Y104.93 E28.3844
G1 X104.06 Y105.37 E28.4073
G1 X104.00 Y105.85 E28.4305
;shell
G1 E23.4305 F2700
G1 X111.60 Y105.73 F4200
G1 E28.4305 F2700
G1 X111.60 Y105.73 F4200
G1 X111.65 Y105.36 E28.4484 F341
G1 X111.74 Y105.02 E28.4652
G1 X111.89 Y104.68 E28.4830
G1 X112.07 Y104.37 E28.5002
G1 X112.30 Y104.09 E28.5175
G1 X112.57 Y103.85 E28.5349
G1 X112.88 Y103.64 E28.5528
G1 X113.21 Y103.48 E28.5703
G1 X113.54 Y103.38 E28.5869
G1 X113.91 Y103.31 E28.6049
G1 X114.27 Y103.30 E28.6221
G1 X114.64 Y103.35 E28.6400
G1 X114.98 Y103.44 E28.6569
G1 X115.32 Y103.59 E28.6747
G1 X115.63 Y103.77 E28.6918
G1 X115.91 Y104.00 E28.7092
G1 X116.15 Y104.27 E28.7265
G1 X116.36 Y104.58 E28.7444
G1 X116.52 Y104.91 E28.7620
G1 X116.63 Y105.24 E28.7787
G1 X116.69 Y105.61 E28.7966
G1 X116.70 Y105.97 E28.8139
G1 X116.65 Y106.34 E28.8317
G1 X116.56 Y106.68 E28.8486
G1 X116.41 Y107.02 E28.8664
G1 X116.23 Y107.33 E28.8836
G1 X116.00 Y107.61 E28.9009
G1 X115.72 Y107.86 E28.9189
G1 X115.43 Y108.06 E28.9358
G1 X115.09 Y108.22 E28.9538
G1 X114.76 Y108.33 E28.9704
G1 X114.39 Y108.39 E28.9884
G1 X114.03 Y108.40 E29.0056
G1 X113.66 Y108.35 E29.0235
G1 X113.32 Y108.26 E29.0404
G1 X112.98 Y108.11 E29.0582
G1 X112.67 Y107.93 E29.0753
G1 X112.39 Y107.70 E29.0927
G1 X112.14 Y107.42 E29.1107
G1 X111.95 Y107.13 E29.1273
G1 X111.78 Y106.79 E29.1455
G1 X111.67 Y106.46 E29.1621
G1 X111.61 Y106.09 E29.1801
G1 X111.60 Y105.73 E29.1973
G1 X111.20 Y105.71 F4200
G1 X111.25 Y105.29 E29.2176 F341
G1 X111.36 Y104.89 E29.2375
G1 X111.53 Y104.50 E29.2578
G1 X111.75 Y104.14 E29.2780
G1 X112.01 Y103.82 E29.2978
G1 X112.33 Y103.53 E29.3185
G1 X112.68 Y103.30 E29.3385
G1 X113.06 Y103.11 E29.3589
G1 X113.45 Y102.98 E29.3786
G1 X113.87 Y102.91 E29.3990
G1 X114.29 Y102.90 E29.4191
G1 X114.71 Y102.95 E29.4393
G1 X115.11 Y103.06 E29.4592
G1 X115.50 Y103.23 E29.4796
G1 X115.86 Y103.45 E29.4998
G1 X116.18 Y103.71 E29.5195
G1 X116.47 Y104.03 E29.5402
G1 X116.71 Y104.38 E29.5605
G1 X116.89 Y104.76 E29.5807
G1 X117.02 Y105.15 E29.6004
G1 X117.09 Y105.57 E29.6208
G1 X117.10 Y105.99 E29.6409
G1 X117.05 Y106.41 E29.6611
G1 X116.94 Y106.81 E29.6810
G1 X116.77 Y107.20 E29.7014
G1 X116.55 Y107.56 E29.7216
G1 X116.29 Y107.88 E29.7413
G1 X115.97 Y108.17 E29.7620
G1 X115.62 Y108.41 E29.7824
G1 X115.24 Y108.59 E29.8025
G1 X114.85 Y108.72 E29.8222
G1 X114.43 Y108.79 E29.8426
G1 X114.01 Y108.80 E29.8627
G1 X113.59 Y108.75 E29.8830
G1 X113.19 Y108.64 E29.9028
G1 X112.80 Y108.47 E29.9232
G1 X112.44 Y108.25 E29.9434
G1 X112.12 Y107.99 E29.9632
G1 X111.83 Y107.67 E29.9838
G1 X111.60 Y107.32 E30.0039
G1 X111.41 Y106.94 E30.0242
G1 X111.28 Y106.55 E30.0439
G1 X111.21 Y106.13 E30.0643
G1 X111.20 Y105.71 E30.0845
G1 X111.89 Y105.85 F4200
G1 X111.97 Y106.44 E30.1130 F341
G1 X112.20 Y106.98 E30.1411
G1 X112.56 Y107.45 E30.1694
G1 X113.02 Y107.80 E30.1971
G1 X113.57 Y108.03 E30.2257
G1 X114.15 Y108.11 E30.2537
G1 X114.74 Y108.03 E30.2822
G1 X115.28 Y107.80 E30.3103
G1 X115.75 Y107.44 E30.3387
G1 X116.10 Y106.98 E30.3664
G1 X116.33 Y106.44 E30.3945
G1 X116.41 Y105.85 E30.4230
G1 X116.33 Y105.26 E30.4515
G1 X116.10 Y104.72 E30.4796
G1 X115.74 Y104.25 E30.5080
G1 X115.28 Y103.90 E30.5357
G1 X114.74 Y103.67 E30.5638
G1 X114.15 Y103.59 E30.5923
G1 X113.56 Y103.67 E30.6208
G1 X113.02 Y103.89 E30.6487
G1 X112.55 Y104.26 E30.6774
G1 X112.20 Y104.72 E30.7051
G1 X111.97 Y105.27 E30.7336
G1 X111.89 Y105.85 E30.7617
G1 X112.30 Y105.85 F4200
G1 X112.36 Y106.33 E30.7848 F341
G1 X112.55 Y106.78 E30.8082
G1 X112.84 Y107.16 E30.8311
G1 X113.23 Y107.45 E30.8544
G1 X113.67 Y107.64 E30.8774
G1 X114.15 Y107.70 E30.9005
G1 X114.63 Y107.64 E30.9237
G1 X115.08 Y107.45 E30.9471
G1 X115.46 Y107.16 E30.9700
G1 X115.75 Y106.78 E30.9929
G1 X115.94 Y106.33 E31.0163
G1 X116.00 Y105.85 E31.0394
G1 X115.94 Y105.37 E31.0626
G1 X115.75 Y104.92 E31.0860
G1 X115.46 Y104.54 E31.1089
G1 X115.08 Y104.25 E31.1318
G1 X114.63 Y104.06 E31.1552
G1 X114.15 Y104.00 E31.1784
G1 X113.67 Y104.06 E31.2015
G1 X113.22 Y104.25 E31.2249
G1 X112.84 Y104.54 E31.2478
G1 X112.55 Y104.93 E31.2711
G1 X112.36 Y105.37 E31.2940
G1 X112.30 Y105.85 E31.3172
;shell
G1 E26.3172 F2700
G1 X111.60 Y114.03 F4200
G1 E31.3172 F2700
G1 X111.60 Y114.03 F4200
G1 X111.65 Y113.66 E31.3351 F341
G1 X111.74 Y113.32 E31.3519
G1 X111.89 Y112.98 E31.3697
G1 X112.07 Y112.67 E31.3869
G1 X112.30 Y112.39 E31.4043
G1 X112.57 Y112.15 E31.4216
G1 X112.88 Y111.94 E31.4395
G1 X113.21 Y111.78 E31.4571
G1 X113.54 Y111.68 E31.4736
G1 X113.91 Y111.61 E31.4916
G1 X114.27 Y111.60 E31.5089
G1 X114.64 Y111.65 E31.5267
G1 X114.98 Y111.74 E31.5436
G1 X115.32 Y111.89 E31.5614
G1 X115.63 Y112.07 E31.5786
G1 X115.91 Y112.30 E31.5959
G1 X116.15 Y112.57 E31.6132
G1 X116.36 Y112.88 E31.6311
G1 X116.52 Y113.21 E31.6487
G1 X116.63 Y113.54 E31.6654
G1 X116.69 Y113.91 E31.6833
G1 X116.70 Y114.27 E31.7006
G1 X116.65 Y114.64 E31.7185
G1 X116.56 Y114.98 E31.7353
G1 X116.41 Y115.32 E31.7531
G1 X116.23 Y115.63 E31.7703
G1 X116.00 Y115.91 E31.7876
G1 X115.72 Y116.16 E31.8056
G1 X115.43 Y116.36 E31.8225
G1 X115.09 Y116.52 E31.8405
G1 X114.76 Y116.63 E31.8571
G1 X114.39 Y116.69 E31.8751
G1 X114.03 Y116.70 E31.8923
G1 X113.66 Y116.65 E31.9102
G1 X113.32 Y116.56 E31.9271
G1 X112.98 Y116.41 E31.9449
G1 X112.67 Y116.23 E31.9620
G1 X112.39 Y116.00 E31.9794
G1 X112.14 Y115.72 E31.9974
G1 X111.95 Y115.43 E32.0140
G1 X111.78 Y115.09 E32.0322
G1 X111.67 Y114.76 E32.0488
G1 X111.61 Y114.39 E32.0668
G1 X111.60 Y114.03 E32.0840
G1 X111.20 Y114.01 F4200
G1 X111.25 Y113.59 E32.1043 F341
G1 X111.36 Y113.19 E32.1242
G1 X111.53 Y112.80 E32.1445
G1 X111.75 Y112.44 E32.1647
G1 X112.01 Y112.12 E32.1845
G1 X112.33 Y111.83 E32.2052
G1 X112.68 Y111.60 E32.2252
G1 X113.06 Y111.41 E32.2456
G1 X113.45 Y111.28 E32.2653
G1 X113.87 Y111.21 E32.2857
G1 X114.29 Y111.20 E32.3058
G1 X114.71 Y111.25 E32.3260
G1 X115.11 Y111.36 E32.3459
G1 X115.50 Y111.53 E32.3663
G1 X115.86 Y111.75 E32.3865
G1 X116.18 Y112.01 E32.4062
G1 X116.47 Y112.33 E32.4269
G1 X116.71 Y112.68 E32.4473
G1 X116.89 Y113.06 E32.4674
G1 X117.02 Y113.45 E32.4871
G1 X117.09 Y113.87 E32.5075
G1 X117.10 Y114.29 E32.5276
G1 X117.05 Y114.71 E32.5479
G1 X116.94 Y115.11 E32.5677
G1 X116.77 Y115.50 E32.5881
G1 X116.55 Y115.86 E32.6083
G1 X116.29 Y116.18 E32.6281
G1 X115.97 Y116.47 E32.6487
G1 X115.62 Y116.71 E32.6691
G1 X115.24 Y116.89 E32.6892
G1 X114.85 Y117.02 E32.7089
G1 X114.43 Y117.09 E32.7293
G1 X114.01 Y117.10 E32.7494
G1 X113.59 Y117.05 E32.7697
G1 X113.19 Y116.94 E32.7895
G1 X112.80 Y116.77 E32.8099
G1 X112.44 Y116.55 E32.8301
G1 X112.12 Y116.29 E32.8499
G1 X111.83 Y115.97 E32.8705
G1 X111.60 Y115.62 E32.8906
G1 X111.41 Y115.24 E32.9110
G1 X111.28 Y114.85 E32.9306
G1 X111.21 Y114.43 E32.9510
G1 X111.20 Y114.01 E32.9712
G1 X111.89 Y114.15 F4200
G1 X111.97 Y114.74 E32.9997 F341
G1 X112.20 Y115.28 E33.0278
G1 X112.56 Y115.75 E33.0561
G1 X113.02 Y116.10 E33.0838
G1 X113.57 Y116.33 E33.1124
G1 X114.15 Y116.41 E33.1404
G1 X114.74 Y116.33 E33.1689
G1 X115.28 Y116.10 E33.1970
G1 X115.75 Y115.74 E33.2254
G1 X116.10 Y115.28 E33.2531
G1 X116.33 Y114.74 E33.2812
G1 X116.41 Y114.15 E33.3097
G1 X116.33 Y113.56 E33.3382
G1 X116.10 Y113.02 E33.3663
G1 X115.74 Y112.55 E33.3947
G1 X115.28 Y112.20 E33.4224
G1 X114.74 Y111.97 E33.4505
G1 X114.15 Y111.89 E33.4790
G1 X113.56 Y111.97 E33.5075
G1 X113.02 Y112.19 E33.5354
G1 X112.55 Y112.56 E33.5641
G1 X112.20 Y113.02 E33.5918
G1 X111.97 Y113.57 E33.6203
G1 X111.89 Y114.15 E33.6484
G1 X112.30 Y114.15 F4200
G1 X112.36 Y114.63 E33.6715 F341
G1 X112.55 Y115.08 E33.6949
G1 X112.84 Y115.46 E33.7178
G1 X113.23 Y115.75 E33.7411
G1 X113.67 Y115.94 E33.7640
G1 X114.15 Y116.00 E33.7872
G1 X114.63 Y115.94 E33.8104
G1 X115.08 Y115.75 E33.8338
G1 X115.46 Y115.46 E33.8567
G1 X115.75 Y115.08 E33.8796
G1 X115.94 Y114.63 E33.9030
G1 X116.00 Y114.15 E33.9261
G1 X115.94 Y113.67 E33.9493
G1 X115.75 Y113.22 E33.9727
G1 X115.46 Y112.84 E33.9956
G1 X115.08 Y112.55 E34.0185
G1 X114.63 Y112.36 E34.0419
G1 X114.15 Y112.30 E34.0650
G1 X113.67 Y112.36 E34.0882
G1 X113.22 Y112.55 E34.1116
G1 X112.84 Y112.84 E34.1345
G1 X112.55 Y113.23 E34.1578
G1 X112.36 Y113.67 E34.1807
G1 X112.30 Y114.15 E34.2039
;shell
G1 E29.2039 F2700
G1 X103.30 Y114.03 F4200
G1 E34.2039 F2700
G1 X103.30 Y114.03 F4200
G1 X103.35 Y113.66 E34.2218 F341
G1 X103.44 Y113.32 E34.2386
G1 X103.59 Y112.98 E34.2564
G1 X103.77 Y112.67 E34.2736
G1 X104.00 Y112.39 E34.2909
G1 X104.27 Y112.15 E34.3082
G1 X104.58 Y111.94 E34.3262
G1 X104.91 Y111.78 E34.3437
G1 X105.24 Y111.68 E34.3603
G1 X105.61 Y111.61 E34.3783
G1 X105.97 Y111.60 E34.3955
G1 X106.34 Y111.65 E34.4134
G1 X106.68 Y111.74 E34.4303
G1 X107.02 Y111.89 E34.4481
G1 X107.33 Y112.07 E34.4652
G1 X107.61 Y112.30 E34.4826
G1 X107.85 Y112.57 E34.4999
G1 X108.06 Y112.88 E34.5178
G1 X108.22 Y113.21 E34.5354
G1 X108.33 Y113.54 E34.5521
G1 X108.39 Y113.91 E34.5700
G1 X108.40 Y114.27 E34.5873
G1 X108.35 Y114.64 E34.6051
G1 X108.26 Y114.98 E34.6220
G1 X108.11 Y115.32 E34.6398
G1 X107.93 Y115.63 E34.6569
G1 X107.70 Y115.91 E34.6743
G1 X107.42 Y116.16 E34.6923
G1 X107.13 Y116.36 E34.7091
G1 X106.79 Y116.52 E34.7271
G1 X106.46 Y116.63 E34.7438
G1 X106.09 Y116.69 E34.7618
G1 X105.73 Y116.70 E34.7790
G1 X105.36 Y116.65 E34.7969
G1 X105.02 Y116.56 E34.8137
G1 X104.68 Y116.41 E34.8315
G1 X104.37 Y116.23 E34.8487
G1 X104.09 Y116.00 E34.8661
G1 X103.84 Y115.72 E34.8840
G1 X103.65 Y115.43 E34.9006
G1 X103.48 Y115.09 E34.9188
G1 X103.37 Y114.76 E34.9355
G1 X103.31 Y114.39 E34.9535
G1 X103.30 Y114.03 E34.9707
G1 X102.90 Y114.01 F4200
G1 X102.95 Y113.59 E34.9910 F341
G1 X103.06 Y113.19 E35.0108
G1 X103.23 Y112.80 E35.0312
G1 X103.45 Y112.44 E35.0514
G1 X103.71 Y112.12 E35.0712
G1 X104.03 Y111.83 E35.0918
G1 X104.38 Y111.60 E35.1119
G1 X104.76 Y111.41 E35.1323
G1 X105.15 Y111.28 E35.1519
G1 X105.57 Y111.21 E35.1723
G1 X105.99 Y111.20 E35.1925
G1 X106.41 Y111.25 E35.2127
G1 X106.81 Y111.36 E35.2326
G1 X107.20 Y111.53 E35.2530
G1 X107.56 Y111.75 E35.2732
G1 X107.88 Y112.01 E35.2929
G1 X108.17 Y112.33 E35.3136
G1 X108.41 Y112.68 E35.3339
G1 X108.59 Y113.06 E35.3541
G1 X108.72 Y113.45 E35.3737
G1 X108.79 Y113.87 E35.3941
G1 X108.80 Y114.29 E35.4143
G1 X108.75 Y114.71 E35.4345
G1 X108.64 Y115.11 E35.4544
G1 X108.47 Y115.50 E35.4748
G1 X108.25 Y115.86 E35.4950
G1 X107.99 Y116.18 E35.5147
G1 X107.67 Y116.47 E35.5354
G1 X107.32 Y116.71 E35.5557
G1 X106.94 Y116.89 E35.5759
G1 X106.55 Y117.02 E35.5955
G1 X106.13 Y117.09 E35.6159
G1 X105.71 Y117.10 E35.6361
G1 X105.29 Y117.05 E35.6563
G1 X104.89 Y116.94 E35.6762
G1 X104.50 Y116.77 E35.6966
G1 X104.14 Y116.55 E35.7168
G1 X103.82 Y116.29 E35.7365
G1 X103.53 Y115.97 E35.7572
G1 X103.30 Y115.62 E35.7772
G1 X103.11 Y115.24 E35.7976
G1 X102.98 Y114.85 E35.8173
G1 X102.91 Y114.43 E35.8377
G1 X102.90 Y114.01 E35.8578
G1 X103.59 Y114.15 F4200
G1 X103.67 Y114.74 E35.8863 F341
G1 X103.90 Y115.28 E35.9144
G1 X104.26 Y115.75 E35.9428
G1 X104.72 Y116.10 E35.9705
G1 X105.27 Y116.33 E35.9990
G1 X105.85 Y116.41 E36.0271
G1 X106.44 Y116.33 E36.0556
G1 X106.98 Y116.10 E36.0837
G1 X107.45 Y115.74 E36.1120
G1 X107.80 Y115.28 E36.1397
G1 X108.03 Y114.74 E36.1678
G1 X108.11 Y114.15 E36.1963
G1 X108.03 Y113.56 E36.2249
G1 X107.80 Y113.02 E36.2530
G1 X107.44 Y112.55 E36.2813
G1 X106.98 Y112.20 E36.3090
G1 X106.44 Y111.97 E36.3371
G1 X105.85 Y111.89 E36.3656
