;generated by ffslicer 1.30.3 09/11/23 15:23:46
;right_extruder_material: PLA
;layer_height: 0.2
;perimeter_shells: 2
;top_solid_layers: 4
;bottom_solid_layers: 3
;fill_density: 15%
;fill_pattern: hexagon
;base_print_speed: 50
;travel_speed: 80
;right_extruder_temperature: 200
;left_extruder_temperature: 0
;platform_temperature: 60
;right_extruder_temperature_raft0: 0
;left_extruder_temperature_raft0: 0
;right_extruder_temperature_reset: 
;left_extruder_temperature_reset: 
;start gcode
M140 S60 T0
M104 S200 T0
M104 S0 T1
G90
G28
G1 Z50.000 F420
G161 X Y F3300
M190 S60 T0
M109 S200 T0
M109 S0 T1
G92 E.0000
;layer_count: 155
M108 T0
G1 X84.80 Y83.26 F4800
;preExtrude:0.20
;preExtruder0
M106 S255
G1 Z.200 F420
G1 X84.80 Y83.26 F4800
G1 X134.80 Y83.26 E6.3859 F1200
G1 X134.80 Y133.26 E12.7719
G1 X84.80 Y133.26 E19.1578
G1 X84.80 Y83.26 E25.5438
;raft
;layer:0.30
;support-start
;line-support
G1 E20.5438 F2700
G1 Z.300 F420
G1 X104.60 Y123.39 F4200
G1 E25.5438 F2700
;extrude_ratio:1.25
G1 X104.60 Y123.39 F4200
G1 X104.25 Y123.39 E25.5647 F600
G1 X104.25 Y122.40 E25.6240
G1 X104.60 Y122.40 E25.6450
G1 X104.60 Y120.61 E25.7521
G1 X104.25 Y120.61 E25.7731
;extrude_ratio:1
G1 E20.7731 F2700
G1 X104.60 Y108.09 F4200
G1 E25.7731 F2700
;extrude_ratio:1.25
G1 X104.60 Y108.09 F4200
G1 X104.25 Y108.09 E25.7940 F600
G1 X104.25 Y106.40 E25.8952
G1 X104.60 Y106.40 E25.9162
G1 X104.60 Y104.40 E26.0359
G1 X104.25 Y104.40 E26.0569
G1 X104.25 Y102.40 E26.1766
G1 X104.60 Y102.40 E26.1975
G1 X104.60 Y100.40 E26.3173
G1 X104.25 Y100.40 E26.3382
;extrude_ratio:1
G1 E21.3382 F2700
G1 X93.30 Y100.40 F4200
G1 E26.3382 F2700
;extrude_ratio:1.25
G1 X93.30 Y100.40 F4200
G1 X95.95 Y100.40 E26.4969 F600
G1 X95.95 Y102.40 E26.6166
G1 X95.54 Y102.40 E26.6412
G1 X93.30 Y102.40 E26.7753
G1 X93.30 Y104.40 E26.8950
G1 X94.12 Y104.40 E26.9441
G1 X95.95 Y104.40 E27.0537
G1 X95.95 Y106.40 E27.1734
G1 X94.73 Y106.40 E27.2464
G1 X93.30 Y106.40 E27.3320
G1 X93.30 Y108.40 E27.4518
G1 X94.93 Y108.40 E27.5494
G1 X95.95 Y108.40 E27.6104
G1 X95.95 Y109.79 E27.6937
G1 X93.30 Y109.79 E27.8523
;support-end
;shell
;extrude_ratio:1
G1 E22.8523 F2700
G1 X97.10 Y93.10 F4200
G1 E27.8523 F2700
G1 X97.10 Y93.10 F4200
G1 X125.90 Y93.10 E29.2317 F600
G1 X125.90 Y123.41 E30.6834
G1 X119.90 Y123.41 E30.9707
G1 X119.90 Y95.40 E32.3122
G1 X103.10 Y95.40 E33.1169
G1 X103.10 Y123.14 E34.4455
G1 X97.10 Y123.14 E34.7328
G1 X97.10 Y93.10 E36.1716
G1 X96.70 Y92.70 F4200
G1 X126.30 Y92.70 E37.5893 F600
G1 X126.30 Y123.81 E39.0793
G1 X119.50 Y123.81 E39.4050
G1 X119.50 Y95.80 E40.7465
G1 X103.50 Y95.80 E41.5128
G1 X103.50 Y123.54 E42.8414
G1 X96.70 Y123.54 E43.1671
G1 X96.70 Y92.70 E44.6442
;infill
G1 X120.24 Y95.37 F4200
G1 X120.24 Y95.37
G1 X125.56 Y100.69 E45.0045 F600
G1 X125.56 Y101.25 E45.0313
G1 X120.24 Y95.93 E45.3916
G1 X120.24 Y96.50 E45.4190
G1 X125.56 Y101.82 E45.7793
G1 X125.56 Y102.38 E45.8061
G1 X120.24 Y97.06 E46.1665
G1 X120.24 Y97.63 E46.1938
G1 X125.56 Y102.95 E46.5541
G1 X125.56 Y103.51 E46.5809
G1 X120.24 Y98.19 E46.9413
G1 X120.24 Y98.76 E46.9686
G1 X125.56 Y104.08 E47.3289
G1 X125.56 Y104.64 E47.3557
G1 X120.24 Y99.32 E47.7161
G1 X120.24 Y99.88 E47.7429
G1 X125.56 Y105.20 E48.1032
G1 X125.56 Y105.77 E48.1305
G1 X120.24 Y100.45 E48.4909
G1 X120.24 Y101.01 E48.5177
G1 X125.56 Y106.33 E48.8780
G1 X125.56 Y106.90 E48.9053
G1 X120.24 Y101.58 E49.2657
G1 X120.24 Y102.14 E49.2925
G1 X125.56 Y107.46 E49.6528
G1 X125.56 Y108.03 E49.6801
G1 X120.24 Y102.71 E50.0405
G1 X120.24 Y103.27 E50.0673
G1 X125.56 Y108.59 E50.4276
G1 X125.56 Y109.15 E50.4544
G1 X120.24 Y103.83 E50.8148
G1 X120.24 Y104.40 E50.8421
G1 X125.56 Y109.72 E51.2024
G1 X125.56 Y110.28 E51.2292
G1 X120.24 Y104.96 E51.5896
G1 X120.24 Y105.53 E51.6169
G1 X125.56 Y110.85 E51.9772
G1 X125.56 Y111.41 E52.0040
G1 X120.24 Y106.09 E52.3644
G1 X120.24 Y106.66 E52.3917
G1 X125.56 Y111.98 E52.7520
G1 X125.56 Y112.54 E52.7788
G1 X120.24 Y107.22 E53.1392
G1 X120.24 Y107.78 E53.1660
G1 X125.56 Y113.10 E53.5263
G1 X125.56 Y113.67 E53.5536
G1 X120.24 Y108.35 E53.9140
G1 X120.24 Y108.91 E53.9408
G1 X125.56 Y114.23 E54.3011
G1 X125.56 Y114.80 E54.3284
G1 X120.24 Y109.48 E54.6888
G1 X120.24 Y110.04 E54.7156
G1 X125.56 Y115.36 E55.0759
G1 X125.56 Y115.93 E55.1032
G1 X120.24 Y110.61 E55.4636
G1 X120.24 Y111.17 E55.4904
G1 X125.56 Y116.49 E55.8507
G1 X125.56 Y117.05 E55.8776
G1 X120.24 Y111.73 E56.2379
G1 X120.24 Y112.30 E56.2652
G1 X125.56 Y117.62 E56.6255
G1 X125.56 Y118.18 E56.6524
G1 X120.24 Y112.86 E57.0127
G1 X120.24 Y113.43 E57.0400
G1 X125.56 Y118.75 E57.4003
G1 X125.56 Y119.31 E57.4272
G1 X120.24 Y113.99 E57.7875
G1 X120.24 Y114.56 E57.8148
G1 X125.56 Y119.88 E58.1751
G1 X125.56 Y120.44 E58.2020
G1 X120.24 Y115.12 E58.5623
G1 X120.24 Y115.68 E58.5891
G1 X125.56 Y121.00 E58.9495
G1 X125.56 Y121.57 E58.9768
G1 X120.24 Y116.25 E59.3371
G1 X120.24 Y116.81 E59.3639
G1 X125.56 Y122.13 E59.7243
G1 X125.56 Y122.70 E59.7516
G1 X120.24 Y117.38 E60.1119
G1 X120.24 Y117.94 E60.1387
G1 X125.37 Y123.07 E60.4862
G1 X124.81 Y123.07 E60.5130
G1 X120.24 Y118.51 E60.8222
G1 X120.24 Y119.07 E60.8490
G1 X124.24 Y123.07 E61.1200
G1 X123.68 Y123.07 E61.1468
G1 X120.24 Y119.63 E61.3798
G1 X120.24 Y120.20 E61.4071
G1 X123.11 Y123.07 E61.6015
G1 X122.55 Y123.07 E61.6283
G1 X120.24 Y120.76 E61.7848
G1 X120.24 Y121.33 E61.8121
G1 X121.98 Y123.07 E61.9299
G1 X121.42 Y123.07 E61.9568
G1 X120.24 Y121.89 E62.0367
G1 X120.24 Y122.46 E62.0640
G1 X120.86 Y123.07 E62.1056
G1 X120.29 Y123.07 E62.1329
G1 X120.24 Y123.02 E62.1363
G1 X119.63 Y95.67 F4200
G1 X103.37 Y95.67
G1 X103.37 Y95.67
G1 X97.44 Y122.79
G1 X97.44 Y122.79
G1 X98.01 Y122.80 E62.1636 F600
G1 X97.44 Y122.23 E62.2022
G1 X97.44 Y121.66 E62.2295
G1 X98.58 Y122.80 E62.3068
G1 X99.14 Y122.80 E62.3336
G1 X97.44 Y121.10 E62.4487
G1 X97.44 Y120.53 E62.4760
G1 X99.70 Y122.80 E62.6294
G1 X100.27 Y122.80 E62.6567
G1 X97.44 Y119.97 E62.8484
G1 X97.44 Y119.40 E62.8757
G1 X100.83 Y122.80 E63.1057
G1 X101.40 Y122.80 E63.1330
G1 X97.44 Y118.84 E63.4012
G1 X97.44 Y118.28 E63.4280
G1 X101.96 Y122.80 E63.7342
G1 X102.53 Y122.80 E63.7615
G1 X97.44 Y117.71 E64.1062
G1 X97.44 Y117.15 E64.1331
G1 X102.76 Y122.47 E64.4934
G1 X102.76 Y121.90 E64.5207
G1 X97.44 Y116.58 E64.8810
G1 X97.44 Y116.02 E64.9079
G1 X102.76 Y121.34 E65.2682
G1 X102.76 Y120.78 E65.2950
G1 X97.44 Y115.45 E65.6557
G1 X97.44 Y114.89 E65.6825
G1 X102.76 Y120.21 E66.0429
G1 X102.76 Y119.65 E66.0697
G1 X97.44 Y114.33 E66.4300
G1 X97.44 Y113.76 E66.4573
G1 X102.76 Y119.08 E66.8177
G1 X102.76 Y118.52 E66.8445
G1 X97.44 Y113.20 E67.2048
G1 X97.44 Y112.63 E67.2321
G1 X102.76 Y117.95 E67.5925
G1 X102.76 Y117.39 E67.6193
G1 X97.44 Y112.07 E67.9796
G1 X97.44 Y111.51 E68.0065
G1 X102.76 Y116.83 E68.3668
G1 X102.76 Y116.26 E68.3941
G1 X97.44 Y110.94 E68.7544
G1 X97.44 Y110.38 E68.7813
G1 X102.76 Y115.70 E69.1416
G1 X102.76 Y115.13 E69.1689
G1 X97.44 Y109.81 E69.5292
G1 X97.44 Y109.25 E69.5561
G1 X102.76 Y114.57 E69.9164
G1 X102.76 Y114.00 E69.9437
G1 X97.44 Y108.68 E70.3040
G1 X97.44 Y108.12 E70.3309
G1 X102.76 Y113.44 E70.6912
G1 X102.76 Y112.88 E70.7180
G1 X97.44 Y107.56 E71.0784
G1 X97.44 Y106.99 E71.1057
G1 X102.76 Y112.31 E71.4660
G1 X102.76 Y111.75 E71.4928
G1 X97.44 Y106.43 E71.8532
G1 X97.44 Y105.86 E71.8805
G1 X102.76 Y111.18 E72.2408
G1 X102.76 Y110.62 E72.2676
G1 X97.44 Y105.30 E72.6280
G1 X97.44 Y104.73 E72.6553
G1 X102.76 Y110.05 E73.0156
G1 X102.76 Y109.49 E73.0424
G1 X97.44 Y104.17 E73.4028
G1 X97.44 Y103.61 E73.4296
G1 X102.76 Y108.93 E73.7900
G1 X102.76 Y108.36 E73.8173
G1 X97.44 Y103.04 E74.1776
G1 X97.44 Y102.48 E74.2044
G1 X102.76 Y107.80 E74.5648
G1 X102.76 Y107.23 E74.5921
G1 X97.44 Y101.91 E74.9524
G1 X97.44 Y101.35 E74.9792
G1 X102.76 Y106.67 E75.3396
G1 X102.76 Y106.10 E75.3669
G1 X97.44 Y100.78 E75.7272
G1 X97.44 Y100.22 E75.7540
G1 X102.76 Y105.54 E76.1144
G1 X102.76 Y104.97 E76.1417
G1 X97.44 Y99.66 E76.5017
G1 X97.44 Y99.09 E76.5290
G1 X102.76 Y104.41 E76.8893
G1 X102.76 Y103.85 E76.9161
G1 X97.44 Y98.53 E77.2765
G1 X97.44 Y97.96 E77.3038
G1 X102.76 Y103.28 E77.6641
G1 X102.76 Y102.72 E77.6909
G1 X97.44 Y97.40 E78.0513
G1 X97.44 Y96.83 E78.0786
G1 X102.76 Y102.15 E78.4389
G1 X102.76 Y101.59 E78.4657
G1 X97.44 Y96.27 E78.8261
G1 X97.44 Y95.71 E78.8529
G1 X102.76 Y101.03 E79.2132
G1 X102.76 Y100.46 E79.2405
G1 X97.44 Y95.14 E79.6009
G1 X97.44 Y94.58 E79.6277
G1 X102.76 Y99.90 E79.9880
G1 X102.76 Y99.33 E80.0153
G1 X97.44 Y94.01 E80.3757
G1 X97.44 Y93.45 E80.4025
G1 X102.76 Y98.77 E80.7629
G1 X102.76 Y98.20 E80.7901
G1 X98.00 Y93.44 E81.1126
G1 X98.56 Y93.44 E81.1394
G1 X102.76 Y97.64 E81.4239
G1 X102.76 Y97.08 E81.4507
G1 X99.12 Y93.44 E81.6972
G1 X99.69 Y93.44 E81.7245
G1 X102.76 Y96.51 E81.9325
G1 X102.76 Y95.95 E81.9593
G1 X100.25 Y93.44 E82.1293
G1 X100.82 Y93.44 E82.1566
G1 X102.76 Y95.38 E82.2880
G1 X102.76 Y95.06 E82.3033
G1 X103.00 Y95.06 E82.3148
G1 X101.38 Y93.44 E82.4245
G1 X101.95 Y93.44 E82.4518
G1 X103.56 Y95.06 E82.5612
G1 X104.13 Y95.06 E82.5885
G1 X102.51 Y93.44 E82.6982
G1 X103.07 Y93.44 E82.7251
G1 X104.69 Y95.06 E82.8348
G1 X105.26 Y95.06 E82.8621
G1 X103.64 Y93.44 E82.9718
G1 X104.20 Y93.44 E82.9986
G1 X105.82 Y95.06 E83.1084
G1 X106.39 Y95.06 E83.1357
G1 X104.77 Y93.44 E83.2454
G1 X105.33 Y93.44 E83.2722
G1 X106.95 Y95.06 E83.3819
G1 X107.51 Y95.06 E83.4088
G1 X105.89 Y93.44 E83.5185
G1 X106.46 Y93.44 E83.5458
G1 X108.08 Y95.06 E83.6555
G1 X108.64 Y95.06 E83.6823
G1 X107.02 Y93.44 E83.7920
G1 X107.59 Y93.44 E83.8193
G1 X109.21 Y95.06 E83.9291
G1 X109.77 Y95.06 E83.9559
G1 X108.15 Y93.44 E84.0656
G1 X108.72 Y93.44 E84.0929
G1 X110.34 Y95.06 E84.2026
G1 X110.90 Y95.06 E84.2295
G1 X109.28 Y93.44 E84.3392
G1 X109.84 Y93.44 E84.3660
G1 X111.46 Y95.06 E84.4757
G1 X112.03 Y95.06 E84.5030
G1 X110.41 Y93.44 E84.6128
G1 X110.97 Y93.44 E84.6396
G1 X112.59 Y95.06 E84.7493
G1 X113.16 Y95.06 E84.7766
G1 X111.54 Y93.44 E84.8863
G1 X112.10 Y93.44 E84.9132
G1 X113.72 Y95.06 E85.0229
G1 X114.29 Y95.06 E85.0502
G1 X112.67 Y93.44 E85.1599
G1 X113.23 Y93.44 E85.1867
G1 X114.85 Y95.06 E85.2965
G1 X115.41 Y95.06 E85.3233
G1 X113.79 Y93.44 E85.4330
G1 X114.36 Y93.44 E85.4603
G1 X115.98 Y95.06 E85.5700
G1 X116.54 Y95.06 E85.5968
G1 X114.92 Y93.44 E85.7066
G1 X115.49 Y93.44 E85.7339
G1 X117.11 Y95.06 E85.8436
G1 X117.67 Y95.06 E85.8704
G1 X116.05 Y93.44 E85.9801
G1 X116.62 Y93.44 E86.0074
G1 X118.24 Y95.06 E86.1172
G1 X118.80 Y95.06 E86.1440
G1 X117.18 Y93.44 E86.2537
G1 X117.74 Y93.44 E86.2805
G1 X119.36 Y95.06 E86.3903
G1 X119.93 Y95.06 E86.4176
G1 X118.31 Y93.44 E86.5273
G1 X118.87 Y93.44 E86.5541
G1 X125.56 Y100.13 E87.0072
G1 X125.56 Y99.56 E87.0345
G1 X119.44 Y93.44 E87.4490
G1 X120.00 Y93.44 E87.4759
G1 X125.56 Y99.00 E87.8525
G1 X125.56 Y98.43 E87.8798
G1 X120.57 Y93.44 E88.2178
G1 X121.13 Y93.44 E88.2446
G1 X125.56 Y97.87 E88.5446
G1 X125.56 Y97.30 E88.5719
G1 X121.69 Y93.44 E88.8337
G1 X122.26 Y93.44 E88.8610
G1 X125.56 Y96.74 E89.0845
G1 X125.56 Y96.18 E89.1113
G1 X122.82 Y93.44 E89.2969
G1 X123.39 Y93.44 E89.3242
G1 X125.56 Y95.61 E89.4712
G1 X125.56 Y95.05 E89.4980
G1 X123.95 Y93.44 E89.6071
G1 X124.52 Y93.44 E89.6344
G1 X125.56 Y94.48 E89.7048
G1 X125.56 Y93.92 E89.7316
G1 X125.08 Y93.44 E89.7642
;layer:0.20
;support-start
;line-support
G1 E84.7642 F2700
G1 Z.500 F420
G1 X104.60 Y123.39 F4800
G1 E89.7642 F2700
;extrude_ratio:0.572917
G1 X104.60 Y123.39 F4800
G1 X104.25 Y123.39 E89.7706 F2400
G1 X104.25 Y122.40 E89.7887
G1 X104.60 Y122.40 E89.7951
G1 X104.60 Y120.61 E89.8278
G1 X104.25 Y120.61 E89.8342 F3000
;extrude_ratio:1
G1 E84.8342 F2700
G1 X104.60 Y108.09 F4800
G1 E89.8342 F2700
;extrude_ratio:0.572917
G1 X104.60 Y108.09 F4800
G1 X104.25 Y108.09 E89.8406 F2400
G1 X104.25 Y106.40 E89.8715
G1 X104.60 Y106.40 E89.8780
G1 X104.60 Y104.40 E89.9145
G1 X104.25 Y104.40 E89.9209
G1 X104.25 Y102.40 E89.9575
G1 X104.60 Y102.40 E89.9639
G1 X104.60 Y100.40 E90.0005
G1 X104.25 Y100.40 E90.0069 F3000
;extrude_ratio:1
G1 E85.0069 F2700
G1 X93.30 Y100.40 F4800
G1 E90.0069 F2700
;extrude_ratio:0.572917
G1 X93.30 Y100.40 F4800
G1 X95.95 Y100.40 E90.0554 F2400
G1 X95.95 Y102.40 E90.0920
G1 X95.54 Y102.40 E90.0995
G1 X93.30 Y102.40 E90.1405 F2520
G1 X93.30 Y104.40 E90.1771
G1 X94.12 Y104.40 E90.1921
G1 X95.95 Y104.40 E90.2255 F2640
G1 X95.95 Y106.40 E90.2621
G1 X94.73 Y106.40 E90.2844
G1 X93.30 Y106.40 E90.3106 F2760
G1 X93.30 Y108.40 E90.3472
G1 X94.93 Y108.40 E90.3770
G1 X95.95 Y108.40 E90.3957 F2880
G1 X95.95 Y109.79 E90.4211
G1 X93.30 Y109.79 E90.4696
;support-end
;shell
;extrude_ratio:1
G1 E85.4696 F2700
G1 X97.10 Y93.10 F4800
G1 E90.4696 F2700
G1 X97.10 Y93.10 F4800
G1 X125.90 Y93.10 E91.3891 F1500
G1 X125.90 Y123.69 E92.3659
G1 X119.90 Y123.69 E92.5575
G1 X119.90 Y95.40 E93.4607
G1 X103.10 Y95.40 E93.9972
G1 X103.10 Y123.36 E94.8899
G1 X97.10 Y123.36 E95.0815
G1 X97.10 Y93.10 E96.0477
G1 X96.70 Y92.70 F4800
G1 X126.30 Y92.70 E96.9928 F1500
G1 X126.30 Y124.09 E97.9951
G1 X119.50 Y124.09 E98.2122
G1 X119.50 Y95.80 E99.1155
G1 X103.50 Y95.80 E99.6264
G1 X103.50 Y123.76 E100.5191
G1 X96.70 Y123.76 E100.7363
G1 X96.70 Y92.70 E101.7280
;infill
G1 X97.44 Y93.90 F4800
G1 X97.89 Y93.44 E101.7485 F2100
G1 X98.46 Y93.44 E101.7667
G1 X97.44 Y94.47 E101.8130
G1 X97.44 Y95.04 E101.8312
G1 X99.03 Y93.44 E101.9033
G1 X99.60 Y93.44 E101.9215
G1 X97.44 Y95.61 E102.0192
G1 X97.44 Y96.18 E102.0374
G1 X100.17 Y93.44 E102.1609
G1 X100.74 Y93.44 E102.1791
G1 X97.44 Y96.74 E102.3281
G1 X97.44 Y97.31 E102.3463
G1 X101.31 Y93.44 E102.5211
G1 X101.88 Y93.44 E102.5393
G1 X97.44 Y97.88 E102.7398
G1 X97.44 Y98.45 E102.7580
G1 X102.45 Y93.44 E102.9842
G1 X103.02 Y93.44 E103.0024
G1 X97.44 Y99.02 E103.2544
G1 X97.44 Y99.59 E103.2726
G1 X103.59 Y93.44 E103.5503
G1 X104.16 Y93.44 E103.5685
G1 X97.44 Y100.16 E103.8720
G1 X97.44 Y100.73 E103.8902
G1 X102.76 Y95.41 E104.1304
G1 X102.76 Y95.06 E104.1416
G1 X103.11 Y95.06 E104.1527
G1 X104.73 Y93.44 E104.2259
G1 X105.30 Y93.44 E104.2441
G1 X103.68 Y95.06 E104.3172
G1 X104.25 Y95.06 E104.3354
G1 X105.87 Y93.44 E104.4086
G1 X106.44 Y93.44 E104.4268
G1 X104.82 Y95.06 E104.4999
G1 X105.39 Y95.06 E104.5181
G1 X107.01 Y93.44 E104.5913
G1 X107.58 Y93.44 E104.6095
G1 X105.96 Y95.06 E104.6826
G1 X106.53 Y95.06 E104.7008
G1 X108.15 Y93.44 E104.7740
G1 X108.72 Y93.44 E104.7922
G1 X107.10 Y95.06 E104.8653
G1 X107.67 Y95.06 E104.8835
G1 X109.29 Y93.44 E104.9567
G1 X109.86 Y93.44 E104.9749
G1 X108.24 Y95.06 E105.0480
G1 X108.81 Y95.06 E105.0662
G1 X110.43 Y93.44 E105.1394
G1 X111.00 Y93.44 E105.1576
G1 X109.38 Y95.06 E105.2307
G1 X109.95 Y95.06 E105.2489
G1 X111.57 Y93.44 E105.3221
G1 X112.14 Y93.44 E105.3403
G1 X110.52 Y95.06 E105.4134
G1 X111.09 Y95.06 E105.4316
G1 X112.71 Y93.44 E105.5048
G1 X113.28 Y93.44 E105.5230
G1 X111.66 Y95.06 E105.5961
G1 X112.23 Y95.06 E105.6143
G1 X113.85 Y93.44 E105.6875
G1 X114.42 Y93.44 E105.7057
G1 X112.80 Y95.06 E105.7789
G1 X113.37 Y95.06 E105.7971
G1 X114.99 Y93.44 E105.8702
G1 X115.56 Y93.44 E105.8884
G1 X113.94 Y95.06 E105.9616
G1 X114.51 Y95.06 E105.9798
G1 X116.13 Y93.44 E106.0529
G1 X116.70 Y93.44 E106.0711
G1 X115.08 Y95.06 E106.1443
G1 X115.65 Y95.06 E106.1625
G1 X117.27 Y93.44 E106.2356
G1 X117.84 Y93.44 E106.2538
G1 X116.22 Y95.06 E106.3270
G1 X116.79 Y95.06 E106.3452
G1 X118.41 Y93.44 E106.4183
G1 X118.98 Y93.44 E106.4365
G1 X117.36 Y95.06 E106.5097
G1 X117.93 Y95.06 E106.5279
G1 X119.55 Y93.44 E106.6010
G1 X120.12 Y93.44 E106.6192
G1 X118.50 Y95.06 E106.6924
G1 X119.07 Y95.06 E106.7106
G1 X120.69 Y93.44 E106.7837
G1 X121.26 Y93.44 E106.8019
G1 X119.64 Y95.06 E106.8751
G1 X120.21 Y95.06 E106.8933
G1 X121.83 Y93.44 E106.9664
G1 X122.40 Y93.44 E106.9846
G1 X120.24 Y95.60 E107.0822
G1 X120.24 Y96.17 E107.1004
G1 X122.97 Y93.44 E107.2236
G1 X123.54 Y93.44 E107.2418
G1 X120.24 Y96.74 E107.3909
G1 X120.24 Y97.31 E107.4091
G1 X124.11 Y93.44 E107.5838
G1 X124.68 Y93.44 E107.6020
G1 X120.24 Y97.88 E107.8025
G1 X120.24 Y98.45 E107.8207
G1 X125.25 Y93.44 E108.0469
G1 X125.56 Y93.44 E108.0568
G1 X125.56 Y93.70 E108.0651
G1 X120.24 Y99.02 E108.3054
G1 X120.24 Y99.59 E108.3236
G1 X125.56 Y94.27 E108.5638
G1 X125.56 Y94.84 E108.5820
G1 X120.24 Y100.16 E108.8222
