;generated by ffslicer 1.30.3 09/05/23 22:59:53
;right_extruder_material: PLA
;layer_height: 0.2
;perimeter_shells: 2
;top_solid_layers: 4
;bottom_solid_layers: 3
;fill_density: 15%
;fill_pattern: hexagon
;base_print_speed: 50
;travel_speed: 80
;right_extruder_temperature: 200
;left_extruder_temperature: 0
;platform_temperature: 60
;right_extruder_temperature_raft0: 0
;left_extruder_temperature_raft0: 0
;right_extruder_temperature_reset: 
;left_extruder_temperature_reset: 
;start gcode
M140 S60 T0
M104 S200 T0
M104 S0 T1
G90
G28
G1 Z50.000 F420
G161 X Y F3300
M190 S60 T0
M109 S200 T0
M109 S0 T1
G92 E.0000
;layer_count: 42
M108 T0
G1 X132.75 Y58.76 F4800
;preExtrude:0.20
;preExtruder0
M106 S255
G1 Z.200 F420
G1 X132.75 Y58.76 F4800
G1 X151.23 Y58.76 E2.3602 F1200
G1 X152.88 Y58.97 E2.5727
G1 X154.55 Y59.44 E2.7943
G1 X156.13 Y60.14 E3.0150
G1 X157.60 Y61.06 E3.2365
G1 X158.93 Y62.18 E3.4585
G1 X160.07 Y63.49 E3.6803
G1 X161.02 Y64.94 E3.9017
G1 X161.74 Y66.50 E4.1212
G1 X162.24 Y68.17 E4.3438
G1 X162.49 Y69.89 E4.5658
G1 X162.49 Y81.62 E6.0639
G1 X162.24 Y83.34 E6.2859
G1 X161.74 Y85.00 E6.5073
G1 X161.02 Y86.57 E6.7279
G1 X160.27 Y87.72 E6.9033
G1 X110.02 Y156.56 E17.7887
G1 X109.08 Y157.66 E17.9735
G1 X107.78 Y158.81 E18.1951
G1 X106.32 Y159.76 E18.4176
G1 X104.75 Y160.49 E18.6387
G1 X103.08 Y160.98 E18.8610
G1 X101.37 Y161.23 E19.0818
G1 X68.77 Y161.24 E23.2454
G1 X67.12 Y161.02 E23.4580
G1 X65.46 Y160.56 E23.6780
G1 X63.86 Y159.86 E23.9010
G1 X62.39 Y158.94 E24.1225
G1 X61.07 Y157.82 E24.3436
G1 X59.93 Y156.51 E24.5654
G1 X58.98 Y155.06 E24.7868
G1 X58.26 Y153.49 E25.0074
G1 X57.76 Y151.83 E25.2288
G1 X57.53 Y150.25 E25.4328
G1 X57.50 Y149.38 E25.5439
;raft
;layer:0.30
;shell
G1 E20.5439 F2700
G1 Z.300 F420
G1 X66.10 Y149.25 F4200
G1 E25.5439 F2700
G1 X66.10 Y149.25 F4200
G1 X66.14 Y148.75 E25.5680 F600
G1 X66.24 Y148.27 E25.5915
G1 X66.41 Y147.82 E25.6145
G1 X66.66 Y147.38 E25.6387
G1 X66.95 Y147.00 E25.6616
G1 X67.31 Y146.65 E25.6857
G1 X67.69 Y146.37 E25.7083
G1 X68.13 Y146.13 E25.7323
G1 X68.59 Y145.97 E25.7556
G1 X69.07 Y145.87 E25.7791
G1 X69.56 Y145.85 E25.8026
G1 X70.05 Y145.89 E25.8261
G1 X70.53 Y146.00 E25.8497
G1 X70.98 Y146.19 E25.8731
G1 X71.41 Y146.43 E25.8967
G1 X71.87 Y146.76 E25.9238
G1 X72.39 Y147.04 E25.9521
G1 X72.95 Y147.23 E25.9804
G1 X73.52 Y147.33 E26.0081
G1 X73.82 Y147.34 E26.0225
G1 X96.21 Y147.34 E27.0949
G1 X96.78 Y147.29 E27.1223
G1 X97.36 Y147.14 E27.1510
G1 X97.91 Y146.90 E27.1797
G1 X98.75 Y146.33 E27.2283
G1 X99.18 Y146.11 E27.2515
G1 X99.66 Y145.95 E27.2757
G1 X100.13 Y145.86 E27.2986
G1 X100.62 Y145.85 E27.3221
G1 X101.11 Y145.90 E27.3457
G1 X101.59 Y146.02 E27.3694
G1 X102.04 Y146.21 E27.3928
G1 X102.45 Y146.46 E27.4158
G1 X102.84 Y146.78 E27.4399
G1 X103.17 Y147.14 E27.4633
G1 X103.44 Y147.54 E27.4864
G1 X103.66 Y147.98 E27.5100
G1 X103.81 Y148.46 E27.5341
G1 X103.89 Y148.93 E27.5569
G1 X103.89 Y149.43 E27.5809
G1 X103.83 Y149.92 E27.6045
G1 X103.70 Y150.38 E27.6274
G1 X103.50 Y150.83 E27.6510
G1 X103.24 Y151.25 E27.6746
G1 X102.92 Y151.63 E27.6984
G1 X102.56 Y151.95 E27.7215
G1 X102.14 Y152.22 E27.7454
G1 X101.71 Y152.42 E27.7681
G1 X101.23 Y152.56 E27.7921
G1 X100.75 Y152.63 E27.8153
G1 X100.25 Y152.63 E27.8393
G1 X99.77 Y152.56 E27.8625
G1 X99.30 Y152.42 E27.8860
G1 X98.87 Y152.22 E27.9087
G1 X97.89 Y151.58 E27.9648
G1 X97.34 Y151.34 E27.9935
G1 X96.76 Y151.19 E28.0222
G1 X96.19 Y151.14 E28.0496
G1 X73.80 Y151.14 E29.1219
G1 X73.22 Y151.19 E29.1498
G1 X72.64 Y151.34 E29.1785
G1 X72.09 Y151.59 E29.2075
G1 X71.19 Y152.19 E29.2593
G1 X70.76 Y152.40 E29.2822
G1 X70.28 Y152.55 E29.3063
G1 X69.81 Y152.63 E29.3291
G1 X69.31 Y152.64 E29.3531
G1 X68.83 Y152.58 E29.3762
G1 X68.36 Y152.44 E29.3997
G1 X67.90 Y152.24 E29.4237
G1 X67.50 Y151.99 E29.4463
G1 X67.12 Y151.67 E29.4701
G1 X66.80 Y151.30 E29.4936
G1 X66.53 Y150.88 E29.5175
G1 X66.32 Y150.45 E29.5404
G1 X66.18 Y149.97 E29.5643
G1 X66.11 Y149.49 E29.5876
G1 X66.10 Y149.25 E29.5991
G1 X65.70 Y149.24 F4200
G1 X65.74 Y148.70 E29.6250 F600
G1 X65.86 Y148.16 E29.6515
G1 X66.05 Y147.65 E29.6776
G1 X66.32 Y147.17 E29.7039
G1 X66.65 Y146.73 E29.7303
G1 X67.04 Y146.35 E29.7564
G1 X67.48 Y146.03 E29.7824
G1 X67.97 Y145.76 E29.8092
G1 X68.48 Y145.58 E29.8351
G1 X69.02 Y145.47 E29.8615
G1 X69.57 Y145.44 E29.8879
G1 X70.11 Y145.49 E29.9139
G1 X70.65 Y145.62 E29.9405
G1 X71.16 Y145.82 E29.9667
G1 X71.63 Y146.10 E29.9929
G1 X72.08 Y146.42 E30.0194
G1 X72.54 Y146.67 E30.0444
G1 X73.05 Y146.85 E30.0703
G1 X73.57 Y146.93 E30.0955
G1 X73.83 Y146.94 E30.1080
G1 X96.19 Y146.94 E31.1789
G1 X96.71 Y146.90 E31.2039
G1 X97.23 Y146.76 E31.2297
G1 X97.72 Y146.55 E31.2552
G1 X98.54 Y145.99 E31.3028
G1 X99.03 Y145.74 E31.3291
G1 X99.55 Y145.56 E31.3555
G1 X100.09 Y145.47 E31.3817
G1 X100.64 Y145.45 E31.4081
G1 X101.18 Y145.51 E31.4341
G1 X101.72 Y145.64 E31.4607
G1 X102.22 Y145.85 E31.4867
G1 X102.69 Y146.13 E31.5129
G1 X103.11 Y146.49 E31.5394
G1 X103.48 Y146.89 E31.5655
G1 X103.79 Y147.35 E31.5920
G1 X104.03 Y147.83 E31.6177
G1 X104.20 Y148.36 E31.6444
G1 X104.29 Y148.90 E31.6706
G1 X104.30 Y149.45 E31.6969
G1 X104.23 Y149.99 E31.7230
G1 X104.08 Y150.52 E31.7494
G1 X103.86 Y151.02 E31.7756
G1 X103.57 Y151.49 E31.8020
G1 X103.21 Y151.91 E31.8285
G1 X102.80 Y152.27 E31.8547
G1 X102.34 Y152.57 E31.8810
G1 X101.85 Y152.80 E31.9069
G1 X101.32 Y152.95 E31.9333
G1 X100.78 Y153.03 E31.9594
G1 X100.23 Y153.03 E31.9857
G1 X99.69 Y152.95 E32.0119
G1 X99.15 Y152.80 E32.0387
G1 X98.67 Y152.57 E32.0642
G1 X97.70 Y151.93 E32.1199
G1 X97.21 Y151.72 E32.1454
G1 X96.69 Y151.59 E32.1711
G1 X96.18 Y151.54 E32.1956
G1 X73.81 Y151.54 E33.2670
G1 X73.29 Y151.59 E33.2921
G1 X72.78 Y151.72 E33.3173
G1 X72.29 Y151.94 E33.3430
G1 X71.39 Y152.54 E33.3948
G1 X70.91 Y152.77 E33.4203
G1 X70.38 Y152.94 E33.4469
G1 X69.84 Y153.03 E33.4732
G1 X69.29 Y153.04 E33.4995
G1 X68.75 Y152.97 E33.5256
G1 X68.22 Y152.82 E33.5520
G1 X67.71 Y152.60 E33.5786
G1 X67.26 Y152.31 E33.6042
G1 X66.84 Y151.95 E33.6307
G1 X66.48 Y151.54 E33.6568
G1 X66.18 Y151.08 E33.6831
G1 X65.95 Y150.58 E33.7095
G1 X65.79 Y150.06 E33.7356
G1 X65.71 Y149.51 E33.7622
G1 X65.70 Y149.24 E33.7751
G1 X67.15 Y149.11 F4200
G1 X67.18 Y149.63 E33.8001 F600
G1 X67.32 Y150.12 E33.8245
G1 X67.56 Y150.57 E33.8489
G1 X67.89 Y150.96 E33.8734
G1 X68.30 Y151.27 E33.8980
G1 X68.76 Y151.48 E33.9222
G1 X69.26 Y151.58 E33.9466
G1 X69.76 Y151.58 E33.9706
G1 X70.26 Y151.47 E33.9951
G1 X70.72 Y151.26 E34.0193
G1 X71.13 Y150.94 E34.0442
G1 X71.45 Y150.56 E34.0680
G1 X71.69 Y150.11 E34.0924
G1 X71.82 Y149.62 E34.1167
G1 X71.85 Y149.10 E34.1417
G1 X71.77 Y148.61 E34.1654
G1 X71.57 Y148.13 E34.1903
G1 X71.29 Y147.71 E34.2145
G1 X70.92 Y147.36 E34.2389
G1 X70.48 Y147.10 E34.2634
G1 X70.00 Y146.94 E34.2876
G1 X69.49 Y146.89 E34.3122
G1 X68.99 Y146.95 E34.3363
G1 X68.50 Y147.11 E34.3610
G1 X68.07 Y147.37 E34.3850
G1 X67.70 Y147.73 E34.4098
G1 X67.42 Y148.15 E34.4339
G1 X67.23 Y148.62 E34.4582
G1 X67.15 Y149.11 E34.4820
G1 X67.55 Y149.14 F4200
G1 X67.58 Y149.57 E34.5026 F600
G1 X67.69 Y149.97 E34.5225
G1 X67.89 Y150.34 E34.5427
G1 X68.16 Y150.66 E34.5627
G1 X68.50 Y150.92 E34.5832
G1 X68.89 Y151.09 E34.6036
G1 X69.30 Y151.18 E34.6237
G1 X69.72 Y151.18 E34.6438
G1 X70.13 Y151.09 E34.6639
G1 X70.51 Y150.91 E34.6841
G1 X70.85 Y150.65 E34.7046
G1 X71.12 Y150.33 E34.7246
G1 X71.32 Y149.96 E34.7448
G1 X71.43 Y149.55 E34.7651
G1 X71.45 Y149.13 E34.7852
G1 X71.38 Y148.71 E34.8056
G1 X71.22 Y148.32 E34.8258
G1 X70.98 Y147.97 E34.8461
G1 X70.68 Y147.69 E34.8658
G1 X70.31 Y147.47 E34.8864
G1 X69.91 Y147.34 E34.9066
G1 X69.49 Y147.29 E34.9268
G1 X69.07 Y147.34 E34.9471
G1 X68.68 Y147.48 E34.9669
G1 X68.32 Y147.69 E34.9869
G1 X68.01 Y147.99 E35.0075
G1 X67.77 Y148.34 E35.0279
G1 X67.62 Y148.73 E35.0479
G1 X67.55 Y149.14 E35.0678
G1 E30.0678 F2700
G1 X67.44 Y148.68 F4200
G1 X67.61 Y148.25
G1 X67.86 Y147.86
G1 X68.20 Y147.54
G1 X68.60 Y147.30
G1 X69.03 Y147.15
G1 X69.49 Y147.10
G1 X98.15 Y149.11
G1 E35.0678 F2700
G1 X98.15 Y149.11 F4200
G1 X98.18 Y149.63 E35.0927 F600
G1 X98.32 Y150.12 E35.1171
G1 X98.56 Y150.57 E35.1416
G1 X98.89 Y150.96 E35.1660
G1 X99.29 Y151.26 E35.1900
G1 X99.75 Y151.47 E35.2142
G1 X100.25 Y151.58 E35.2387
G1 X100.76 Y151.58 E35.2632
G1 X101.26 Y151.47 E35.2877
G1 X101.72 Y151.26 E35.3119
G1 X102.12 Y150.95 E35.3361
G1 X102.45 Y150.56 E35.3606
G1 X102.69 Y150.11 E35.3850
G1 X102.82 Y149.62 E35.4093
G1 X102.85 Y149.11 E35.4338
G1 X102.77 Y148.61 E35.4580
G1 X102.58 Y148.14 E35.4823
G1 X102.29 Y147.72 E35.5067
G1 X101.92 Y147.37 E35.5311
G1 X101.49 Y147.10 E35.5555
G1 X101.00 Y146.94 E35.5801
G1 X100.50 Y146.89 E35.6042
G1 X99.99 Y146.95 E35.6288
G1 X99.51 Y147.11 E35.6530
G1 X99.07 Y147.37 E35.6775
G1 X98.70 Y147.72 E35.7019
G1 X98.42 Y148.14 E35.7261
G1 X98.23 Y148.62 E35.7508
G1 X98.15 Y149.11 E35.7746
G1 X98.55 Y149.14 F4200
G1 X98.58 Y149.56 E35.7948 F600
G1 X98.69 Y149.97 E35.8151
G1 X98.89 Y150.34 E35.8352
G1 X99.16 Y150.66 E35.8553
G1 X99.50 Y150.92 E35.8758
G1 X99.88 Y151.09 E35.8957
G1 X100.29 Y151.18 E35.9158
G1 X100.72 Y151.18 E35.9364
G1 X101.13 Y151.09 E35.9565
G1 X101.51 Y150.91 E35.9767
G1 X101.85 Y150.66 E35.9969
G1 X102.12 Y150.34 E36.0169
G1 X102.32 Y149.96 E36.0375
G1 X102.43 Y149.55 E36.0578
G1 X102.45 Y149.13 E36.0780
G1 X102.38 Y148.72 E36.0979
G1 X102.22 Y148.33 E36.1181
G1 X101.99 Y147.98 E36.1381
G1 X101.68 Y147.69 E36.1585
G1 X101.32 Y147.47 E36.1787
G1 X100.92 Y147.34 E36.1988
G1 X100.50 Y147.29 E36.2191
G1 X100.08 Y147.34 E36.2393
G1 X99.68 Y147.47 E36.2595
G1 X99.32 Y147.69 E36.2797
G1 X99.01 Y147.98 E36.3000
G1 X98.78 Y148.33 E36.3201
G1 X98.62 Y148.72 E36.3403
G1 X98.55 Y149.14 E36.3607
;infill
G1 X98.74 Y147.22 F4200
G1 X98.45 Y146.94 E36.3800 F600
G1 X98.12 Y147.17 E36.3992
G1 X98.45 Y147.50 E36.4216
G1 X98.22 Y147.83 E36.4409
G1 X97.73 Y147.35 E36.4737
G1 X97.32 Y147.50 E36.4946
G1 X98.03 Y148.21 E36.5427
G1 X97.89 Y148.63 E36.5639
G1 X96.87 Y147.62 E36.6327
G1 X96.36 Y147.67 E36.6572
G1 X97.81 Y149.13 E36.7558
G1 X97.86 Y149.73 E36.7846
G1 X95.80 Y147.68 E36.9238
G1 X95.24 Y147.68 E36.9506
G1 X98.22 Y150.67 E37.1528
G1 X98.27 Y150.76 E37.1577
G1 X98.65 Y151.21 E37.1859
G1 X98.77 Y151.29 E37.1928
G1 X98.54 Y151.55 E37.2095
G1 X94.67 Y147.68 E37.4716
G1 X94.11 Y147.68 E37.4984
G1 X97.43 Y151.01 E37.7236
G1 X96.82 Y150.85 E37.7538
G1 X96.70 Y150.84 E37.7596
G1 X93.54 Y147.68 E37.9736
G1 X92.97 Y147.68 E38.0009
G1 X96.10 Y150.80 E38.2126
G1 X95.53 Y150.80 E38.2399
G1 X92.41 Y147.68 E38.4512
G1 X91.84 Y147.68 E38.4785
G1 X94.96 Y150.80 E38.6899
G1 X94.40 Y150.80 E38.7167
G1 X91.28 Y147.68 E38.9280
G1 X90.71 Y147.68 E38.9553
G1 X93.83 Y150.80 E39.1666
G1 X93.27 Y150.80 E39.1935
G1 X90.15 Y147.68 E39.4048
G1 X89.58 Y147.68 E39.4321
G1 X92.70 Y150.80 E39.6434
G1 X92.13 Y150.80 E39.6707
G1 X89.01 Y147.68 E39.8820
G1 X88.45 Y147.68 E39.9089
G1 X91.57 Y150.80 E40.1202
G1 X91.00 Y150.80 E40.1475
G1 X87.88 Y147.68 E40.3588
G1 X87.32 Y147.68 E40.3856
G1 X90.44 Y150.80 E40.5970
G1 X89.87 Y150.80 E40.6243
G1 X86.75 Y147.68 E40.8356
G1 X86.19 Y147.68 E40.8624
G1 X89.31 Y150.80 E41.0737
G1 X88.74 Y150.80 E41.1010
G1 X85.62 Y147.68 E41.3124
G1 X85.06 Y147.68 E41.3392
G1 X88.17 Y150.80 E41.5502
G1 X87.61 Y150.80 E41.5770
G1 X84.49 Y147.68 E41.7883
G1 X83.92 Y147.68 E41.8156
G1 X87.04 Y150.80 E42.0270
G1 X86.48 Y150.80 E42.0538
G1 X83.36 Y147.68 E42.2651
G1 X82.79 Y147.68 E42.2924
G1 X85.91 Y150.80 E42.5037
G1 X85.35 Y150.80 E42.5306
G1 X82.23 Y147.68 E42.7419
G1 X81.66 Y147.68 E42.7692
G1 X84.78 Y150.80 E42.9805
G1 X84.22 Y150.80 E43.0073
G1 X81.10 Y147.68 E43.2187
G1 X80.53 Y147.68 E43.2460
G1 X83.65 Y150.80 E43.4573
G1 X83.08 Y150.80 E43.4846
G1 X79.96 Y147.68 E43.6959
G1 X79.40 Y147.68 E43.7227
G1 X82.52 Y150.80 E43.9341
G1 X81.95 Y150.80 E43.9614
G1 X78.83 Y147.68 E44.1727
G1 X78.27 Y147.68 E44.1995
G1 X81.39 Y150.80 E44.4108
G1 X80.82 Y150.80 E44.4382
G1 X77.70 Y147.68 E44.6495
G1 X77.14 Y147.68 E44.6763
G1 X80.25 Y150.80 E44.8873
G1 X79.69 Y150.80 E44.9141
G1 X76.57 Y147.68 E45.1254
G1 X76.00 Y147.68 E45.1527
G1 X79.12 Y150.80 E45.3641
G1 X78.56 Y150.80 E45.3909
G1 X75.44 Y147.68 E45.6022
G1 X74.87 Y147.68 E45.6295
G1 X77.99 Y150.80 E45.8408
G1 X77.43 Y150.80 E45.8677
G1 X74.31 Y147.68 E46.0790
G1 X73.74 Y147.68 E46.1063
G1 X76.86 Y150.80 E46.3176
G1 X76.30 Y150.80 E46.3444
G1 X73.10 Y147.60 E46.5612
G1 X72.87 Y147.57 E46.5723
G1 X72.30 Y147.37 E46.6012
G1 X75.73 Y150.80 E46.8336
G1 X75.16 Y150.80 E46.8609
G1 X71.46 Y147.10 E47.1115
G1 X71.32 Y147.27 E47.1220
G1 X71.55 Y147.49 E47.1373
G1 X71.88 Y147.97 E47.1652
G1 X71.95 Y148.16 E47.1749
G1 X74.60 Y150.80 E47.3540
G1 X74.03 Y150.80 E47.3813
G1 X72.17 Y148.94 E47.5073
G1 X72.19 Y149.09 E47.5145
G1 X72.17 Y149.50 E47.5342
G1 X73.49 Y150.83 E47.6239
G1 X73.00 Y150.90 E47.6477
G1 X72.08 Y149.98 E47.7100
G1 X72.01 Y150.23 E47.7224
G1 X71.92 Y150.39 E47.7312
G1 X72.55 Y151.02 E47.7739
G1 X72.15 Y151.19 E47.7947
G1 X71.73 Y150.76 E47.8235
G1 X71.47 Y151.06 E47.8425
G1 X71.78 Y151.38 E47.8638
G1 X71.43 Y151.59 E47.8834
G1 X71.15 Y151.63 F4200
G1 X70.56 Y151.91 E47.9147 F600
G1 X70.39 Y151.97 E47.9233
G1 X69.86 Y152.09 E47.9493
G1 X69.34 Y152.11 E47.9742
G1 X68.93 Y152.05 E47.9941
G1 X68.53 Y151.95 E48.0138
G1 X68.00 Y151.69 E48.0421
G1 X67.50 Y151.30 E48.0725
G1 X67.12 Y150.84 E48.1011
G1 X66.82 Y150.28 E48.1315
G1 X66.68 Y149.76 E48.1573
G1 X66.63 Y149.13 E48.1875
G1 X66.72 Y148.52 E48.2171
G1 X66.94 Y147.95 E48.2463
G1 X67.27 Y147.44 E48.2754
G1 X67.65 Y147.05 E48.3015
G1 X67.97 Y146.82 E48.3204
G1 X68.35 Y146.61 E48.3412
G1 X68.92 Y146.43 E48.3698
G1 X69.53 Y146.37 E48.3992
G1 X70.05 Y146.43 E48.4242
G1 X70.66 Y146.62 E48.4548
G1 X71.27 Y146.97 E48.4885
G1 E43.4885 F2700
G1 X96.20 Y147.13 F4200
G1 X98.91 Y146.85
G1 E48.4885 F2700
G1 X98.91 Y146.85 F4200
G1 X99.42 Y146.59 E48.5159 F600
G1 X99.93 Y146.43 E48.5415
G1 X100.53 Y146.37 E48.5704
G1 X101.07 Y146.43 E48.5964
G1 X101.65 Y146.61 E48.6255
G1 X102.16 Y146.90 E48.6536
G1 X102.47 Y147.16 E48.6730
G1 X102.76 Y147.47 E48.6933
G1 X103.06 Y147.93 E48.7196
G1 X103.28 Y148.51 E48.7493
G1 X103.37 Y149.04 E48.7751
G1 X103.34 Y149.66 E48.8048
G1 X103.21 Y150.21 E48.8319
G1 X103.04 Y150.57 E48.8510
G1 X102.85 Y150.89 E48.8688
G1 X102.47 Y151.34 E48.8970
G1 X101.96 Y151.72 E48.9274
G1 X101.39 Y151.98 E48.9575
G1 X100.77 Y152.10 E48.9877
G1 X100.15 Y152.09 E49.0174
G1 X99.57 Y151.96 E49.0459
G1 X98.76 Y151.58 E49.0887
;shell
G1 E44.0887 F2700
G1 X66.10 Y139.25 F4200
G1 E49.0887 F2700
G1 X66.10 Y139.25 F4200
G1 X66.14 Y138.75 E49.1127 F600
G1 X66.24 Y138.27 E49.1362
G1 X66.41 Y137.82 E49.1593
G1 X66.66 Y137.38 E49.1835
G1 X66.95 Y137.00 E49.2064
G1 X67.31 Y136.65 E49.2305
G1 X67.69 Y136.37 E49.2531
G1 X68.13 Y136.13 E49.2771
G1 X68.59 Y135.97 E49.3004
G1 X69.07 Y135.87 E49.3239
G1 X69.56 Y135.85 E49.3474
G1 X70.05 Y135.89 E49.3709
G1 X70.53 Y136.00 E49.3945
G1 X70.98 Y136.19 E49.4179
G1 X71.41 Y136.43 E49.4415
G1 X71.87 Y136.76 E49.4686
G1 X72.39 Y137.04 E49.4969
G1 X72.95 Y137.23 E49.5252
G1 X73.52 Y137.33 E49.5529
G1 X73.82 Y137.34 E49.5673
G1 X96.21 Y137.34 E50.6397
G1 X96.78 Y137.29 E50.6671
G1 X97.36 Y137.14 E50.6957
G1 X97.91 Y136.90 E50.7245
G1 X98.75 Y136.33 E50.7731
G1 X99.18 Y136.11 E50.7962
G1 X99.66 Y135.95 E50.8205
G1 X100.13 Y135.86 E50.8434
G1 X100.62 Y135.85 E50.8669
G1 X101.11 Y135.90 E50.8905
G1 X101.59 Y136.02 E50.9142
G1 X102.04 Y136.21 E50.9375
G1 X102.45 Y136.46 E50.9605
G1 X102.84 Y136.78 E50.9847
G1 X103.17 Y137.14 E51.0081
G1 X103.44 Y137.54 E51.0312
G1 X103.66 Y137.98 E51.0548
G1 X103.81 Y138.46 E51.0789
G1 X103.89 Y138.93 E51.1017
G1 X103.89 Y139.43 E51.1256
G1 X103.83 Y139.92 E51.1493
G1 X103.70 Y140.38 E51.1722
G1 X103.50 Y140.83 E51.1958
G1 X103.24 Y141.25 E51.2194
G1 X102.92 Y141.63 E51.2432
G1 X102.56 Y141.95 E51.2663
G1 X102.14 Y142.22 E51.2902
G1 X101.71 Y142.42 E51.3129
G1 X101.23 Y142.56 E51.3369
G1 X100.75 Y142.63 E51.3601
G1 X100.25 Y142.63 E51.3841
G1 X99.77 Y142.56 E51.4073
G1 X99.30 Y142.42 E51.4308
G1 X98.87 Y142.22 E51.4535
G1 X97.89 Y141.58 E51.5095
G1 X97.34 Y141.34 E51.5383
G1 X96.76 Y141.19 E51.5670
G1 X96.19 Y141.14 E51.5944
G1 X73.80 Y141.14 E52.6667
