;generated by ffslicer 1.30.3 09/05/23 22:52:05
;right_extruder_material: PLA
;layer_height: 0.2
;perimeter_shells: 2
;top_solid_layers: 4
;bottom_solid_layers: 3
;fill_density: 15%
;fill_pattern: hexagon
;base_print_speed: 50
;travel_speed: 80
;right_extruder_temperature: 200
;left_extruder_temperature: 0
;platform_temperature: 60
;right_extruder_temperature_raft0: 0
;left_extruder_temperature_raft0: 0
;right_extruder_temperature_reset: 
;left_extruder_temperature_reset: 
;start gcode
M140 S60 T0
M104 S200 T0
M104 S0 T1
G90
G28
G1 Z50.000 F420
G161 X Y F3300
M190 S60 T0
M109 S200 T0
M109 S0 T1
G92 E.0000
;layer_count: 5
M108 T0
G1 X85.87 Y84.50 F4800
;preExtrude:0.20
;preExtruder0
M106 S255
G1 Z.200 F420
G1 X85.87 Y84.50 F4800
G1 X144.00 Y84.50 E7.4243 F1200
G1 X144.00 Y113.18 E11.0873
G1 X117.96 Y135.50 E15.4676
G1 X102.04 Y135.50 E17.5009
G1 X76.00 Y113.18 E21.8812
G1 X76.00 Y84.50 E25.5442
;raft
;layer:0.28
;shell
G1 E20.5442 F2700
G1 Z.280 F420
G1 X84.60 Y93.10 F4200
G1 E25.5442 F2700
G1 X84.60 Y93.10 F4200
G1 X135.40 Y93.10 E27.8151 F600
G1 X135.40 Y109.22 E28.5357
G1 X114.78 Y126.90 E29.7498
G1 X105.22 Y126.90 E30.1772
G1 X84.60 Y109.22 E31.3914
G1 X84.60 Y96.99 E31.9381
G1 X84.86 Y96.97 E31.9497
G1 X84.88 Y97.12 E31.9565
G1 X85.14 Y97.69 E31.9845
G1 X85.56 Y98.17 E32.0130
G1 X86.09 Y98.51 E32.0411
G1 X86.69 Y98.68 E32.0690
G1 X87.31 Y98.68 E32.0967
G1 X87.91 Y98.51 E32.1246
G1 X88.44 Y98.17 E32.1528
G1 X88.86 Y97.69 E32.1813
G1 X89.12 Y97.12 E32.2093
G1 X89.21 Y96.50 E32.2373
G1 X89.12 Y95.88 E32.2653
G1 X88.86 Y95.31 E32.2933
G1 X88.44 Y94.83 E32.3218
G1 X87.91 Y94.49 E32.3500
G1 X87.31 Y94.32 E32.3778
G1 X86.69 Y94.32 E32.4055
G1 X86.09 Y94.49 E32.4334
G1 X85.56 Y94.83 E32.4616
G1 X85.14 Y95.31 E32.4901
G1 X84.88 Y95.88 E32.5181
G1 X84.86 Y96.03 E32.5249
G1 X84.60 Y96.01 E32.5365
G1 X84.60 Y93.10 E32.6666
G1 X84.20 Y92.70 F4200
G1 X135.80 Y92.70 E34.9732 F600
G1 X135.80 Y109.41 E35.7202
G1 X114.93 Y127.30 E36.9489
G1 X105.07 Y127.30 E37.3897
G1 X84.20 Y109.41 E38.6185
G1 X84.20 Y92.70 E39.3654
G1 X85.09 Y97.06 F4200
G1 X85.32 Y97.58
G1 X94.07 Y111.50
G1 X94.07 Y111.50
G1 X94.16 Y112.12 E39.3934 F600
G1 X94.42 Y112.69 E39.4214
G1 X94.83 Y113.17 E39.4497
G1 X95.36 Y113.51 E39.4778
G1 X95.96 Y113.68 E39.5057
G1 X96.59 Y113.68 E39.5338
G1 X97.19 Y113.51 E39.5617
G1 X97.72 Y113.17 E39.5899
G1 X98.13 Y112.69 E39.6181
G1 X98.39 Y112.12 E39.6461
G1 X98.48 Y111.50 E39.6741
G1 X98.39 Y110.88 E39.7021
G1 X98.13 Y110.31 E39.7301
G1 X97.72 Y109.83 E39.7583
G1 X97.19 Y109.49 E39.7865
G1 X96.59 Y109.32 E39.8143
G1 X95.96 Y109.32 E39.8425
G1 X95.36 Y109.49 E39.8704
G1 X94.83 Y109.83 E39.8985
G1 X94.42 Y110.31 E39.9267
G1 X94.16 Y110.88 E39.9548
G1 X94.07 Y111.50 E39.9828
G1 X94.47 Y111.50 F4200
G1 X94.55 Y112.01 E40.0058 F600
G1 X94.76 Y112.47 E40.0284
G1 X95.10 Y112.86 E40.0516
G1 X95.53 Y113.14 E40.0745
G1 X96.02 Y113.28 E40.0973
G1 X96.53 Y113.28 E40.1201
G1 X97.02 Y113.14 E40.1429
G1 X97.45 Y112.86 E40.1658
G1 X97.79 Y112.47 E40.1889
G1 X98.00 Y112.01 E40.2115
G1 X98.08 Y111.50 E40.2346
G1 X98.00 Y110.99 E40.2577
G1 X97.79 Y110.53 E40.2803
G1 X97.45 Y110.14 E40.3034
G1 X97.02 Y109.86 E40.3264
G1 X96.53 Y109.72 E40.3491
G1 X96.02 Y109.72 E40.3719
G1 X95.53 Y109.86 E40.3947
G1 X95.10 Y110.14 E40.4177
G1 X94.76 Y110.53 E40.4408
G1 X94.55 Y110.99 E40.4634
G1 X94.47 Y111.50 E40.4865
G1 X94.36 Y112.06 F4200
G1 X94.60 Y112.58
G1 X94.97 Y113.01
G1 X107.80 Y124.00
G1 X107.80 Y124.00
G1 X107.88 Y124.62 E40.5144 F600
G1 X108.14 Y125.19 E40.5424
G1 X108.56 Y125.67 E40.5709
G1 X109.09 Y126.01 E40.5991
G1 X109.69 Y126.18 E40.6270
G1 X110.31 Y126.18 E40.6547
G1 X110.91 Y126.01 E40.6826
G1 X111.44 Y125.67 E40.7107
G1 X111.86 Y125.19 E40.7392
G1 X112.12 Y124.62 E40.7672
G1 X112.21 Y124.00 E40.7952
G1 X112.12 Y123.38 E40.8232
G1 X111.86 Y122.81 E40.8512
G1 X111.44 Y122.33 E40.8797
G1 X110.91 Y121.99 E40.9079
G1 X110.31 Y121.82 E40.9358
G1 X109.69 Y121.82 E40.9635
G1 X109.09 Y121.99 E40.9913
G1 X108.56 Y122.33 E41.0195
G1 X108.14 Y122.81 E41.0480
G1 X107.88 Y123.38 E41.0760
G1 X107.80 Y124.00 E41.1040
G1 X108.20 Y124.00 F4200
G1 X108.27 Y124.51 E41.1270 F600
G1 X108.48 Y124.97 E41.1496
G1 X108.82 Y125.36 E41.1727
G1 X109.25 Y125.64 E41.1956
G1 X109.74 Y125.78 E41.2184
G1 X110.26 Y125.78 E41.2417
G1 X110.75 Y125.64 E41.2645
G1 X111.18 Y125.36 E41.2874
G1 X111.52 Y124.97 E41.3105
G1 X111.73 Y124.51 E41.3331
G1 X111.80 Y124.00 E41.3561
G1 X111.73 Y123.49 E41.3791
G1 X111.52 Y123.03 E41.4018
G1 X111.18 Y122.64 E41.4249
G1 X110.75 Y122.36 E41.4478
G1 X110.26 Y122.22 E41.4706
G1 X109.74 Y122.22 E41.4938
G1 X109.25 Y122.36 E41.5166
G1 X108.82 Y122.64 E41.5396
G1 X108.48 Y123.03 E41.5627
G1 X108.27 Y123.49 E41.5853
G1 X108.20 Y124.00 E41.6083
G1 X108.09 Y123.44 F4200
G1 X108.32 Y122.93
G1 X108.70 Y122.49
G1 X121.52 Y111.50
G1 X121.52 Y111.50
G1 X121.61 Y112.12 E41.6363 F600
G1 X121.87 Y112.69 E41.6643
G1 X122.28 Y113.17 E41.6925
G1 X122.81 Y113.51 E41.7207
G1 X123.41 Y113.68 E41.7486
G1 X124.04 Y113.68 E41.7767
G1 X124.64 Y113.51 E41.8046
G1 X125.17 Y113.17 E41.8327
G1 X125.58 Y112.69 E41.8610
G1 X125.84 Y112.12 E41.8890
G1 X125.93 Y111.50 E41.9170
G1 X125.84 Y110.88 E41.9450
G1 X125.58 Y110.31 E41.9730
G1 X125.17 Y109.83 E42.0012
G1 X124.64 Y109.49 E42.0293
G1 X124.04 Y109.32 E42.0572
G1 X123.41 Y109.32 E42.0854
G1 X122.81 Y109.49 E42.1133
G1 X122.28 Y109.83 E42.1414
G1 X121.87 Y110.31 E42.1696
G1 X121.61 Y110.88 E42.1976
G1 X121.52 Y111.50 E42.2256
G1 X121.92 Y111.50 F4200
G1 X122.00 Y112.01 E42.2487 F600
G1 X122.21 Y112.47 E42.2713
G1 X122.55 Y112.86 E42.2944
G1 X122.98 Y113.14 E42.3174
G1 X123.47 Y113.28 E42.3402
G1 X123.98 Y113.28 E42.3630
G1 X124.47 Y113.14 E42.3857
G1 X124.90 Y112.86 E42.4087
G1 X125.24 Y112.47 E42.4318
G1 X125.45 Y112.01 E42.4544
G1 X125.53 Y111.50 E42.4775
G1 X125.45 Y110.99 E42.5006
G1 X125.24 Y110.53 E42.5232
G1 X124.90 Y110.14 E42.5463
G1 X124.47 Y109.86 E42.5692
G1 X123.98 Y109.72 E42.5920
G1 X123.47 Y109.72 E42.6148
G1 X122.98 Y109.86 E42.6376
G1 X122.55 Y110.14 E42.6605
G1 X122.21 Y110.53 E42.6837
G1 X122.00 Y110.99 E42.7063
G1 X121.92 Y111.50 E42.7293
G1 X121.81 Y110.94 F4200
G1 X127.80 Y96.50
G1 X127.80 Y96.50
G1 X127.88 Y97.12 E42.7573 F600
G1 X128.14 Y97.69 E42.7853
G1 X128.56 Y98.17 E42.8138
G1 X129.09 Y98.51 E42.8420
G1 X129.69 Y98.68 E42.8698
G1 X130.31 Y98.68 E42.8976
G1 X130.91 Y98.51 E42.9254
G1 X131.44 Y98.17 E42.9536
G1 X131.86 Y97.69 E42.9821
G1 X132.12 Y97.12 E43.0101
G1 X132.21 Y96.50 E43.0381
G1 X132.12 Y95.88 E43.0661
G1 X131.86 Y95.31 E43.0941
G1 X131.44 Y94.83 E43.1226
G1 X130.91 Y94.49 E43.1508
G1 X130.31 Y94.32 E43.1786
G1 X129.69 Y94.32 E43.2063
G1 X129.09 Y94.49 E43.2342
G1 X128.55 Y94.83 E43.2627
G1 X128.14 Y95.31 E43.2910
G1 X127.88 Y95.88 E43.3190
G1 X127.80 Y96.50 E43.3469
G1 X128.20 Y96.50 F4200
G1 X128.27 Y97.01 E43.3699 F600
G1 X128.48 Y97.47 E43.3925
G1 X128.82 Y97.86 E43.4157
G1 X129.25 Y98.14 E43.4386
G1 X129.74 Y98.28 E43.4614
G1 X130.26 Y98.28 E43.4846
G1 X130.75 Y98.14 E43.5074
G1 X131.18 Y97.86 E43.5303
G1 X131.52 Y97.47 E43.5535
G1 X131.73 Y97.01 E43.5761
G1 X131.80 Y96.50 E43.5991
G1 X131.73 Y95.99 E43.6221
G1 X131.52 Y95.53 E43.6447
G1 X131.18 Y95.14 E43.6678
G1 X130.75 Y94.86 E43.6908
G1 X130.26 Y94.72 E43.7136
G1 X129.74 Y94.72 E43.7368
G1 X129.25 Y94.86 E43.7596
G1 X128.82 Y95.14 E43.7825
G1 X128.48 Y95.53 E43.8057
G1 X128.27 Y95.99 E43.8283
G1 X128.20 Y96.50 E43.8513
G1 X87.28 Y94.53 F4200
G1 X86.72 Y94.53
G1 X86.17 Y94.69
G1 X85.70 Y94.99
G1 X85.32 Y95.43
G1 X85.09 Y95.94
G1 X85.20 Y96.50
G1 X85.20 Y96.50
G1 X85.27 Y97.01 E43.8743 F600
G1 X85.48 Y97.47 E43.8969
G1 X85.82 Y97.86 E43.9200
G1 X86.25 Y98.14 E43.9429
G1 X86.74 Y98.28 E43.9657
G1 X87.26 Y98.28 E43.9890
G1 X87.75 Y98.14 E44.0118
G1 X88.18 Y97.86 E44.0347
G1 X88.52 Y97.47 E44.0578
G1 X88.73 Y97.01 E44.0804
G1 X88.80 Y96.50 E44.1034
G1 X88.73 Y95.99 E44.1265
G1 X88.52 Y95.53 E44.1491
G1 X88.18 Y95.14 E44.1722
G1 X87.75 Y94.86 E44.1951
G1 X87.26 Y94.72 E44.2179
G1 X86.74 Y94.72 E44.2412
G1 X86.25 Y94.86 E44.2639
G1 X85.82 Y95.14 E44.2869
G1 X85.48 Y95.53 E44.3100
G1 X85.27 Y95.99 E44.3326
G1 X85.20 Y96.50 E44.3556
;infill
G1 X84.97 Y96.50 F4200
G1 X84.44 Y96.50 E44.3793 F600
G1 X84.84 Y95.39 F4200
G1 X84.97 Y94.95 E44.3998 F600
G1 X84.94 Y94.32 F4200
G1 X85.27 Y94.64 E44.4204 F600
G1 X85.59 Y94.40 E44.4382
G1 X84.94 Y93.75 E44.4793
G1 X84.94 Y93.44 E44.4932
G1 X85.20 Y93.44 E44.5048
G1 X85.94 Y94.18 E44.5516
G1 X86.38 Y94.05 E44.5721
G1 X85.76 Y93.44 E44.6110
G1 X86.33 Y93.44 E44.6365
G1 X86.87 Y93.98 E44.6706
G1 X87.36 Y93.98 E44.6925
G1 X87.46 Y94.00 E44.6971
G1 X86.90 Y93.44 E44.7325
G1 X87.47 Y93.44 E44.7579
G1 X88.47 Y94.44 E44.8212
G1 X86.72 Y94.53 F4200
G1 X86.17 Y94.69
G1 X85.70 Y94.99
G1 X85.32 Y95.43
G1 X85.09 Y95.94
G1 X84.84 Y97.61
G1 X84.84 Y97.61
G1 X84.97 Y98.05 E44.8417 F600
G1 X84.94 Y109.06 F4200
G1 X84.94 Y109.06
G1 X84.99 Y109.11 E44.8448 F600
G1 X88.96 Y112.51 E45.0785
G1 X84.94 Y108.49 E45.3326
G1 X84.94 Y107.93 E45.3576
G1 X92.93 Y115.92 E45.8628
G1 X96.90 Y119.32 E46.0964
G1 X84.94 Y107.36 E46.8525
G1 X84.94 Y106.79 E46.8780
G1 X100.87 Y122.72 E47.8850
G1 X104.84 Y126.13 E48.1190
G1 X84.94 Y106.23 E49.3770
G1 X84.94 Y105.66 E49.4025
G1 X105.84 Y126.56 E50.7237
G1 X106.41 Y126.56 E50.7492
G1 X84.94 Y105.09 E52.1065
G1 X84.94 Y104.52 E52.1320
G1 X106.98 Y126.56 E53.5253
G1 X107.54 Y126.56 E53.5503
G1 X84.94 Y103.96 E54.9790
G1 X84.94 Y103.39 E55.0045
G1 X93.87 Y112.32 E55.5691
G1 X93.83 Y112.22 E55.5739
G1 X93.74 Y111.63 E55.6006
G1 X84.94 Y102.82 E56.1572
G1 X84.94 Y102.26 E56.1822
G1 X93.78 Y111.10 E56.7411
G1 X93.83 Y110.78 E56.7555
G1 X93.89 Y110.64 E56.7624
G1 X84.94 Y101.69 E57.3282
G1 X84.94 Y101.12 E57.3536
G1 X94.07 Y110.25 E57.9308
G1 X94.30 Y109.92 E57.9488
G1 X84.94 Y100.55 E58.5408
G1 X84.94 Y99.99 E58.5659
G1 X94.57 Y109.61 E59.1743
G1 X94.90 Y109.38 E59.1923
G1 X84.94 Y99.42 E59.8220
G1 X84.94 Y98.85 E59.8474
G1 X95.25 Y109.17 E60.4995
G1 X95.69 Y109.04 E60.5200
G1 X85.01 Y98.35 E61.1955
G1 X85.20 Y98.28 E61.2046
G1 X85.34 Y98.43 E61.2137
G1 X85.94 Y98.82 E61.2457
G1 X86.08 Y98.86 E61.2522
G1 X96.20 Y108.98 E61.8920
G1 X96.64 Y108.98 E61.9117
G1 X96.81 Y109.03 E61.9196
G1 X86.81 Y99.02 E62.5521
G1 X87.37 Y99.02 E62.5771
G1 X97.89 Y109.54 E63.2422
G1 X98.05 Y109.69 E63.2520
G1 X109.83 Y121.48 E63.9970
G1 X110.41 Y121.49 E64.0229
G1 X87.81 Y98.89 E65.4516
G1 X88.06 Y98.82 E65.4632
G1 X88.21 Y98.72 E65.4713
G1 X111.36 Y121.87 E66.9348
G1 X111.67 Y122.07 E66.9513
G1 X112.15 Y122.63 E66.9842
G1 X112.17 Y122.68 E66.9867
G1 X115.40 Y125.92 E67.1912
G1 X115.71 Y125.65 E67.2095
G1 X88.56 Y98.50 E68.9259
G1 X88.67 Y98.43 E68.9317
G1 X88.85 Y98.22 E68.9441
G1 X116.02 Y125.39 E70.6617
G1 X116.32 Y125.13 E70.6795
G1 X89.11 Y97.92 E72.3996
G1 X89.30 Y97.54 E72.4186
G1 X116.63 Y124.87 E74.1463
G1 X116.93 Y124.61 E74.1641
G1 X89.46 Y97.13 E75.9010
G1 X89.53 Y96.64 E75.9231
G1 X117.24 Y124.34 E77.6745
G1 X117.54 Y124.08 E77.6923
G1 X89.48 Y96.02 E79.4662
G1 X89.45 Y95.78 E79.4770
G1 X89.12 Y95.09 E79.5112
G1 X117.85 Y123.82 E81.3274
G1 X118.15 Y123.56 E81.3452
G1 X88.03 Y93.44 E83.2493
G1 X88.60 Y93.44 E83.2748
G1 X118.46 Y123.30 E85.1624
G1 X118.76 Y123.04 E85.1802
G1 X89.17 Y93.44 E87.0511
G1 X89.73 Y93.44 E87.0761
G1 X119.07 Y122.77 E88.9306
G1 X119.37 Y122.51 E88.9484
G1 X90.30 Y93.44 E90.7861
G1 X90.87 Y93.44 E90.8116
G1 X119.68 Y122.25 E92.6329
G1 X119.99 Y121.99 E92.6510
G1 X91.44 Y93.44 E94.4558
G1 X92.00 Y93.44 E94.4809
G1 X120.29 Y121.73 E96.2693
G1 X120.60 Y121.47 E96.2874
G1 X92.57 Y93.44 E98.0594
G1 X93.14 Y93.44 E98.0849
G1 X120.90 Y121.20 E99.8398
G1 X121.21 Y120.94 E99.8579
G1 X93.70 Y93.44 E101.5967
G1 X94.27 Y93.44 E101.6221
G1 X121.51 Y120.68 E103.3442
G1 X121.82 Y120.42 E103.3623
G1 X94.84 Y93.44 E105.0679
G1 X95.40 Y93.44 E105.0929
G1 X122.12 Y120.16 E106.7821
G1 X122.43 Y119.89 E106.8005
G1 X95.97 Y93.44 E108.4729
G1 X96.54 Y93.44 E108.4984
G1 X122.73 Y119.63 E110.1540
G1 X123.04 Y119.37 E110.1721
G1 X97.11 Y93.44 E111.8114
G1 X97.67 Y93.44 E111.8364
G1 X123.34 Y119.11 E113.4592
G1 X123.65 Y118.85 E113.4773
G1 X98.24 Y93.44 E115.0836
G1 X98.81 Y93.44 E115.1091
G1 X123.95 Y118.59 E116.6987
G1 X124.26 Y118.32 E116.7171
G1 X99.37 Y93.44 E118.2903
G1 X99.94 Y93.44 E118.3157
G1 X124.57 Y118.06 E119.8725
G1 X124.87 Y117.80 E119.8902
G1 X100.51 Y93.44 E121.4302
G1 X101.08 Y93.44 E121.4557
G1 X125.18 Y117.54 E122.9792
G1 X125.48 Y117.28 E122.9970
G1 X101.64 Y93.44 E124.5041
G1 X102.21 Y93.44 E124.5296
G1 X121.52 Y112.75 E125.7503
G1 X121.28 Y112.22 E125.7763
G1 X121.23 Y111.89 E125.7912
G1 X102.78 Y93.44 E126.9576
G1 X103.34 Y93.44 E126.9826
G1 X121.20 Y111.30 E128.1117
G1 X121.27 Y110.80 E128.1343
G1 X103.91 Y93.44 E129.2317
G1 X104.48 Y93.44 E129.2572
G1 X121.45 Y110.41 E130.3300
G1 X121.65 Y110.04 E130.3488
G1 X105.05 Y93.44 E131.3982
G1 X105.61 Y93.44 E131.4232
G1 X121.91 Y109.74 E132.4537
G1 X122.04 Y109.59 E132.4626
G1 X122.21 Y109.47 E132.4719
G1 X106.18 Y93.44 E133.4852
G1 X106.75 Y93.44 E133.5107
G1 X122.56 Y109.25 E134.5102
G1 X122.67 Y109.18 E134.5160
G1 X122.97 Y109.09 E134.5300
G1 X107.31 Y93.44 E135.5197
G1 X107.88 Y93.44 E135.5452
G1 X123.42 Y108.98 E136.5276
G1 X123.98 Y108.98 E136.5526
G1 X108.45 Y93.44 E137.5347
G1 X109.02 Y93.44 E137.5602
G1 X124.74 Y109.17 E138.5543
G1 X125.39 Y109.57 E138.5884
G1 X125.87 Y110.13 E138.6214
G1 X126.01 Y110.44 E138.6366
G1 X129.45 Y113.87 E138.8537
G1 X129.76 Y113.61 E138.8718
G1 X109.58 Y93.44 E140.1472
G1 X110.15 Y93.44 E140.1727
G1 X130.06 Y113.35 E141.4314
G1 X130.37 Y113.09 E141.4495
G1 X110.72 Y93.44 E142.6917
G1 X111.28 Y93.44 E142.7167
G1 X130.67 Y112.83 E143.9425
G1 X130.98 Y112.57 E143.9606
G1 X111.85 Y93.44 E145.1700
G1 X112.42 Y93.44 E145.1955
G1 X131.28 Y112.30 E146.3877
G1 X131.59 Y112.04 E146.4058
G1 X112.99 Y93.44 E147.5817
G1 X113.55 Y93.44 E147.6067
G1 X131.89 Y111.78 E148.7661
G1 X132.20 Y111.52 E148.7842
G1 X114.12 Y93.44 E149.9272
G1 X114.69 Y93.44 E149.9527
G1 X132.50 Y111.26 E151.0789
G1 X132.81 Y111.00 E151.0970
G1 X115.25 Y93.44 E152.2071
G1 X115.82 Y93.44 E152.2326
G1 X133.11 Y110.73 E153.3256
G1 X133.42 Y110.47 E153.3437
G1 X116.39 Y93.44 E154.4203
G1 X116.95 Y93.44 E154.4453
G1 X133.73 Y110.21 E155.5058
G1 X134.03 Y109.95 E155.5235
G1 X117.52 Y93.44 E156.5673
G1 X118.09 Y93.44 E156.5927
G1 X134.34 Y109.69 E157.6200
G1 X134.64 Y109.42 E157.6381
G1 X118.66 Y93.44 E158.6483
G1 X119.22 Y93.44 E158.6733
G1 X134.95 Y109.16 E159.6674
G1 X135.06 Y109.07 E159.6738
G1 X135.06 Y108.71 E159.6899
G1 X119.79 Y93.44 E160.6552
G1 X120.36 Y93.44 E160.6807
G1 X135.06 Y108.14 E161.6100
G1 X135.06 Y107.57 E161.6355
G1 X120.92 Y93.44 E162.5290
G1 X121.49 Y93.44 E162.5545
G1 X135.06 Y107.01 E163.4124
G1 X135.06 Y106.44 E163.4379
G1 X122.06 Y93.44 E164.2597
G1 X122.63 Y93.44 E164.2852
G1 X135.06 Y105.87 E165.0710
G1 X135.06 Y105.31 E165.0960
G1 X123.19 Y93.44 E165.8464
G1 X123.76 Y93.44 E165.8719
G1 X127.56 Y97.24 E166.1121
G1 X127.46 Y96.57 E166.1424
G1 X124.33 Y93.44 E166.3403
G1 X124.89 Y93.44 E166.3653
G1 X127.51 Y96.06 E166.5309
G1 X127.55 Y95.78 E166.5436
G1 X127.63 Y95.61 E166.5520
G1 X125.46 Y93.44 E166.6892
G1 X126.03 Y93.44 E166.7147
G1 X127.81 Y95.22 E166.8272
G1 X128.05 Y94.89 E166.8454
G1 X126.60 Y93.44 E166.9371
G1 X127.16 Y93.44 E166.9621
G1 X128.31 Y94.59 E167.0348
G1 X128.66 Y94.36 E167.0535
G1 X127.73 Y93.44 E167.1120
G1 X128.30 Y93.44 E167.1375
G1 X129.01 Y94.16 E167.1827
G1 X129.45 Y94.03 E167.2032
G1 X128.86 Y93.44 E167.2405
G1 X129.43 Y93.44 E167.2660
G1 X129.97 Y93.98 E167.3001
G1 X130.36 Y93.98 E167.3176
G1 X130.61 Y94.05 E167.3292
G1 X130.00 Y93.44 E167.3678
G1 X130.57 Y93.44 E167.3932
G1 X135.06 Y97.93 E167.6771
G1 X135.06 Y97.37 E167.7021
G1 X131.13 Y93.44 E167.9506
G1 X131.70 Y93.44 E167.9760
G1 X135.06 Y96.80 E168.1885
G1 X135.06 Y96.23 E168.2139
G1 X132.27 Y93.44 E168.3903
G1 X132.83 Y93.44 E168.4154
G1 X135.06 Y95.66 E168.5560
G1 X135.06 Y95.10 E168.5810
G1 X133.40 Y93.44 E168.6860
G1 X133.97 Y93.44 E168.7115
G1 X135.06 Y94.53 E168.7804
G1 X135.06 Y93.96 E168.8059
G1 X134.53 Y93.44 E168.8390
G1 X132.46 Y95.90 F4200
G1 X132.46 Y95.90
G1 X135.06 Y98.50 E169.0034 F600
