;generated by ffslicer 1.30.3 09/05/23 20:40:39
;right_extruder_material: PLA
;layer_height: 0.2
;perimeter_shells: 2
;top_solid_layers: 4
;bottom_solid_layers: 3
;fill_density: 15%
;fill_pattern: hexagon
;base_print_speed: 50
;travel_speed: 80
;right_extruder_temperature: 200
;left_extruder_temperature: 0
;platform_temperature: 60
;right_extruder_temperature_raft0: 0
;left_extruder_temperature_raft0: 0
;right_extruder_temperature_reset: 
;left_extruder_temperature_reset: 
;start gcode
M140 S60 T0
M104 S200 T0
M104 S0 T1
G90
G28
G1 Z50.000 F420
G161 X Y F3300
M190 S60 T0
M109 S200 T0
M109 S0 T1
G92 E.0000
;layer_count: 117
M108 T0
G1 X116.33 Y79.00 F4800
;preExtrude:0.20
;preExtruder0
M106 S255
G1 Z.200 F420
G1 X116.33 Y79.00 F4800
G1 X122.67 Y79.00 E.8097 F1200
G1 X148.00 Y98.00 E4.8538
G1 X148.00 Y141.00 E10.3457
G1 X72.00 Y141.00 E20.0524
G1 X72.00 Y98.00 E25.5443
;raft
;layer:0.30
;shell
G1 E20.5443 F2700
G1 Z.300 F420
G1 X80.60 Y102.30 F4200
G1 E25.5443 F2700
G1 X80.60 Y102.30 F4200
G1 X100.20 Y87.60 E26.7177 F600
G1 X119.80 Y87.60 E27.6564
G1 X139.40 Y102.30 E28.8299
G1 X139.40 Y132.40 E30.2715
G1 X80.60 Y132.40 E33.0877
G1 X80.60 Y102.30 E34.5293
G1 X80.20 Y102.10 F4200
G1 X100.07 Y87.20 E35.7188 F600
G1 X119.93 Y87.20 E36.6700
G1 X139.80 Y102.10 E37.8595
G1 X139.80 Y132.80 E39.3299
G1 X80.20 Y132.80 E42.1844
G1 X80.20 Y102.10 E43.6548
G1 X83.40 Y107.68 F4200
G1 X83.40 Y107.68
G1 X83.43 Y108.04 E43.6721 F600
G1 X83.51 Y108.38 E43.6888
G1 X83.64 Y108.71 E43.7058
G1 X83.84 Y109.03 E43.7239
G1 X84.31 Y109.49 E43.7554
G1 X84.62 Y109.69 E43.7730
G1 X84.96 Y109.82 E43.7905
G1 X85.29 Y109.90 E43.8067
G1 X85.65 Y109.93 E43.8240
G1 X86.01 Y109.90 E43.8413
G1 X86.35 Y109.82 E43.8581
G1 X86.67 Y109.69 E43.8746
G1 X86.99 Y109.49 E43.8927
G1 X87.46 Y109.02 E43.9245
G1 X87.66 Y108.70 E43.9426
G1 X87.79 Y108.37 E43.9596
G1 X87.87 Y108.04 E43.9758
G1 X87.90 Y107.68 E43.9931
G1 X87.87 Y107.32 E44.0104
G1 X87.79 Y106.98 E44.0272
G1 X87.66 Y106.65 E44.0442
G1 X87.47 Y106.35 E44.0612
G1 X87.24 Y106.09 E44.0778
G1 X86.97 Y105.86 E44.0948
G1 X86.65 Y105.66 E44.1129
G1 X86.03 Y105.46 E44.1441
G1 X85.65 Y105.43 E44.1623
G1 X85.27 Y105.46 E44.1806
G1 X84.65 Y105.66 E44.2118
G1 X84.32 Y105.86 E44.2303
G1 X84.06 Y106.09 E44.2469
G1 X83.83 Y106.36 E44.2639
G1 X83.64 Y106.66 E44.2809
G1 X83.51 Y106.99 E44.2979
G1 X83.43 Y107.33 E44.3146
G1 X83.40 Y107.68 E44.3314
G1 X83.80 Y107.68 F4200
G1 X83.82 Y107.97 E44.3453 F600
G1 X83.89 Y108.25 E44.3592
G1 X84.00 Y108.52 E44.3731
G1 X84.16 Y108.78 E44.3878
G1 X84.56 Y109.17 E44.4145
G1 X84.81 Y109.33 E44.4287
G1 X85.08 Y109.44 E44.4427
G1 X85.36 Y109.51 E44.4565
G1 X85.65 Y109.53 E44.4704
G1 X85.94 Y109.51 E44.4844
G1 X86.22 Y109.44 E44.4982
G1 X86.49 Y109.33 E44.5122
G1 X86.75 Y109.17 E44.5268
G1 X87.14 Y108.78 E44.5532
G1 X87.30 Y108.52 E44.5678
G1 X87.41 Y108.25 E44.5818
G1 X87.48 Y107.97 E44.5956
G1 X87.50 Y107.68 E44.6095
G1 X87.48 Y107.39 E44.6234
G1 X87.41 Y107.11 E44.6373
G1 X87.30 Y106.84 E44.6512
G1 X87.15 Y106.59 E44.6652
G1 X86.96 Y106.37 E44.6791
G1 X86.74 Y106.18 E44.6930
G1 X86.48 Y106.03 E44.7074
G1 X85.95 Y105.85 E44.7342
G1 X85.65 Y105.83 E44.7486
G1 X85.35 Y105.85 E44.7630
G1 X84.82 Y106.03 E44.7898
G1 X84.56 Y106.18 E44.8042
G1 X84.34 Y106.37 E44.8181
G1 X84.15 Y106.59 E44.8320
G1 X84.00 Y106.84 E44.8460
G1 X83.89 Y107.11 E44.8600
G1 X83.82 Y107.39 E44.8738
G1 X83.80 Y107.68 E44.8877
G1 X83.64 Y108.00 F4200
G1 X83.71 Y108.31
G1 X83.83 Y108.61
G1 X84.01 Y108.90
G1 X84.44 Y109.32
G1 X88.96 Y113.32
G1 X88.96 Y113.32
G1 X88.96 Y113.76 E44.9088 F600
G1 X89.01 Y114.18 E44.9291
G1 X89.11 Y114.59 E44.9493
G1 X89.25 Y114.97 E44.9687
G1 X89.45 Y115.36 E44.9897
G1 X89.67 Y115.69 E45.0086
G1 X89.95 Y116.02 E45.0294
G1 X90.25 Y116.30 E45.0490
G1 X90.59 Y116.55 E45.0692
G1 X90.96 Y116.76 E45.0896
G1 X91.34 Y116.92 E45.1094
G1 X91.75 Y117.04 E45.1298
G1 X92.15 Y117.11 E45.1493
G1 X92.57 Y117.13 E45.1694
G1 X92.99 Y117.10 E45.1896
G1 X93.40 Y117.03 E45.2095
G1 X93.80 Y116.90 E45.2296
G1 X94.19 Y116.74 E45.2498
G1 X94.55 Y116.52 E45.2700
G1 X94.88 Y116.27 E45.2899
G1 X95.19 Y115.98 E45.3102
G1 X95.45 Y115.66 E45.3299
G1 X95.68 Y115.32 E45.3496
G1 X95.87 Y114.93 E45.3704
G1 X96.01 Y114.53 E45.3907
G1 X96.10 Y114.13 E45.4103
G1 X96.14 Y113.72 E45.4301
G1 X96.14 Y113.30 E45.4502
G1 X96.09 Y112.88 E45.4704
G1 X95.99 Y112.47 E45.4906
G1 X95.85 Y112.08 E45.5105
G1 X95.66 Y111.72 E45.5300
G1 X95.42 Y111.35 E45.5511
G1 X95.15 Y111.04 E45.5708
G1 X94.85 Y110.76 E45.5904
G1 X94.51 Y110.51 E45.6107
G1 X94.14 Y110.30 E45.6310
G1 X93.76 Y110.14 E45.6508
G1 X93.35 Y110.02 E45.6712
G1 X92.95 Y109.95 E45.6907
G1 X92.53 Y109.93 E45.7108
G1 X92.11 Y109.96 E45.7310
G1 X91.69 Y110.03 E45.7514
G1 X91.29 Y110.16 E45.7715
G1 X90.92 Y110.32 E45.7908
G1 X90.55 Y110.54 E45.8115
G1 X90.22 Y110.79 E45.8313
G1 X89.91 Y111.08 E45.8516
G1 X89.65 Y111.40 E45.8714
G1 X89.42 Y111.76 E45.8918
G1 X89.23 Y112.13 E45.9117
G1 X89.10 Y112.52 E45.9314
G1 X89.00 Y112.92 E45.9512
G1 X88.96 Y113.32 E45.9704
G1 X89.36 Y113.34 F4200
G1 X89.36 Y113.74 E45.9896 F600
G1 X89.40 Y114.11 E46.0074
G1 X89.49 Y114.47 E46.0252
G1 X89.62 Y114.82 E46.0431
G1 X89.79 Y115.15 E46.0608
G1 X90.00 Y115.46 E46.0788
G1 X90.24 Y115.74 E46.0964
G1 X90.51 Y116.00 E46.1144
G1 X90.81 Y116.21 E46.1319
G1 X91.13 Y116.40 E46.1498
G1 X91.48 Y116.54 E46.1678
G1 X91.83 Y116.65 E46.1854
G1 X92.20 Y116.71 E46.2033
G1 X92.57 Y116.73 E46.2211
G1 X92.94 Y116.71 E46.2388
G1 X93.31 Y116.64 E46.2569
G1 X93.67 Y116.53 E46.2749
G1 X94.01 Y116.38 E46.2927
G1 X94.33 Y116.19 E46.3105
G1 X94.62 Y115.97 E46.3280
G1 X94.89 Y115.71 E46.3459
G1 X95.13 Y115.42 E46.3639
G1 X95.33 Y115.11 E46.3816
G1 X95.50 Y114.78 E46.3994
G1 X95.62 Y114.43 E46.4171
G1 X95.70 Y114.06 E46.4352
G1 X95.74 Y113.69 E46.4531
G1 X95.74 Y113.32 E46.4708
G1 X95.70 Y112.95 E46.4886
G1 X95.61 Y112.59 E46.5064
G1 X95.48 Y112.24 E46.5243
G1 X95.31 Y111.91 E46.5420
G1 X95.10 Y111.60 E46.5600
G1 X94.86 Y111.32 E46.5776
G1 X94.59 Y111.07 E46.5953
G1 X94.29 Y110.85 E46.6131
G1 X93.97 Y110.66 E46.6309
G1 X93.62 Y110.52 E46.6490
G1 X93.27 Y110.41 E46.6665
G1 X92.90 Y110.35 E46.6845
G1 X92.53 Y110.33 E46.7022
G1 X92.16 Y110.35 E46.7200
G1 X91.79 Y110.42 E46.7380
G1 X91.44 Y110.53 E46.7556
G1 X91.09 Y110.68 E46.7738
G1 X90.77 Y110.87 E46.7916
G1 X90.48 Y111.09 E46.8091
G1 X90.21 Y111.35 E46.8270
G1 X89.97 Y111.64 E46.8450
G1 X89.77 Y111.95 E46.8627
G1 X89.60 Y112.28 E46.8805
G1 X89.48 Y112.63 E46.8982
G1 X89.40 Y113.00 E46.9163
G1 X89.36 Y113.34 E46.9327
G1 X84.21 Y117.94 F4200
G1 X84.00 Y118.18
G1 X83.40 Y119.38
G1 X83.40 Y119.38
G1 X83.43 Y119.74 E46.9500 F600
G1 X83.51 Y120.08 E46.9668
G1 X83.64 Y120.41 E46.9838
G1 X83.83 Y120.71 E47.0008
G1 X84.06 Y120.98 E47.0178
G1 X84.33 Y121.20 E47.0344
G1 X84.63 Y121.39 E47.0514
G1 X84.96 Y121.52 E47.0684
G1 X85.29 Y121.60 E47.0847
G1 X85.65 Y121.63 E47.1020
G1 X86.01 Y121.60 E47.1193
G1 X86.35 Y121.52 E47.1360
G1 X86.67 Y121.39 E47.1526
G1 X86.98 Y121.20 E47.1700
G1 X87.25 Y120.97 E47.1870
G1 X87.47 Y120.70 E47.2036
G1 X87.66 Y120.41 E47.2203
G1 X87.79 Y120.07 E47.2377
G1 X87.87 Y119.74 E47.2539
G1 X87.90 Y119.38 E47.2713
G1 X87.87 Y119.02 E47.2886
G1 X87.79 Y118.68 E47.3053
G1 X87.66 Y118.35 E47.3223
G1 X87.47 Y118.05 E47.3393
G1 X87.24 Y117.79 E47.3559
G1 X86.97 Y117.56 E47.3729
G1 X86.65 Y117.36 E47.3910
G1 X86.03 Y117.16 E47.4222
G1 X85.65 Y117.13 E47.4404
G1 X85.27 Y117.16 E47.4587
G1 X84.65 Y117.36 E47.4899
G1 X84.32 Y117.56 E47.5084
G1 X84.06 Y117.79 E47.5250
G1 X83.83 Y118.06 E47.5420
G1 X83.64 Y118.35 E47.5586
G1 X83.51 Y118.69 E47.5760
G1 X83.43 Y119.03 E47.5928
G1 X83.40 Y119.38 E47.6096
G1 X83.80 Y119.38 F4200
G1 X83.82 Y119.67 E47.6235 F600
G1 X83.89 Y119.95 E47.6373
G1 X84.00 Y120.22 E47.6513
G1 X84.15 Y120.47 E47.6653
G1 X84.34 Y120.69 E47.6792
G1 X84.56 Y120.88 E47.6931
G1 X84.81 Y121.03 E47.7071
G1 X85.08 Y121.14 E47.7210
G1 X85.36 Y121.21 E47.7348
G1 X85.65 Y121.23 E47.7488
G1 X85.94 Y121.21 E47.7627
G1 X86.22 Y121.14 E47.7765
G1 X86.49 Y121.03 E47.7905
G1 X86.74 Y120.88 E47.8044
G1 X86.96 Y120.69 E47.8184
G1 X87.15 Y120.47 E47.8323
G1 X87.30 Y120.22 E47.8463
G1 X87.41 Y119.95 E47.8602
G1 X87.48 Y119.67 E47.8740
G1 X87.50 Y119.38 E47.8880
G1 X87.48 Y119.09 E47.9019
G1 X87.41 Y118.81 E47.9157
G1 X87.30 Y118.54 E47.9297
G1 X87.15 Y118.29 E47.9436
G1 X86.96 Y118.07 E47.9576
G1 X86.74 Y117.88 E47.9715
G1 X86.48 Y117.73 E47.9859
G1 X85.95 Y117.55 E48.0127
G1 X85.65 Y117.53 E48.0271
G1 X85.35 Y117.55 E48.0415
G1 X84.82 Y117.73 E48.0683
G1 X84.56 Y117.88 E48.0827
G1 X84.34 Y118.07 E48.0966
G1 X84.15 Y118.29 E48.1105
G1 X84.00 Y118.54 E48.1245
G1 X83.89 Y118.81 E48.1384
G1 X83.82 Y119.09 E48.1522
G1 X83.80 Y119.38 E48.1662
G1 X84.02 Y128.66 F4200
G1 X84.02 Y128.66
G1 X84.05 Y129.04 E48.1844 F600
G1 X84.25 Y129.66 E48.2156
G1 X84.46 Y129.99 E48.2344
G1 X84.71 Y130.27 E48.2523
G1 X85.23 Y130.65 E48.2832
G1 X85.62 Y130.80 E48.3032
G1 X86.25 Y130.90 E48.3338
G1 X86.66 Y130.87 E48.3534
G1 X87.28 Y130.67 E48.3846
G1 X87.61 Y130.46 E48.4034
G1 X87.89 Y130.21 E48.4214
G1 X88.27 Y129.69 E48.4522
G1 X88.43 Y129.30 E48.4724
G1 X88.52 Y128.67 E48.5029
G1 X88.49 Y128.26 E48.5226
G1 X88.29 Y127.64 E48.5538
G1 X88.08 Y127.31 E48.5725
G1 X87.83 Y127.03 E48.5905
G1 X87.31 Y126.65 E48.6213
G1 X86.92 Y126.49 E48.6415
G1 X86.29 Y126.40 E48.6720
G1 X85.88 Y126.43 E48.6917
G1 X85.26 Y126.63 E48.7229
G1 X84.93 Y126.84 E48.7416
G1 X84.65 Y127.09 E48.7596
G1 X84.27 Y127.61 E48.7904
G1 X84.12 Y127.98 E48.8096
G1 X84.05 Y128.31 E48.8257
G1 X84.02 Y128.66 E48.8425
G1 X84.42 Y128.65 F4200
G1 X84.45 Y128.96 E48.8575 F600
G1 X84.62 Y129.49 E48.8841
G1 X84.78 Y129.75 E48.8987
G1 X84.98 Y129.97 E48.9130
G1 X85.42 Y130.30 E48.9393
G1 X85.72 Y130.42 E48.9548
G1 X86.26 Y130.50 E48.9809
G1 X86.58 Y130.47 E48.9963
G1 X87.11 Y130.30 E49.0230
G1 X87.37 Y130.13 E49.0379
G1 X87.59 Y129.94 E49.0518
G1 X87.92 Y129.50 E49.0781
G1 X88.04 Y129.20 E49.0936
G1 X88.12 Y128.66 E49.1198
G1 X88.09 Y128.34 E49.1352
G1 X87.92 Y127.81 E49.1618
G1 X87.76 Y127.55 E49.1764
G1 X87.56 Y127.33 E49.1907
G1 X87.12 Y127.00 E49.2170
G1 X86.82 Y126.88 E49.2325
G1 X86.28 Y126.80 E49.2586
G1 X85.96 Y126.83 E49.2740
G1 X85.43 Y127.00 E49.3007
G1 X85.17 Y127.16 E49.3153
G1 X84.95 Y127.36 E49.3295
G1 X84.62 Y127.80 E49.3559
G1 X84.51 Y128.10 E49.3712
G1 X84.44 Y128.38 E49.3850
G1 X84.42 Y128.65 E49.3980
G1 X84.25 Y128.35 F4200
G1 X84.33 Y128.04
G1 X84.46 Y127.71
G1 X84.81 Y127.23
G1 X85.06 Y127.01
G1 X85.35 Y126.83
G1 X114.41 Y113.27
G1 X114.41 Y113.27
G1 X114.41 Y113.81 E49.4238 F600
G1 X114.45 Y114.30 E49.4474
G1 X114.55 Y114.81 E49.4723
G1 X114.68 Y115.29 E49.4961
G1 X114.86 Y115.75 E49.5198
G1 X115.09 Y116.22 E49.5448
G1 X115.34 Y116.63 E49.5678
G1 X115.64 Y117.04 E49.5922
G1 X115.98 Y117.42 E49.6166
G1 X116.34 Y117.76 E49.6403
G1 X116.74 Y118.08 E49.6648
G1 X117.15 Y118.35 E49.6883
G1 X117.59 Y118.59 E49.7123
G1 X118.06 Y118.78 E49.7366
G1 X118.53 Y118.93 E49.7603
G1 X119.03 Y119.04 E49.7848
G1 X119.53 Y119.11 E49.8090
G1 X120.03 Y119.13 E49.8329
G1 X120.53 Y119.10 E49.8569
G1 X121.03 Y119.03 E49.8811
G1 X121.51 Y118.92 E49.9047
G1 X121.99 Y118.76 E49.9289
G1 X122.46 Y118.56 E49.9534
G1 X122.89 Y118.32 E49.9770
G1 X123.32 Y118.04 E50.0015
G1 X123.71 Y117.73 E50.0254
G1 X124.07 Y117.38 E50.0494
G1 X124.40 Y117.00 E50.0735
G1 X124.69 Y116.58 E50.0980
G1 X124.94 Y116.16 E50.1214
G1 X125.16 Y115.70 E50.1458
G1 X125.34 Y115.23 E50.1699
G1 X125.46 Y114.75 E50.1936
G1 X125.55 Y114.25 E50.2180
G1 X125.60 Y113.76 E50.2415
G1 X125.59 Y113.24 E50.2665
G1 X125.55 Y112.76 E50.2895
G1 X125.45 Y112.25 E50.3144
G1 X125.32 Y111.77 E50.3382
G1 X125.14 Y111.30 E50.3623
G1 X124.92 Y110.84 E50.3868
G1 X124.66 Y110.43 E50.4100
G1 X124.36 Y110.02 E50.4343
G1 X124.03 Y109.64 E50.4585
G1 X123.66 Y109.30 E50.4825
G1 X123.26 Y108.98 E50.5071
G1 X122.85 Y108.71 E50.5306
G1 X122.41 Y108.47 E50.5546
G1 X121.94 Y108.28 E50.5788
G1 X121.47 Y108.13 E50.6025
G1 X120.97 Y108.02 E50.6270
G1 X120.47 Y107.95 E50.6512
G1 X119.97 Y107.93 E50.6751
G1 X119.47 Y107.96 E50.6991
G1 X118.97 Y108.03 E50.7233
G1 X118.49 Y108.14 E50.7469
G1 X118.01 Y108.30 E50.7711
G1 X117.54 Y108.50 E50.7956
G1 X117.10 Y108.74 E50.8196
G1 X116.69 Y109.01 E50.8431
G1 X116.29 Y109.34 E50.8680
G1 X115.94 Y109.68 E50.8913
G1 X115.61 Y110.06 E50.9154
G1 X115.31 Y110.47 E50.9398
G1 X115.05 Y110.91 E50.9642
G1 X114.84 Y111.35 E50.9876
G1 X114.66 Y111.83 E51.0121
G1 X114.54 Y112.31 E51.0358
G1 X114.45 Y112.81 E51.0602
G1 X114.41 Y113.27 E51.0823
G1 X114.81 Y113.30 F4200
G1 X114.81 Y113.79 E51.1057 F600
G1 X114.85 Y114.26 E51.1283
G1 X114.94 Y114.71 E51.1503
G1 X115.06 Y115.16 E51.1726
G1 X115.23 Y115.60 E51.1952
G1 X115.43 Y116.02 E51.2175
G1 X115.68 Y116.42 E51.2401
G1 X115.95 Y116.79 E51.2620
G1 X116.26 Y117.14 E51.2844
G1 X116.60 Y117.46 E51.3068
G1 X116.97 Y117.75 E51.3293
G1 X117.36 Y118.01 E51.3518
G1 X117.77 Y118.23 E51.3740
G1 X118.20 Y118.41 E51.3964
G1 X118.64 Y118.55 E51.4185
G1 X119.10 Y118.65 E51.4410
G1 X119.56 Y118.71 E51.4632
G1 X120.03 Y118.73 E51.4858
G1 X120.49 Y118.71 E51.5078
G1 X120.96 Y118.64 E51.5306
G1 X121.41 Y118.54 E51.5527
G1 X121.85 Y118.39 E51.5749
G1 X122.28 Y118.20 E51.5974
G1 X122.69 Y117.98 E51.6197
G1 X123.08 Y117.72 E51.6422
G1 X123.44 Y117.43 E51.6643
G1 X123.78 Y117.10 E51.6870
G1 X124.08 Y116.75 E51.7091
G1 X124.35 Y116.37 E51.7314
G1 X124.59 Y115.97 E51.7538
G1 X124.79 Y115.55 E51.7760
G1 X124.95 Y115.11 E51.7985
G1 X125.07 Y114.66 E51.8208
G1 X125.15 Y114.20 E51.8431
G1 X125.20 Y113.74 E51.8653
G1 X125.19 Y113.27 E51.8878
G1 X125.15 Y112.81 E51.9099
G1 X125.06 Y112.35 E51.9324
G1 X124.94 Y111.90 E51.9547
G1 X124.77 Y111.46 E51.9773
G1 X124.57 Y111.04 E51.9995
G1 X124.32 Y110.64 E52.0221
G1 X124.05 Y110.27 E52.0441
G1 X123.74 Y109.92 E52.0665
G1 X123.40 Y109.60 E52.0888
G1 X123.03 Y109.31 E52.1114
G1 X122.64 Y109.05 E52.1338
G1 X122.23 Y108.83 E52.1561
G1 X121.80 Y108.65 E52.1784
G1 X121.36 Y108.51 E52.2005
G1 X120.90 Y108.41 E52.2231
G1 X120.44 Y108.35 E52.2453
G1 X119.97 Y108.33 E52.2678
G1 X119.51 Y108.35 E52.2899
G1 X119.04 Y108.42 E52.3126
G1 X118.59 Y108.53 E52.3348
G1 X118.15 Y108.67 E52.3569
G1 X117.72 Y108.86 E52.3794
G1 X117.31 Y109.08 E52.4017
G1 X116.92 Y109.34 E52.4242
G1 X116.56 Y109.63 E52.4463
G1 X116.22 Y109.96 E52.4690
G1 X115.92 Y110.31 E52.4911
G1 X115.65 Y110.69 E52.5134
G1 X115.41 Y111.09 E52.5358
G1 X115.21 Y111.51 E52.5580
G1 X115.05 Y111.95 E52.5805
G1 X114.93 Y112.40 E52.6028
G1 X114.85 Y112.86 E52.6251
G1 X114.81 Y113.30 E52.6463
G1 X104.86 Y102.50 F4200
G1 X104.62 Y102.22
G1 X104.03 Y101.00
G1 X104.03 Y101.00
G1 X104.06 Y101.40 E52.6655 F600
G1 X104.15 Y101.77 E52.6837
G1 X104.44 Y102.34 E52.7144
G1 X104.72 Y102.65 E52.7344
G1 X105.24 Y103.03 E52.7652
G1 X105.63 Y103.19 E52.7854
G1 X106.26 Y103.28 E52.8159
G1 X106.67 Y103.25 E52.8356
G1 X107.29 Y103.05 E52.8668
G1 X107.62 Y102.84 E52.8855
G1 X107.90 Y102.60 E52.9032
G1 X108.28 Y102.07 E52.9344
G1 X108.44 Y101.68 E52.9546
G1 X108.53 Y101.05 E52.9851
G1 X108.50 Y100.66 E53.0038
G1 X108.41 Y100.29 E53.0221
G1 X108.12 Y99.72 E53.0527
G1 X107.84 Y99.41 E53.0727
G1 X107.32 Y99.03 E53.1036
G1 X106.95 Y98.88 E53.1227
G1 X106.59 Y98.80 E53.1403
G1 X105.95 Y98.80 E53.1710
G1 X105.55 Y98.90 E53.1907
G1 X104.97 Y99.19 E53.2218
G1 X104.66 Y99.47 E53.2418
G1 X104.28 Y99.99 E53.2727
G1 X104.12 Y100.38 E53.2928
G1 X104.03 Y101.00 E53.3229
G1 X104.43 Y101.02 F4200
G1 X104.46 Y101.34 E53.3382 F600
G1 X104.53 Y101.63 E53.3525
G1 X104.78 Y102.11 E53.3785
G1 X104.99 Y102.36 E53.3941
G1 X105.43 Y102.68 E53.4202
G1 X105.73 Y102.80 E53.4356
G1 X106.27 Y102.88 E53.4618
G1 X106.59 Y102.85 E53.4772
G1 X107.12 Y102.68 E53.5038
G1 X107.38 Y102.52 E53.5184
G1 X107.60 Y102.32 E53.5327
G1 X107.93 Y101.88 E53.5590
G1 X108.05 Y101.58 E53.5745
G1 X108.13 Y101.04 E53.6006
G1 X108.10 Y100.72 E53.6160
G1 X108.03 Y100.44 E53.6299
G1 X107.78 Y99.95 E53.6562
G1 X107.57 Y99.71 E53.6715
G1 X107.13 Y99.38 E53.6978
G1 X106.83 Y99.27 E53.7131
G1 X106.55 Y99.20 E53.7270
G1 X106.00 Y99.20 E53.7533
G1 X105.69 Y99.28 E53.7686
G1 X105.20 Y99.53 E53.7950
G1 X104.96 Y99.74 E53.8103
G1 X104.63 Y100.18 E53.8366
