;generated by ffslicer 1.30.3 09/07/23 15:19:24
;right_extruder_material: PLA
;layer_height: 0.2
;perimeter_shells: 2
;top_solid_layers: 4
;bottom_solid_layers: 3
;fill_density: 15%
;fill_pattern: hexagon
;base_print_speed: 50
;travel_speed: 80
;right_extruder_temperature: 200
;left_extruder_temperature: 0
;platform_temperature: 60
;right_extruder_temperature_raft0: 0
;left_extruder_temperature_raft0: 0
;right_extruder_temperature_reset: 
;left_extruder_temperature_reset: 
;start gcode
M140 S60 T0
M104 S200 T0
M104 S0 T1
G90
G28
G1 Z50.000 F420
G161 X Y F3300
M190 S60 T0
M109 S200 T0
M109 S0 T1
G92 E.0000
;layer_count: 31
M108 T0
G1 X85.00 Y85.00 F4800
;preExtrude:0.20
;preExtruder0
M106 S255
G1 Z.200 F420
G1 X85.00 Y85.00 F4800
G1 X135.00 Y85.00 E6.3859 F1200
G1 X135.00 Y135.00 E12.7719
G1 X85.00 Y135.00 E19.1578
G1 X85.00 Y85.00 E25.5438
;raft
;layer:0.30
;shell
G1 E20.5438 F2700
G1 Z.300 F420
G1 X103.10 Y109.80 F4200
G1 E25.5438 F2700
G1 X103.10 Y109.80 F4200
G1 X103.14 Y109.25 E25.5702 F600
G1 X103.22 Y108.72 E25.5959
G1 X103.34 Y108.21 E25.6210
G1 X103.50 Y107.70 E25.6466
G1 X103.71 Y107.18 E25.6734
G1 X103.94 Y106.71 E25.6985
G1 X104.21 Y106.24 E25.7244
G1 X104.53 Y105.80 E25.7505
G1 X104.86 Y105.39 E25.7757
G1 X105.23 Y105.01 E25.8011
G1 X105.65 Y104.64 E25.8279
G1 X106.08 Y104.32 E25.8536
G1 X106.52 Y104.04 E25.8786
G1 X107.02 Y103.78 E25.9056
G1 X107.49 Y103.57 E25.9302
G1 X108.00 Y103.40 E25.9560
G1 X108.53 Y103.26 E25.9822
G1 X109.07 Y103.16 E26.0085
G1 X109.59 Y103.11 E26.0335
G1 X110.13 Y103.10 E26.0594
G1 X110.68 Y103.13 E26.0858
G1 X111.20 Y103.21 E26.1110
G1 X111.74 Y103.32 E26.1374
G1 X112.25 Y103.48 E26.1630
G1 X112.74 Y103.67 E26.1881
G1 X113.24 Y103.91 E26.2147
G1 X113.68 Y104.17 E26.2392
G1 X114.15 Y104.49 E26.2664
G1 X114.56 Y104.82 E26.2916
G1 X114.94 Y105.19 E26.3170
G1 X115.31 Y105.60 E26.3435
G1 X115.64 Y106.02 E26.3691
G1 X115.93 Y106.47 E26.3947
G1 X116.19 Y106.95 E26.4209
G1 X116.41 Y107.44 E26.4466
G1 X116.59 Y107.94 E26.4720
G1 X116.72 Y108.45 E26.4972
G1 X116.83 Y109.00 E26.5241
G1 X116.88 Y109.53 E26.5496
G1 X116.90 Y110.06 E26.5750
G1 X116.87 Y110.60 E26.6009
G1 X116.81 Y111.13 E26.6264
G1 X116.69 Y111.68 E26.6534
G1 X116.55 Y112.18 E26.6783
G1 X116.35 Y112.69 E26.7045
G1 X116.13 Y113.16 E26.7294
G1 X115.86 Y113.64 E26.7557
G1 X115.55 Y114.10 E26.7823
G1 X115.23 Y114.50 E26.8068
G1 X114.86 Y114.90 E26.8329
G1 X114.46 Y115.27 E26.8590
G1 X114.04 Y115.59 E26.8843
G1 X113.57 Y115.90 E26.9113
G1 X113.12 Y116.16 E26.9362
G1 X112.62 Y116.38 E26.9623
G1 X112.13 Y116.56 E26.9874
G1 X111.59 Y116.71 E27.0142
G1 X111.08 Y116.81 E27.0391
G1 X110.54 Y116.88 E27.0652
G1 X110.00 Y116.90 E27.0910
G1 X109.46 Y116.88 E27.1169
G1 X108.93 Y116.81 E27.1425
G1 X108.41 Y116.71 E27.1679
G1 X107.87 Y116.56 E27.1947
G1 X107.38 Y116.38 E27.2197
G1 X106.88 Y116.16 E27.2459
G1 X106.43 Y115.90 E27.2708
G1 X105.96 Y115.59 E27.2978
G1 X105.54 Y115.27 E27.3230
G1 X105.14 Y114.90 E27.3491
G1 X104.77 Y114.50 E27.3752
G1 X104.45 Y114.10 E27.3998
G1 X104.14 Y113.64 E27.4263
G1 X103.87 Y113.16 E27.4527
G1 X103.65 Y112.69 E27.4776
G1 X103.45 Y112.18 E27.5038
G1 X103.31 Y111.68 E27.5287
G1 X103.19 Y111.13 E27.5556
G1 X103.13 Y110.62 E27.5802
G1 X103.10 Y109.80 E27.6195
G1 X102.70 Y109.79 F4200
G1 X102.74 Y109.21 E27.6474 F600
G1 X102.83 Y108.65 E27.6745
G1 X102.95 Y108.11 E27.7010
G1 X103.12 Y107.56 E27.7286
G1 X103.34 Y107.02 E27.7565
G1 X103.58 Y106.52 E27.7831
G1 X103.88 Y106.02 E27.8110
G1 X104.20 Y105.56 E27.8379
G1 X104.57 Y105.12 E27.8654
G1 X104.96 Y104.72 E27.8922
G1 X105.39 Y104.34 E27.9196
G1 X105.85 Y104.00 E27.9470
G1 X106.32 Y103.69 E27.9740
G1 X106.84 Y103.42 E28.0021
G1 X107.35 Y103.20 E28.0287
G1 X107.89 Y103.01 E28.0561
G1 X108.45 Y102.87 E28.0837
G1 X109.01 Y102.77 E28.1110
G1 X109.57 Y102.71 E28.1380
G1 X110.14 Y102.70 E28.1653
G1 X110.72 Y102.74 E28.1931
G1 X111.28 Y102.81 E28.2201
G1 X111.83 Y102.93 E28.2471
G1 X112.39 Y103.10 E28.2751
G1 X112.90 Y103.30 E28.3014
G1 X113.42 Y103.55 E28.3290
G1 X113.91 Y103.84 E28.3563
G1 X114.39 Y104.17 E28.3842
G1 X114.82 Y104.52 E28.4107
G1 X115.23 Y104.91 E28.4378
G1 X115.62 Y105.34 E28.4656
G1 X115.96 Y105.79 E28.4926
G1 X116.27 Y106.26 E28.5196
G1 X116.55 Y106.78 E28.5479
G1 X116.78 Y107.30 E28.5751
G1 X116.97 Y107.82 E28.6016
G1 X117.12 Y108.37 E28.6289
G1 X117.22 Y108.94 E28.6567
G1 X117.28 Y109.50 E28.6836
G1 X117.30 Y110.06 E28.7105
G1 X117.27 Y110.65 E28.7388
G1 X117.20 Y111.20 E28.7653
G1 X117.08 Y111.77 E28.7932
G1 X116.92 Y112.31 E28.8202
G1 X116.72 Y112.84 E28.8473
G1 X116.49 Y113.35 E28.8741
G1 X116.20 Y113.85 E28.9018
G1 X115.88 Y114.33 E28.9294
G1 X115.52 Y114.77 E28.9567
G1 X115.14 Y115.18 E28.9834
G1 X114.72 Y115.57 E29.0109
G1 X114.27 Y115.92 E29.0382
G1 X113.79 Y116.24 E29.0658
G1 X113.29 Y116.51 E29.0930
G1 X112.78 Y116.75 E29.1200
G1 X112.24 Y116.95 E29.1476
G1 X111.69 Y117.10 E29.1749
G1 X111.14 Y117.21 E29.2018
G1 X110.57 Y117.28 E29.2293
G1 X110.00 Y117.30 E29.2566
G1 X109.43 Y117.28 E29.2839
G1 X108.86 Y117.21 E29.3114
G1 X108.31 Y117.10 E29.3383
G1 X107.76 Y116.95 E29.3656
G1 X107.22 Y116.75 E29.3932
G1 X106.71 Y116.51 E29.4202
G1 X106.21 Y116.24 E29.4474
G1 X105.73 Y115.92 E29.4750
G1 X105.28 Y115.57 E29.5023
G1 X104.86 Y115.18 E29.5298
G1 X104.48 Y114.77 E29.5565
G1 X104.12 Y114.33 E29.5838
G1 X103.80 Y113.85 E29.6114
G1 X103.51 Y113.35 E29.6391
G1 X103.28 Y112.84 E29.6659
G1 X103.08 Y112.31 E29.6930
G1 X102.92 Y111.77 E29.7200
G1 X102.80 Y111.20 E29.7479
G1 X102.73 Y110.65 E29.7744
G1 X102.70 Y109.79 E29.8157
G1 X107.75 Y109.83 F4200
G1 X107.75 Y109.83
G1 X107.81 Y110.55 E29.8503 F600
G1 X108.02 Y111.08 E29.8776
G1 X108.35 Y111.53 E29.9043
G1 X108.77 Y111.89 E29.9308
G1 X109.28 Y112.13 E29.9578
G1 X109.82 Y112.25 E29.9843
G1 X110.38 Y112.22 E30.0111
G1 X110.91 Y112.06 E30.0376
G1 X111.39 Y111.78 E30.0643
G1 X111.78 Y111.38 E30.0910
G1 X112.07 Y110.90 E30.1179
G1 X112.22 Y110.37 E30.1443
G1 X112.25 Y109.81 E30.1711
G1 X112.13 Y109.26 E30.1981
G1 X111.88 Y108.76 E30.2249
G1 X111.52 Y108.34 E30.2513
G1 X111.07 Y108.02 E30.2778
G1 X110.55 Y107.81 E30.3047
G1 X109.99 Y107.75 E30.3316
G1 X109.44 Y107.82 E30.3582
G1 X108.92 Y108.02 E30.3849
G1 X108.47 Y108.35 E30.4116
G1 X108.11 Y108.77 E30.4381
G1 X107.87 Y109.27 E30.4647
G1 X107.75 Y109.83 E30.4921
G1 X108.15 Y109.86 F4200
G1 X108.20 Y110.46 E30.5209 F600
G1 X108.37 Y110.89 E30.5431
G1 X108.64 Y111.26 E30.5650
G1 X108.99 Y111.55 E30.5868
G1 X109.40 Y111.75 E30.6086
G1 X109.85 Y111.85 E30.6307
G1 X110.31 Y111.83 E30.6527
G1 X110.75 Y111.69 E30.6749
G1 X111.14 Y111.46 E30.6965
G1 X111.47 Y111.13 E30.7189
G1 X111.70 Y110.74 E30.7406
G1 X111.83 Y110.30 E30.7626
G1 X111.85 Y109.84 E30.7846
G1 X111.75 Y109.39 E30.8067
G1 X111.55 Y108.98 E30.8285
G1 X111.25 Y108.63 E30.8506
G1 X110.88 Y108.37 E30.8723
G1 X110.45 Y108.20 E30.8944
G1 X110.00 Y108.15 E30.9161
G1 X109.54 Y108.21 E30.9383
G1 X109.11 Y108.37 E30.9603
G1 X108.74 Y108.64 E30.9822
G1 X108.45 Y108.99 E31.0040
G1 X108.25 Y109.40 E31.0259
G1 X108.15 Y109.86 E31.0484
;infill
G1 X108.02 Y110.50 F4200
G1 X108.79 Y112.28
G1 X108.79 Y112.28
G1 X112.55 Y116.04 E31.3031 F600
G1 X112.95 Y115.86 E31.3241
G1 X109.65 Y112.55 E31.5479
G1 X109.81 Y112.59 E31.5558
G1 X110.24 Y112.57 E31.5765
G1 X113.32 Y115.65 E31.7851
G1 X113.67 Y115.42 E31.8051
G1 X110.72 Y112.47 E32.0050
G1 X111.05 Y112.38 E32.0213
G1 X111.15 Y112.32 E32.0269
G1 X114.01 Y115.18 E32.2206
G1 X114.33 Y114.92 E32.2404
G1 X111.51 Y112.10 E32.4314
G1 X111.82 Y111.83 E32.4511
G1 X114.63 Y114.64 E32.6414
G1 X114.91 Y114.34 E32.6611
G1 X112.09 Y111.53 E32.8517
G1 X112.30 Y111.16 E32.8721
G1 X115.17 Y114.03 E33.0665
G1 X115.41 Y113.69 E33.0864
G1 X112.47 Y110.74 E33.2859
G1 X112.56 Y110.42 E33.3018
G1 X112.57 Y110.27 E33.3090
G1 X115.64 Y113.34 E33.5170
G1 X115.85 Y112.97 E33.5373
G1 X112.57 Y109.69 E33.7595
G1 X114.99 Y105.75 F4200
G1 X114.99 Y105.75
G1 X114.25 Y105.01 E33.8096 F600
G1 X113.95 Y104.76 E33.8283
G1 X113.52 Y104.47 E33.8532
G1 X113.06 Y104.20 E33.8787
G1 X112.68 Y104.01 E33.8991
G1 X115.97 Y107.31 E34.1223
G1 X116.18 Y107.81 E34.1482
G1 X116.30 Y108.21 E34.1682
G1 X111.77 Y103.69 E34.4747
G1 X111.65 Y103.65 E34.4808
G1 X111.03 Y103.52 E34.5111
G1 X116.47 Y108.97 E34.8799
G1 X116.54 Y109.62 E34.9112
G1 X110.38 Y103.46 E35.3285
G1 X109.80 Y103.45 E35.3563
G1 X116.55 Y110.20 E35.8135
G1 X116.51 Y110.74 E35.8394
G1 X109.26 Y103.49 E36.3305
G1 X108.76 Y103.56 E36.3546
G1 X116.43 Y111.24 E36.8745
G1 X116.33 Y111.71 E36.8975
G1 X108.29 Y103.67 E37.4421
G1 X107.84 Y103.81 E37.4646
G1 X116.19 Y112.15 E38.0299
G1 X116.03 Y112.57 E38.0514
G1 X112.31 Y108.85 E38.3034
G1 X112.17 Y108.58 E38.3179
G1 X111.75 Y108.08 E38.3492
G1 X111.23 Y107.71 E38.3798
G1 X111.13 Y107.67 E38.3849
G1 X107.43 Y103.97 E38.6356
G1 X107.03 Y104.15 E38.6566
G1 X110.32 Y107.44 E38.8794
G1 X110.00 Y107.40 E38.8949
G1 X109.73 Y107.43 E38.9079
G1 X106.66 Y104.36 E39.1158
G1 X106.30 Y104.58 E39.1360
G1 X109.24 Y107.52 E39.3351
G1 X108.82 Y107.68 E39.3567
G1 X105.97 Y104.83 E39.5497
G1 X105.66 Y105.09 E39.5691
G1 X108.48 Y107.91 E39.7601
G1 X108.16 Y108.18 E39.7802
G1 X105.36 Y105.37 E39.9702
G1 X105.08 Y105.67 E39.9898
G1 X107.90 Y108.49 E40.1808
G1 X107.69 Y108.86 E40.2012
G1 X104.81 Y105.99 E40.3959
G1 X104.57 Y106.32 E40.4155
G1 X107.52 Y109.27 E40.6153
G1 X107.42 Y109.75 E40.6388
G1 X104.35 Y106.68 E40.8467
G1 X104.14 Y107.05 E40.8671
G1 X107.45 Y110.36 E41.0913
G1 X107.47 Y110.62 E41.1038
G1 X107.69 Y111.18 E41.1326
G1 X103.96 Y107.45 E41.3852
G1 X103.80 Y107.86 E41.4063
G1 X112.13 Y116.19 E41.9705
G1 X111.69 Y116.33 E41.9926
G1 X103.66 Y108.30 E42.5365
G1 X103.56 Y108.78 E42.5600
G1 X111.22 Y116.44 E43.0789
G1 X110.71 Y116.51 E43.1035
G1 X103.48 Y109.28 E43.5932
G1 X103.44 Y109.82 E43.6192
G1 X110.17 Y116.55 E44.0750
G1 X109.58 Y116.53 E44.1033
G1 X103.46 Y110.42 E44.5175
G1 X103.53 Y111.06 E44.5483
G1 X108.93 Y116.47 E44.9144
G1 X108.49 Y116.38 E44.9359
G1 X108.18 Y116.30 E44.9512
G1 X103.70 Y111.81 E45.2550
G1 X103.77 Y112.06 E45.2675
G1 X104.04 Y112.73 E45.3021
G1 X107.27 Y115.96 E45.5208
G1 X106.61 Y115.62 E45.5564
G1 X106.15 Y115.31 E45.5830
G1 X105.76 Y115.01 E45.6065
G1 X105.28 Y114.55 E45.6384
;percent
;layer:0.20
;shell
G1 Z.500 F420
G1 X103.10 Y109.80 F4800
G1 X103.10 Y109.80
G1 X103.14 Y109.25 E45.6560 F840
G1 X103.22 Y108.72 E45.6731
G1 X103.34 Y108.21 E45.6898
G1 X103.50 Y107.70 E45.7069
G1 X103.71 Y107.18 E45.7248
G1 X103.94 Y106.71 E45.7415
G1 X104.21 Y106.24 E45.7588
G1 X104.53 Y105.80 E45.7762
G1 X104.86 Y105.39 E45.7930
G1 X105.23 Y105.01 E45.8099
G1 X105.65 Y104.64 E45.8278
G1 X106.08 Y104.32 E45.8449
G1 X106.52 Y104.04 E45.8616
G1 X107.02 Y103.78 E45.8795
G1 X107.49 Y103.57 E45.8960
G1 X108.00 Y103.40 E45.9131
G1 X108.53 Y103.26 E45.9307
G1 X109.07 Y103.16 E45.9482
G1 X109.59 Y103.11 E45.9649
G1 X110.13 Y103.10 E45.9821
G1 X110.68 Y103.13 E45.9997
G1 X111.20 Y103.21 E46.0165
G1 X111.74 Y103.32 E46.0341
G1 X112.25 Y103.48 E46.0512
G1 X112.74 Y103.67 E46.0679
G1 X113.24 Y103.91 E46.0856
G1 X113.68 Y104.17 E46.1020
G1 X114.15 Y104.49 E46.1201
G1 X114.56 Y104.82 E46.1369
G1 X114.94 Y105.19 E46.1539
G1 X115.31 Y105.60 E46.1715
G1 X115.64 Y106.02 E46.1886
G1 X115.93 Y106.47 E46.2056
G1 X116.19 Y106.95 E46.2231
G1 X116.41 Y107.44 E46.2402
G1 X116.59 Y107.94 E46.2572
G1 X116.72 Y108.45 E46.2740
G1 X116.83 Y109.00 E46.2919
G1 X116.88 Y109.53 E46.3089
G1 X116.90 Y110.06 E46.3258
G1 X116.87 Y110.60 E46.3431
G1 X116.81 Y111.13 E46.3601
G1 X116.69 Y111.67 E46.3778
G1 X116.55 Y112.18 E46.3947
G1 X116.35 Y112.69 E46.4122
G1 X116.13 Y113.16 E46.4288
G1 X115.86 Y113.64 E46.4463
G1 X115.55 Y114.10 E46.4640
G1 X115.23 Y114.50 E46.4804
G1 X114.86 Y114.90 E46.4978
G1 X114.46 Y115.27 E46.5152
G1 X114.04 Y115.59 E46.5321
G1 X113.57 Y115.90 E46.5500
G1 X113.12 Y116.16 E46.5666
G1 X112.62 Y116.38 E46.5841
G1 X112.13 Y116.56 E46.6007
G1 X111.59 Y116.71 E46.6186
G1 X111.08 Y116.81 E46.6352
G1 X110.54 Y116.88 E46.6526
G1 X110.00 Y116.90 E46.6699
G1 X109.46 Y116.88 E46.6871
G1 X108.93 Y116.81 E46.7042
G1 X108.41 Y116.71 E46.7211
G1 X107.87 Y116.56 E46.7390
G1 X107.38 Y116.38 E46.7557
G1 X106.88 Y116.16 E46.7731
G1 X106.43 Y115.90 E46.7897
G1 X105.96 Y115.59 E46.8077
G1 X105.54 Y115.27 E46.8245
G1 X105.14 Y114.90 E46.8419
G1 X104.77 Y114.50 E46.8593
G1 X104.45 Y114.10 E46.8757
G1 X104.14 Y113.64 E46.8934
G1 X103.87 Y113.16 E46.9110
G1 X103.65 Y112.69 E46.9276
G1 X103.45 Y112.18 E46.9450
G1 X103.31 Y111.68 E46.9616
G1 X103.19 Y111.13 E46.9796
G1 X103.13 Y110.62 E46.9960
G1 X103.10 Y109.80 E47.0222
G1 X102.70 Y109.79 F4800
G1 X102.74 Y109.21 E47.0408 F840
G1 X102.83 Y108.65 E47.0589
G1 X102.95 Y108.11 E47.0765
G1 X103.12 Y107.56 E47.0949
G1 X103.34 Y107.02 E47.1135
G1 X103.58 Y106.52 E47.1312
G1 X103.88 Y106.02 E47.1499
G1 X104.20 Y105.56 E47.1677
G1 X104.57 Y105.12 E47.1861
G1 X104.96 Y104.72 E47.2039
G1 X105.39 Y104.34 E47.2223
G1 X105.85 Y104.00 E47.2405
G1 X106.32 Y103.69 E47.2585
G1 X106.84 Y103.42 E47.2772
G1 X107.35 Y103.20 E47.2949
G1 X107.89 Y103.01 E47.3132
G1 X108.45 Y102.87 E47.3316
G1 X109.01 Y102.77 E47.3498
G1 X109.57 Y102.71 E47.3678
G1 X110.14 Y102.70 E47.3860
G1 X110.72 Y102.74 E47.4046
G1 X111.28 Y102.81 E47.4226
G1 X111.83 Y102.93 E47.4406
G1 X112.39 Y103.10 E47.4592
G1 X112.90 Y103.30 E47.4767
G1 X113.42 Y103.55 E47.4952
G1 X113.91 Y103.84 E47.5133
G1 X114.39 Y104.17 E47.5319
G1 X114.82 Y104.52 E47.5496
G1 X115.23 Y104.91 E47.5677
G1 X115.62 Y105.34 E47.5862
G1 X115.96 Y105.79 E47.6042
G1 X116.27 Y106.26 E47.6222
G1 X116.55 Y106.78 E47.6411
G1 X116.78 Y107.30 E47.6592
G1 X116.97 Y107.82 E47.6769
G1 X117.12 Y108.37 E47.6951
G1 X117.22 Y108.94 E47.7136
G1 X117.28 Y109.50 E47.7316
G1 X117.30 Y110.06 E47.7495
G1 X117.27 Y110.65 E47.7683
G1 X117.20 Y111.20 E47.7860
G1 X117.08 Y111.77 E47.8046
G1 X116.92 Y112.31 E47.8226
G1 X116.72 Y112.84 E47.8407
G1 X116.49 Y113.35 E47.8586
G1 X116.20 Y113.85 E47.8770
G1 X115.88 Y114.33 E47.8954
G1 X115.52 Y114.77 E47.9136
G1 X115.14 Y115.18 E47.9314
G1 X114.72 Y115.57 E47.9497
G1 X114.27 Y115.92 E47.9679
G1 X113.79 Y116.24 E47.9864
G1 X113.29 Y116.51 E48.0045
G1 X112.78 Y116.75 E48.0225
G1 X112.24 Y116.95 E48.0409
G1 X111.69 Y117.10 E48.0591
G1 X111.14 Y117.21 E48.0770
G1 X110.57 Y117.28 E48.0953
G1 X110.00 Y117.30 E48.1135
G1 X109.43 Y117.28 E48.1318
G1 X108.86 Y117.21 E48.1501
G1 X108.31 Y117.10 E48.1680
G1 X107.76 Y116.95 E48.1862
G1 X107.22 Y116.75 E48.2046
G1 X106.71 Y116.51 E48.2226
G1 X106.21 Y116.24 E48.2407
G1 X105.73 Y115.92 E48.2592
G1 X105.28 Y115.57 E48.2774
G1 X104.86 Y115.18 E48.2957
G1 X104.48 Y114.77 E48.3135
G1 X104.12 Y114.33 E48.3317
G1 X103.80 Y113.85 E48.3501
G1 X103.51 Y113.35 E48.3685
G1 X103.28 Y112.84 E48.3864
G1 X103.08 Y112.31 E48.4045
G1 X102.92 Y111.77 E48.4225
G1 X102.80 Y111.20 E48.4411
G1 X102.73 Y110.65 E48.4588
G1 X102.70 Y109.79 E48.4862
G1 X107.75 Y109.85 F4800
G1 X107.75 Y109.85
G1 X107.81 Y110.56 E48.5090 F840
G1 X108.03 Y111.09 E48.5273
G1 X108.36 Y111.54 E48.5451
G1 X108.78 Y111.90 E48.5628
G1 X109.29 Y112.14 E48.5808
G1 X109.83 Y112.25 E48.5984
G1 X110.39 Y112.22 E48.6163
G1 X110.92 Y112.06 E48.6340
G1 X111.40 Y111.77 E48.6519
G1 X111.79 Y111.37 E48.6697
G1 X112.07 Y110.89 E48.6875
G1 X112.23 Y110.35 E48.7054
G1 X112.25 Y109.80 E48.7230
G1 X112.12 Y109.25 E48.7411
G1 X111.88 Y108.75 E48.7588
G1 X111.51 Y108.33 E48.7766
G1 X111.06 Y108.01 E48.7943
G1 X110.53 Y107.81 E48.8124
G1 X109.98 Y107.75 E48.8300
G1 X109.43 Y107.82 E48.8477
G1 X108.91 Y108.03 E48.8656
G1 X108.46 Y108.35 E48.8833
G1 X108.10 Y108.78 E48.9012
G1 X107.86 Y109.29 E48.9192
G1 X107.75 Y109.85 E48.9374
G1 X108.15 Y109.87 F4800
G1 X108.21 Y110.47 E48.9566 F840
G1 X108.38 Y110.90 E48.9714
G1 X108.65 Y111.27 E48.9860
G1 X109.00 Y111.56 E49.0005
G1 X109.41 Y111.76 E49.0151
G1 X109.86 Y111.85 E49.0298
G1 X110.32 Y111.82 E49.0445
G1 X110.76 Y111.69 E49.0591
G1 X111.15 Y111.45 E49.0738
G1 X111.47 Y111.12 E49.0884
G1 X111.70 Y110.73 E49.1029
G1 X111.83 Y110.29 E49.1175
G1 X111.84 Y109.83 E49.1322
G1 X111.75 Y109.38 E49.1469
G1 X111.54 Y108.97 E49.1616
G1 X111.24 Y108.63 E49.1761
G1 X110.87 Y108.36 E49.1907
G1 X110.44 Y108.20 E49.2053
