;generated by ffslicer 1.30.3 09/11/23 18:13:26
;right_extruder_material: PLA
;layer_height: 0.2
;perimeter_shells: 2
;top_solid_layers: 4
;bottom_solid_layers: 3
;fill_density: 15%
;fill_pattern: hexagon
;base_print_speed: 50
;travel_speed: 80
;right_extruder_temperature: 200
;left_extruder_temperature: 0
;platform_temperature: 60
;right_extruder_temperature_raft0: 0
;left_extruder_temperature_raft0: 0
;right_extruder_temperature_reset: 
;left_extruder_temperature_reset: 
;start gcode
M140 S60 T0
M104 S200 T0
M104 S0 T1
G90
G28
G1 Z50.000 F420
G161 X Y F3300
M190 S60 T0
M109 S200 T0
M109 S0 T1
G92 E.0000
;layer_count: 6
M108 T0
G1 X85.00 Y85.00 F4800
;preExtrude:0.20
;preExtruder0
M106 S255
G1 Z.200 F420
G1 X85.00 Y85.00 F4800
G1 X135.00 Y85.00 E6.3859 F1200
G1 X135.00 Y135.00 E12.7719
G1 X85.00 Y135.00 E19.1578
G1 X85.00 Y85.00 E25.5438
;raft
;layer:0.31
;shell
G1 E20.5438 F2700
G1 Z.310 F420
G1 X104.20 Y106.48 F4200
G1 E25.5438 F2700
G1 X104.20 Y106.48 F4200
G1 X104.25 Y106.04 E25.5657 F300
G1 X104.38 Y105.61 E25.5879
G1 X104.59 Y105.23 E25.6094
G1 X104.86 Y104.88 E25.6313
G1 X105.21 Y104.60 E25.6535
G1 X105.59 Y104.39 E25.6750
G1 X106.02 Y104.25 E25.6974
G1 X106.46 Y104.20 E25.7193
G1 X106.89 Y104.23 E25.7406
G1 X107.32 Y104.35 E25.7627
G1 X107.72 Y104.55 E25.7848
G1 X108.07 Y104.82 E25.8067
G1 X108.36 Y105.15 E25.8284
G1 X108.59 Y105.53 E25.8504
G1 X108.73 Y105.95 E25.8723
G1 X108.80 Y106.39 E25.8944
G1 X108.78 Y106.83 E25.9162
G1 X108.67 Y107.26 E25.9382
G1 X108.49 Y107.66 E25.9599
G1 X108.23 Y108.02 E25.9818
G1 X107.90 Y108.32 E26.0039
G1 X107.53 Y108.56 E26.0257
G1 X107.11 Y108.72 E26.0480
G1 X106.68 Y108.79 E26.0695
G1 X106.24 Y108.78 E26.0913
G1 X105.80 Y108.69 E26.1136
G1 X105.40 Y108.52 E26.1351
G1 X105.03 Y108.27 E26.1572
G1 X104.72 Y107.96 E26.1789
G1 X104.47 Y107.58 E26.2014
G1 X104.30 Y107.18 E26.2229
G1 X104.21 Y106.74 E26.2451
G1 X104.20 Y106.48 E26.2580
G1 X104.70 Y106.46 F4200
G1 X104.74 Y106.90 E26.2799 F300
G1 X104.92 Y107.38 E26.3052
G1 X105.24 Y107.79 E26.3310
G1 X105.66 Y108.10 E26.3568
G1 X106.15 Y108.27 E26.3825
G1 X106.60 Y108.30 E26.4048
G1 X107.10 Y108.20 E26.4300
G1 X107.56 Y107.96 E26.4557
G1 X107.88 Y107.65 E26.4778
G1 X108.16 Y107.21 E26.5036
G1 X108.29 Y106.72 E26.5287
G1 X108.28 Y106.20 E26.5544
G1 X108.15 Y105.77 E26.5766
G1 X107.87 Y105.33 E26.6024
G1 X107.49 Y104.99 E26.6277
G1 X107.02 Y104.77 E26.6534
G1 X106.58 Y104.70 E26.6754
G1 X106.07 Y104.75 E26.7008
G1 X105.65 Y104.91 E26.7230
G1 X105.24 Y105.21 E26.7482
G1 X104.92 Y105.62 E26.7739
G1 X104.74 Y106.11 E26.7997
G1 X104.70 Y106.46 E26.8172
;infill
G1 X104.47 Y106.72 F4200
G1 X104.45 Y106.48 E26.8291 F300
G1 X104.51 Y106.03 E26.8516
G1 X104.72 Y105.49 E26.8802
G1 X105.06 Y105.05 E26.9077
G1 X105.52 Y104.71 E26.9361
G1 X106.03 Y104.51 E26.9632
G1 X106.56 Y104.46 E26.9895
G1 X107.08 Y104.54 E27.0156
G1 X107.60 Y104.77 E27.0437
G1 X108.05 Y105.17 E27.0735
G1 X108.36 Y105.64 E27.1014
G1 X108.52 Y106.17 E27.1288
G1 X108.53 Y106.76 E27.1580
G1 X108.39 Y107.29 E27.1851
G1 X108.09 Y107.79 E27.2140
G1 X107.71 Y108.15 E27.2399
G1 X107.19 Y108.42 E27.2689
G1 X106.66 Y108.54 E27.2958
G1 X106.09 Y108.50 E27.3240
G1 X105.53 Y108.31 E27.3533
G1 X105.08 Y107.98 E27.3809
G1 X104.72 Y107.51 E27.4102
G1 X104.55 Y107.10 E27.4322
G1 X104.47 Y106.72 E27.4514
;shell
G1 E22.4514 F2700
G1 X111.20 Y106.48 F4200
G1 E27.4514 F2700
G1 X111.20 Y106.48 F4200
G1 X111.25 Y106.04 E27.4733 F300
G1 X111.38 Y105.61 E27.4955
G1 X111.59 Y105.23 E27.5170
G1 X111.86 Y104.88 E27.5389
G1 X112.21 Y104.60 E27.5611
G1 X112.59 Y104.39 E27.5826
G1 X113.02 Y104.25 E27.6050
G1 X113.46 Y104.20 E27.6269
G1 X113.89 Y104.23 E27.6482
G1 X114.32 Y104.35 E27.6703
G1 X114.72 Y104.55 E27.6924
G1 X115.07 Y104.82 E27.7143
G1 X115.36 Y105.15 E27.7361
G1 X115.59 Y105.53 E27.7580
G1 X115.73 Y105.95 E27.7800
G1 X115.80 Y106.39 E27.8020
G1 X115.77 Y106.83 E27.8238
G1 X115.67 Y107.26 E27.8457
G1 X115.48 Y107.66 E27.8676
G1 X115.22 Y108.02 E27.8896
G1 X114.90 Y108.32 E27.9113
G1 X114.53 Y108.56 E27.9331
G1 X114.11 Y108.72 E27.9554
G1 X113.68 Y108.79 E27.9769
G1 X113.24 Y108.78 E27.9987
G1 X112.80 Y108.69 E28.0209
G1 X112.39 Y108.51 E28.0431
G1 X112.03 Y108.27 E28.0645
G1 X111.72 Y107.95 E28.0865
G1 X111.47 Y107.59 E28.1082
G1 X111.30 Y107.17 E28.1307
G1 X111.21 Y106.74 E28.1524
G1 X111.20 Y106.48 E28.1653
G1 X111.70 Y106.46 F4200
G1 X111.74 Y106.90 E28.1871 F300
G1 X111.92 Y107.38 E28.2125
G1 X112.24 Y107.79 E28.2383
G1 X112.60 Y108.06 E28.2605
G1 X113.07 Y108.25 E28.2856
G1 X113.51 Y108.30 E28.3075
G1 X114.02 Y108.22 E28.3331
G1 X114.49 Y108.01 E28.3586
G1 X114.83 Y107.72 E28.3807
G1 X115.12 Y107.30 E28.4059
G1 X115.28 Y106.80 E28.4319
G1 X115.29 Y106.29 E28.4572
G1 X115.18 Y105.85 E28.4796
G1 X114.93 Y105.41 E28.5047
G1 X114.56 Y105.04 E28.5306
G1 X114.10 Y104.80 E28.5562
G1 X113.59 Y104.70 E28.5820
G1 X113.14 Y104.73 E28.6043
G1 X112.66 Y104.90 E28.6295
G1 X112.30 Y105.16 E28.6515
G1 X111.96 Y105.56 E28.6774
G1 X111.76 Y106.02 E28.7023
G1 X111.70 Y106.46 E28.7242
;infill
G1 X111.47 Y106.71 F4200
G1 X111.45 Y106.48 E28.7357 F300
G1 X111.53 Y105.94 E28.7627
G1 X111.77 Y105.41 E28.7915
G1 X112.12 Y104.99 E28.8185
G1 X112.54 Y104.69 E28.8441
G1 X113.07 Y104.50 E28.8719
G1 X113.46 Y104.46 E28.8913
G1 X113.86 Y104.49 E28.9112
G1 X114.35 Y104.65 E28.9367
G1 X114.72 Y104.86 E28.9578
G1 X115.14 Y105.27 E28.9868
G1 X115.40 Y105.75 E29.0138
G1 X115.53 Y106.24 E29.0389
G1 X115.52 Y106.83 E29.0681
G1 X115.34 Y107.39 E29.0972
G1 X115.04 Y107.85 E29.1244
G1 X114.72 Y108.15 E29.1461
G1 X114.41 Y108.33 E29.1639
G1 X114.11 Y108.45 E29.1799
G1 X113.53 Y108.55 E29.2090
G1 X113.02 Y108.49 E29.2344
G1 X112.51 Y108.29 E29.2615
G1 X112.08 Y107.97 E29.2880
G1 X111.72 Y107.51 E29.3169
G1 X111.55 Y107.10 E29.3389
G1 X111.47 Y106.71 E29.3586
;shell
G1 E24.3586 F2700
G1 X111.20 Y113.39 F4200
G1 E29.3586 F2700
G1 X111.20 Y113.39 F4200
G1 X111.27 Y112.95 E29.3807 F300
G1 X111.41 Y112.53 E29.4026
G1 X111.64 Y112.15 E29.4246
G1 X111.93 Y111.82 E29.4463
G1 X112.28 Y111.55 E29.4682
G1 X112.68 Y111.35 E29.4903
G1 X113.11 Y111.23 E29.5124
G1 X113.54 Y111.20 E29.5337
G1 X113.98 Y111.25 E29.5557
G1 X114.41 Y111.39 E29.5780
G1 X114.79 Y111.60 E29.5995
G1 X115.14 Y111.88 E29.6217
G1 X115.41 Y112.23 E29.6436
G1 X115.62 Y112.61 E29.6651
G1 X115.75 Y113.04 E29.6873
G1 X115.80 Y113.48 E29.7092
G1 X115.76 Y113.92 E29.7311
G1 X115.64 Y114.34 E29.7527
G1 X115.44 Y114.74 E29.7748
G1 X115.16 Y115.09 E29.7970
G1 X114.83 Y115.37 E29.8184
G1 X114.44 Y115.60 E29.8408
G1 X114.03 Y115.74 E29.8623
G1 X113.59 Y115.80 E29.8843
G1 X113.14 Y115.77 E29.9066
G1 X112.72 Y115.66 E29.9281
G1 X112.32 Y115.47 E29.9500
G1 X111.96 Y115.21 E29.9720
G1 X111.67 Y114.89 E29.9933
G1 X111.43 Y114.50 E30.0160
G1 X111.28 Y114.09 E30.0376
G1 X111.21 Y113.65 E30.0597
G1 X111.20 Y113.39 E30.0725
G1 X111.70 Y113.46 F4200
G1 X111.74 Y113.90 E30.0944 F300
G1 X111.92 Y114.38 E30.1198
G1 X112.24 Y114.79 E30.1455
G1 X112.60 Y115.06 E30.1678
G1 X113.07 Y115.25 E30.1929
G1 X113.51 Y115.30 E30.2148
G1 X114.02 Y115.22 E30.2403
G1 X114.49 Y115.01 E30.2658
G1 X114.83 Y114.72 E30.2879
G1 X115.12 Y114.30 E30.3132
G1 X115.28 Y113.80 E30.3392
G1 X115.29 Y113.29 E30.3644
G1 X115.18 Y112.85 E30.3869
G1 X114.93 Y112.41 E30.4119
G1 X114.56 Y112.04 E30.4378
G1 X114.10 Y111.80 E30.4635
G1 X113.59 Y111.70 E30.4892
G1 X113.14 Y111.73 E30.5115
G1 X112.66 Y111.90 E30.5367
G1 X112.30 Y112.16 E30.5587
G1 X111.96 Y112.56 E30.5847
G1 X111.76 Y113.02 E30.6095
G1 X111.70 Y113.46 E30.6315
;infill
G1 X111.56 Y113.94 F4200
G1 X111.76 Y114.47
G1 X112.10 Y114.92
G1 X112.50 Y115.22
G1 X113.59 Y115.55
G1 X113.59 Y115.55
G1 X113.02 Y115.49 E30.6599 F300
G1 X112.49 Y115.28 E30.6881
G1 X112.08 Y114.97 E30.7135
G1 X111.72 Y114.51 E30.7424
G1 X111.53 Y114.03 E30.7680
G1 X111.46 Y113.63 E30.7881
G1 X111.47 Y113.28 E30.8054
G1 X111.57 Y112.86 E30.8268
G1 X111.75 Y112.44 E30.8494
G1 X112.10 Y112.00 E30.8772
G1 X112.54 Y111.69 E30.9038
G1 X113.07 Y111.50 E30.9317
G1 X113.58 Y111.45 E30.9571
G1 X114.17 Y111.57 E30.9869
G1 X114.64 Y111.80 F4200
G1 X115.12 Y112.24 E31.0191 F300
G1 X115.39 Y112.72 E31.0463
G1 X115.53 Y113.24 E31.0730
G1 X115.52 Y113.83 E31.1022
G1 X115.39 Y114.33 E31.1278
G1 X115.02 Y114.88 E31.1606
G1 X114.63 Y115.21 E31.1859
G1 X114.10 Y115.45 E31.2147
;shell
G1 E26.2147 F2700
G1 X104.20 Y113.48 F4200
G1 E31.2147 F2700
G1 X104.20 Y113.48 F4200
G1 X104.25 Y113.04 E31.2366 F300
G1 X104.38 Y112.61 E31.2588
G1 X104.59 Y112.23 E31.2803
G1 X104.86 Y111.88 E31.3022
G1 X105.21 Y111.60 E31.3244
G1 X105.59 Y111.39 E31.3458
G1 X106.02 Y111.25 E31.3682
G1 X106.46 Y111.20 E31.3901
G1 X106.89 Y111.23 E31.4115
G1 X107.32 Y111.35 E31.4336
G1 X107.72 Y111.55 E31.4557
G1 X108.07 Y111.82 E31.4776
G1 X108.36 Y112.15 E31.4993
G1 X108.59 Y112.53 E31.5213
G1 X108.73 Y112.95 E31.5432
G1 X108.80 Y113.39 E31.5653
G1 X108.78 Y113.83 E31.5871
G1 X108.67 Y114.26 E31.6090
G1 X108.49 Y114.66 E31.6307
G1 X108.23 Y115.02 E31.6527
G1 X107.90 Y115.32 E31.6748
G1 X107.53 Y115.56 E31.6966
G1 X107.11 Y115.72 E31.7189
G1 X106.68 Y115.79 E31.7404
G1 X106.24 Y115.78 E31.7622
G1 X105.80 Y115.69 E31.7844
G1 X105.40 Y115.52 E31.8059
G1 X105.03 Y115.27 E31.8280
G1 X104.72 Y114.96 E31.8497
G1 X104.47 Y114.58 E31.8722
G1 X104.30 Y114.18 E31.8938
G1 X104.21 Y113.74 E31.9160
G1 X104.20 Y113.48 E31.9289
G1 X104.70 Y113.46 F4200
G1 X104.74 Y113.90 E31.9507 F300
G1 X104.92 Y114.38 E31.9761
G1 X105.24 Y114.79 E32.0018
G1 X105.66 Y115.10 E32.0277
G1 X106.15 Y115.27 E32.0533
G1 X106.60 Y115.30 E32.0757
G1 X107.10 Y115.20 E32.1009
G1 X107.56 Y114.96 E32.1266
G1 X107.88 Y114.65 E32.1486
G1 X108.16 Y114.21 E32.1744
G1 X108.29 Y113.72 E32.1995
G1 X108.28 Y113.20 E32.2253
G1 X108.15 Y112.77 E32.2475
G1 X107.87 Y112.33 E32.2733
G1 X107.49 Y111.99 E32.2985
G1 X107.02 Y111.77 E32.3242
G1 X106.58 Y111.70 E32.3463
G1 X106.07 Y111.75 E32.3716
G1 X105.65 Y111.91 E32.3939
G1 X105.24 Y112.21 E32.4190
G1 X104.92 Y112.62 E32.4448
G1 X104.74 Y113.11 E32.4706
G1 X104.70 Y113.46 E32.4880
;infill
G1 X104.47 Y113.72 F4200
G1 X104.45 Y113.48 E32.5000 F300
G1 X104.51 Y113.03 E32.5224
G1 X104.72 Y112.49 E32.5511
G1 X105.06 Y112.05 E32.5786
G1 X105.52 Y111.71 E32.6069
G1 X106.03 Y111.51 E32.6340
G1 X106.56 Y111.46 E32.6604
G1 X107.08 Y111.54 E32.6864
G1 X107.60 Y111.77 E32.7146
G1 X108.05 Y112.17 E32.7444
G1 X108.36 Y112.64 E32.7722
G1 X108.52 Y113.17 E32.7996
G1 X108.53 Y113.76 E32.8288
G1 X108.39 Y114.29 E32.8560
G1 X108.09 Y114.79 E32.8848
G1 X107.71 Y115.15 E32.9107
G1 X107.19 Y115.42 E32.9397
G1 X106.66 Y115.54 E32.9666
G1 X106.09 Y115.50 E32.9949
G1 X105.53 Y115.31 E33.0242
G1 X105.08 Y114.98 E33.0518
G1 X104.72 Y114.51 E33.0811
G1 X104.55 Y114.10 E33.1030
G1 X104.47 Y113.72 E33.1223
;percent
;layer:0.21
;shell
G1 Z.520 F420
G1 X104.20 Y113.48 F4800
G1 X104.25 Y113.04 E33.1371 F300
G1 X104.38 Y112.61 E33.1522
G1 X104.59 Y112.23 E33.1667
G1 X104.86 Y111.88 E33.1815
G1 X105.21 Y111.60 E33.1966
G1 X105.59 Y111.39 E33.2111
G1 X106.02 Y111.25 E33.2263
G1 X106.47 Y111.20 E33.2415
G1 X106.89 Y111.23 E33.2556
G1 X107.32 Y111.35 E33.2706
G1 X107.72 Y111.55 E33.2855
G1 X108.07 Y111.82 E33.3004
G1 X108.36 Y112.15 E33.3151
G1 X108.59 Y112.53 E33.3300
G1 X108.73 Y112.95 E33.3448
G1 X108.80 Y113.39 E33.3598
G1 X108.78 Y113.83 E33.3745
G1 X108.67 Y114.26 E33.3894
G1 X108.49 Y114.66 E33.4041
G1 X108.23 Y115.02 E33.4190
G1 X107.90 Y115.32 E33.4340
G1 X107.53 Y115.56 E33.4487
G1 X107.11 Y115.72 E33.4638
G1 X106.68 Y115.79 E33.4784
G1 X106.24 Y115.78 E33.4932
G1 X105.80 Y115.69 E33.5082
G1 X105.40 Y115.52 E33.5228
G1 X105.03 Y115.27 E33.5378
G1 X104.72 Y114.96 E33.5525
G1 X104.47 Y114.58 E33.5677
G1 X104.30 Y114.18 E33.5823
G1 X104.21 Y113.74 E33.5973
G1 X104.20 Y113.48 E33.6061
G1 X104.70 Y113.46 F4800
G1 X104.75 Y113.92 E33.6216 F300
G1 X104.93 Y114.38 E33.6381
G1 X105.24 Y114.79 E33.6554
G1 X105.66 Y115.09 E33.6727
G1 X106.10 Y115.26 E33.6885
G1 X106.59 Y115.30 E33.7050
G1 X107.04 Y115.22 E33.7203
G1 X107.49 Y115.01 E33.7370
G1 X107.84 Y114.71 E33.7524
G1 X108.12 Y114.30 E33.7691
G1 X108.28 Y113.80 E33.7867
G1 X108.29 Y113.28 E33.8041
G1 X108.18 Y112.84 E33.8193
G1 X107.92 Y112.39 E33.8367
G1 X107.56 Y112.04 E33.8536
G1 X107.10 Y111.80 E33.8710
G1 X106.59 Y111.70 E33.8884
G1 X106.13 Y111.74 E33.9039
G1 X105.66 Y111.90 E33.9205
G1 X105.29 Y112.17 E33.9359
G1 X104.97 Y112.55 E33.9525
G1 X104.78 Y112.97 E33.9680
G1 X104.70 Y113.46 E33.9846
;infill
;extrude_ratio:0.46
G1 X104.47 Y113.72 F4800
G1 X104.45 Y113.48 E33.9883 F300
G1 X104.54 Y112.92 E33.9971
G1 X104.75 Y112.43 E34.0053
G1 X105.10 Y112.00 E34.0138
G1 X105.53 Y111.70 E34.0219
G1 X106.06 Y111.50 E34.0307
G1 X106.47 Y111.46 E34.0370
G1 X106.86 Y111.49 E34.0430
G1 X107.19 Y111.58 E34.0483
G1 X107.71 Y111.85 E34.0574
G1 X108.12 Y112.25 E34.0662
G1 X108.39 Y112.73 E34.0747
G1 X108.53 Y113.24 E34.0828
G1 X108.52 Y113.83 E34.0919
G1 X108.34 Y114.39 E34.1010
G1 X108.04 Y114.86 E34.1096
G1 X107.63 Y115.20 E34.1178
G1 X107.18 Y115.42 E34.1255
G1 X106.62 Y115.54 E34.1344
G1 X106.05 Y115.50 E34.1432
G1 X105.56 Y115.32 E34.1512
G1 X105.08 Y114.97 E34.1604
G1 X104.72 Y114.51 E34.1694
G1 X104.55 Y114.10 E34.1763
G1 X104.47 Y113.72 E34.1822
;shell
;extrude_ratio:1
G1 E29.1822 F2700
G1 X111.20 Y113.39 F4800
G1 E34.1822 F2700
G1 X111.20 Y113.39 F4800
G1 X111.27 Y112.95 E34.1972 F300
G1 X111.41 Y112.53 E34.2120
G1 X111.64 Y112.15 E34.2269
G1 X111.93 Y111.82 E34.2416
G1 X112.28 Y111.55 E34.2565
G1 X112.68 Y111.35 E34.2715
G1 X113.11 Y111.23 E34.2864
G1 X113.54 Y111.20 E34.3009
G1 X113.98 Y111.25 E34.3157
G1 X114.41 Y111.39 E34.3309
G1 X114.79 Y111.60 E34.3454
G1 X115.14 Y111.88 E34.3605
G1 X115.41 Y112.23 E34.3753
G1 X115.62 Y112.61 E34.3898
G1 X115.75 Y113.04 E34.4049
G1 X115.80 Y113.48 E34.4198
G1 X115.76 Y113.92 E34.4346
G1 X115.64 Y114.34 E34.4492
G1 X115.44 Y114.74 E34.4642
G1 X115.16 Y115.09 E34.4792
G1 X114.83 Y115.37 E34.4937
G1 X114.44 Y115.60 E34.5089
G1 X114.03 Y115.74 E34.5234
G1 X113.59 Y115.80 E34.5383
G1 X113.14 Y115.77 E34.5534
G1 X112.72 Y115.66 E34.5680
G1 X112.32 Y115.47 E34.5829
G1 X111.96 Y115.21 E34.5977
G1 X111.67 Y114.89 E34.6122
G1 X111.43 Y114.50 E34.6276
G1 X111.28 Y114.09 E34.6422
G1 X111.21 Y113.65 E34.6571
G1 X111.20 Y113.39 E34.6659
G1 X111.70 Y113.46 F4800
G1 X111.75 Y113.92 E34.6814 F300
G1 X111.94 Y114.40 E34.6987
G1 X112.24 Y114.79 E34.7152
G1 X112.61 Y115.07 E34.7307
G1 X113.07 Y115.25 E34.7473
G1 X113.53 Y115.30 E34.7628
G1 X114.01 Y115.23 E34.7791
G1 X114.44 Y115.04 E34.7948
G1 X114.82 Y114.73 E34.8113
G1 X115.12 Y114.30 E34.8289
G1 X115.28 Y113.80 E34.8465
G1 X115.29 Y113.28 E34.8639
G1 X115.17 Y112.84 E34.8792
G1 X114.93 Y112.41 E34.8957
G1 X114.56 Y112.04 E34.9132
G1 X114.10 Y111.80 E34.9306
G1 X113.59 Y111.70 E34.9481
G1 X113.13 Y111.74 E34.9635
G1 X112.66 Y111.90 E34.9802
G1 X112.28 Y112.17 E34.9958
G1 X111.97 Y112.55 E35.0122
G1 X111.76 Y113.02 E35.0295
G1 X111.70 Y113.46 E35.0444
;infill
G1 X111.56 Y113.96 F4800
G1 X111.77 Y114.49
G1 X112.11 Y114.92
G1 X112.52 Y115.23
G1 X113.58 Y115.55
;extrude_ratio:0.46
G1 X113.58 Y115.55
G1 X113.10 Y115.53 E35.0518 F300
G1 X112.50 Y115.29 E35.0618
G1 X112.08 Y114.98 E35.0698
G1 X111.73 Y114.53 E35.0786
G1 X111.51 Y113.99 E35.0876
G1 X111.46 Y113.47 E35.0957
G1 X111.54 Y112.95 E35.1038
G1 X111.76 Y112.43 E35.1125
G1 X112.10 Y112.00 E35.1209
G1 X112.54 Y111.69 E35.1292
G1 X113.06 Y111.50 E35.1378
G1 X113.61 Y111.46 E35.1463
G1 X114.19 Y111.58 E35.1554
G1 X114.69 Y111.84 E35.1641
G1 X115.11 Y112.24 E35.1730
G1 X115.39 Y112.71 E35.1815
G1 X115.53 Y113.24 E35.1899
G1 X115.52 Y113.83 E35.1990
G1 X115.40 Y114.30 E35.2065
G1 X115.01 Y114.89 E35.2174
G1 X114.64 Y115.21 E35.2250
G1 X114.22 Y115.40 E35.2321
;shell
;extrude_ratio:1
G1 E30.2321 F2700
G1 X111.20 Y106.48 F4800
G1 E35.2321 F2700
G1 X111.20 Y106.48 F4800
G1 X111.25 Y106.04 E35.2469 F300
G1 X111.38 Y105.61 E35.2620
G1 X111.59 Y105.23 E35.2765
G1 X111.86 Y104.88 E35.2914
G1 X112.21 Y104.60 E35.3064
G1 X112.59 Y104.39 E35.3209
G1 X113.02 Y104.25 E35.3361
G1 X113.47 Y104.20 E35.3513
G1 X113.89 Y104.23 E35.3654
G1 X114.32 Y104.35 E35.3804
G1 X114.72 Y104.55 E35.3954
G1 X115.07 Y104.82 E35.4102
