;generated by ffslicer 1.30.3 09/11/23 13:31:20
;right_extruder_material: PLA
;layer_height: 0.2
;perimeter_shells: 2
;top_solid_layers: 4
;bottom_solid_layers: 3
;fill_density: 15%
;fill_pattern: hexagon
;base_print_speed: 50
;travel_speed: 80
;right_extruder_temperature: 200
;left_extruder_temperature: 0
;platform_temperature: 60
;right_extruder_temperature_raft0: 0
;left_extruder_temperature_raft0: 0
;right_extruder_temperature_reset: 
;left_extruder_temperature_reset: 
;start gcode
M140 S60 T0
M104 S200 T0
M104 S0 T1
G90
G28
G1 Z50.000 F420
G161 X Y F3300
M190 S60 T0
M109 S200 T0
M109 S0 T1
G92 E.0000
;layer_count: 70
M108 T0
G1 X94.04 Y84.60 F4800
;preExtrude:0.20
;preExtruder0
M106 S255
G1 Z.200 F420
G1 X94.04 Y84.60 F4800
G1 X143.00 Y84.60 E6.2531 F1200
G1 X143.00 Y112.69 E9.8407
G1 X104.17 Y135.40 E15.5860
G1 X77.00 Y135.40 E19.0561
G1 X77.00 Y84.60 E25.5442
;raft
;layer:0.30
;shell
G1 E20.5442 F2700
G1 Z.300 F420
G1 X85.60 Y93.20 F4200
G1 E25.5442 F2700
G1 X85.60 Y93.20 F4200
G1 X134.40 Y93.20 E27.8815 F600
G1 X134.40 Y107.50 E28.5664
G1 X85.60 Y107.50 E30.9036
G1 X85.60 Y93.20 E31.5885
G1 X85.20 Y92.80 F4200
G1 X134.80 Y92.80 E33.9641 F600
G1 X134.80 Y107.90 E34.6873
G1 X85.20 Y107.90 E37.0629
G1 X85.20 Y92.80 E37.7861
G1 X87.35 Y100.31 F4200
G1 X87.35 Y100.31
G1 X87.41 Y100.83 E37.8112 F600
G1 X87.64 Y101.32 E37.8371
G1 X88.00 Y101.72 E37.8628
G1 X88.46 Y101.98 E37.8882
G1 X88.98 Y102.10 E37.9137
G1 X89.52 Y102.06 E37.9396
G1 X90.01 Y101.85 E37.9652
G1 X90.42 Y101.50 E37.9910
G1 X90.70 Y101.07 E38.0156
G1 X90.90 Y101.13 E38.0256
G1 X90.90 Y107.20 E38.3163
G1 X115.10 Y107.20 E39.4753
G1 X115.10 Y101.12 E39.7665
G1 X115.32 Y101.07 E39.7773
G1 X115.44 Y101.32 E39.7906
G1 X115.80 Y101.72 E39.8164
G1 X116.26 Y101.98 E39.8417
G1 X116.78 Y102.10 E39.8673
G1 X117.32 Y102.06 E39.8932
G1 X117.81 Y101.85 E39.9187
G1 X118.22 Y101.50 E39.9446
G1 X118.51 Y101.05 E39.9702
G1 X118.65 Y100.53 E39.9960
G1 X118.62 Y100.00 E40.0214
G1 X118.43 Y99.49 E40.0475
G1 X118.10 Y99.07 E40.0731
G1 X117.66 Y98.77 E40.0986
G1 X117.15 Y98.61 E40.1242
G1 X116.61 Y98.62 E40.1500
G1 X116.10 Y98.78 E40.1756
G1 X115.67 Y99.10 E40.2013
G1 X115.29 Y99.60 E40.2314
G1 X115.10 Y99.54 E40.2409
G1 X115.10 Y93.50 E40.5302
G1 X90.90 Y93.50 E41.6893
G1 X90.90 Y99.55 E41.9790
G1 X90.67 Y99.59 E41.9902
G1 X90.63 Y99.49 E41.9954
G1 X90.30 Y99.07 E42.0210
G1 X89.86 Y98.77 E42.0465
G1 X89.35 Y98.61 E42.0721
G1 X88.81 Y98.62 E42.0979
G1 X88.30 Y98.78 E42.1235
G1 X87.87 Y99.10 E42.1492
G1 X87.55 Y99.53 E42.1749
G1 X87.38 Y100.01 E42.1993
G1 X87.35 Y100.31 E42.2137
G1 X87.75 Y100.31 F4200
G1 X87.80 Y100.72 E42.2335 F600
G1 X87.97 Y101.10 E42.2534
G1 X88.25 Y101.40 E42.2731
G1 X88.61 Y101.61 E42.2930
G1 X89.01 Y101.70 E42.3127
G1 X89.42 Y101.66 E42.3324
G1 X89.80 Y101.50 E42.3521
G1 X90.12 Y101.24 E42.3719
G1 X90.34 Y100.89 E42.3917
G1 X90.44 Y100.49 E42.4114
G1 X90.42 Y100.08 E42.4311
G1 X90.28 Y99.69 E42.4509
G1 X90.03 Y99.37 E42.4704
G1 X89.69 Y99.13 E42.4903
G1 X89.29 Y99.01 E42.5103
G1 X88.88 Y99.02 E42.5300
G1 X88.49 Y99.15 E42.5497
G1 X88.15 Y99.39 E42.5696
G1 X87.91 Y99.72 E42.5891
G1 X87.77 Y100.10 E42.6085
G1 X87.75 Y100.31 E42.6186
G1 X87.62 Y100.77 F4200
G1 X87.82 Y101.20
G1 X91.17 Y106.93
G1 X114.83 Y106.93
G1 X122.24 Y100.45
G1 X122.24 Y100.45
G1 X122.34 Y101.03 E42.6468 F600
G1 X122.57 Y101.57 E42.6749
G1 X122.93 Y102.04 E42.7033
G1 X123.40 Y102.41 E42.7319
G1 X123.94 Y102.65 E42.7602
G1 X124.52 Y102.76 E42.7885
G1 X125.12 Y102.72 E42.8173
G1 X125.68 Y102.53 E42.8456
G1 X126.18 Y102.22 E42.8738
G1 X126.59 Y101.79 E42.9023
G1 X126.88 Y101.27 E42.9308
G1 X127.03 Y100.70 E42.9590
G1 X127.05 Y100.11 E42.9873
G1 X126.92 Y99.53 E43.0158
G1 X126.65 Y99.00 E43.0442
G1 X126.26 Y98.55 E43.0728
G1 X125.77 Y98.22 E43.1011
G1 X125.22 Y98.01 E43.1293
G1 X124.63 Y97.94 E43.1577
G1 X124.04 Y98.02 E43.1862
G1 X123.49 Y98.24 E43.2146
G1 X123.01 Y98.58 E43.2428
G1 X122.63 Y99.04 E43.2713
G1 X122.37 Y99.57 E43.2996
G1 X122.25 Y100.13 E43.3270
G1 X122.24 Y100.45 E43.3424
G1 X122.64 Y100.42 F4200
G1 X122.72 Y100.92 E43.3666 F600
G1 X122.92 Y101.37 E43.3902
G1 X123.22 Y101.76 E43.4138
G1 X123.61 Y102.07 E43.4376
G1 X124.06 Y102.27 E43.4612
G1 X124.54 Y102.35 E43.4845
G1 X125.04 Y102.32 E43.5085
G1 X125.51 Y102.17 E43.5322
G1 X125.92 Y101.90 E43.5557
G1 X126.26 Y101.55 E43.5790
G1 X126.51 Y101.12 E43.6029
G1 X126.64 Y100.64 E43.6267
G1 X126.65 Y100.15 E43.6502
G1 X126.54 Y99.67 E43.6737
G1 X126.31 Y99.23 E43.6975
G1 X125.99 Y98.85 E43.7213
G1 X125.58 Y98.57 E43.7451
G1 X125.12 Y98.40 E43.7686
G1 X124.63 Y98.34 E43.7922
G1 X124.14 Y98.41 E43.8159
G1 X123.68 Y98.59 E43.8396
G1 X123.28 Y98.88 E43.8632
G1 X122.97 Y99.26 E43.8867
G1 X122.75 Y99.70 E43.9103
G1 X122.65 Y100.18 E43.9338
G1 X122.64 Y100.42 E43.9453
G1 X117.12 Y98.83 F4200
G1 X116.65 Y98.83
G1 X116.20 Y98.98
G1 X115.82 Y99.25
G1 X115.54 Y99.63
G1 X115.39 Y100.06
G1 X115.55 Y100.31
G1 X115.55 Y100.31
G1 X115.60 Y100.72 E43.9651 F600
G1 X115.77 Y101.10 E43.9850
G1 X116.05 Y101.40 E44.0047
G1 X116.41 Y101.61 E44.0246
G1 X116.81 Y101.70 E44.0443
G1 X117.22 Y101.66 E44.0640
G1 X117.60 Y101.50 E44.0837
G1 X117.92 Y101.24 E44.1035
G1 X118.14 Y100.89 E44.1233
G1 X118.24 Y100.49 E44.1430
G1 X118.22 Y100.08 E44.1627
G1 X118.08 Y99.69 E44.1825
G1 X117.83 Y99.37 E44.2020
G1 X117.49 Y99.13 E44.2219
G1 X117.09 Y99.01 E44.2419
G1 X116.68 Y99.02 E44.2616
G1 X116.29 Y99.15 E44.2812
G1 X115.95 Y99.39 E44.3012
G1 X115.71 Y99.72 E44.3207
G1 X115.57 Y100.10 E44.3401
G1 X115.55 Y100.31 E44.3502
G1 X114.83 Y93.77 F4200
G1 X114.83 Y93.77
G1 X91.30 Y93.90
G1 X91.30 Y93.90
G1 X91.30 Y106.80 E44.9681 F600
G1 X114.70 Y106.80 E46.0888
G1 X114.70 Y93.90 E46.7066
G1 X91.30 Y93.90 E47.8274
;infill
G1 X90.56 Y93.62 F4200
G1 X90.48 Y93.54 E47.8328 F600
G1 X89.91 Y93.54 E47.8601
G1 X90.56 Y94.19 E47.9041
G1 X90.56 Y94.76 E47.9314
G1 X89.34 Y93.54 E48.0140
G1 X88.77 Y93.54 E48.0413
G1 X90.56 Y95.33 E48.1626
G1 X90.56 Y95.89 E48.1894
G1 X88.21 Y93.54 E48.3486
G1 X87.64 Y93.54 E48.3759
G1 X90.56 Y96.46 E48.5737
G1 X90.56 Y97.03 E48.6010
G1 X87.07 Y93.54 E48.8374
G1 X86.51 Y93.54 E48.8642
G1 X90.56 Y97.59 E49.1385
G1 X90.56 Y98.16 E49.1658
G1 X85.94 Y93.54 E49.4787
G1 X85.94 Y94.11 E49.5060
G1 X90.46 Y98.63 E49.8122
G1 X90.34 Y98.69 E49.8186
G1 X90.01 Y98.46 E49.8379
G1 X89.60 Y98.33 E49.8585
G1 X85.94 Y94.68 E50.1060
G1 X85.94 Y95.24 E50.1329
G1 X88.97 Y98.27 E50.3381
G1 X88.76 Y98.28 E50.3482
G1 X88.49 Y98.36 E50.3616
G1 X85.94 Y95.81 E50.5344
G1 X85.94 Y96.38 E50.5617
G1 X88.08 Y98.52 E50.7066
G1 X87.75 Y98.76 E50.7262
G1 X85.94 Y96.94 E50.8491
G1 X85.94 Y97.51 E50.8764
G1 X87.48 Y99.05 E50.9807
G1 X87.24 Y99.38 E51.0002
G1 X85.94 Y98.08 E51.0883
G1 X85.94 Y98.64 E51.1151
G1 X87.09 Y99.80 E51.1934
G1 X87.00 Y100.28 E51.2167
G1 X85.94 Y99.21 E51.2889
G1 X85.94 Y99.78 E51.3162
G1 X87.08 Y100.92 E51.3934
G1 X88.54 Y101.78 F4200
G1 X89.00 Y101.89
G1 X90.56 Y101.83
G1 X90.56 Y101.83
G1 X90.66 Y101.59 E51.4059 F600
G1 X90.82 Y100.93 F4200
G1 X90.87 Y100.43 E51.4299 F600
G1 X90.86 Y100.00 E51.4505
G1 X90.54 Y99.82 E51.4681
G1 X90.64 Y99.11 F4200
G1 X90.59 Y98.96 E51.4757 F600
G1 X90.45 Y98.93 E51.4825
G1 X90.56 Y102.70 F4200
G1 X90.56 Y102.70
G1 X90.06 Y102.20 E51.5164 F600
G1 X89.66 Y102.37 E51.5372
G1 X90.56 Y103.27 E51.5982
G1 X90.56 Y103.83 E51.6250
G1 X89.15 Y102.43 E51.7202
G1 X88.96 Y102.45 E51.7293
G1 X88.50 Y102.34 E51.7520
G1 X90.56 Y104.40 E51.8915
G1 X90.56 Y104.97 E51.9188
G1 X85.94 Y100.35 E52.2317
G1 X85.94 Y100.91 E52.2586
G1 X90.56 Y105.53 E52.5715
G1 X90.56 Y106.10 E52.5988
G1 X85.94 Y101.48 E52.9117
G1 X85.94 Y102.05 E52.9390
G1 X90.56 Y106.67 E53.2519
G1 X90.56 Y107.16 E53.2754
G1 X90.48 Y107.16 E53.2792
G1 X85.94 Y102.61 E53.5871
G1 X85.94 Y103.18 E53.6144
G1 X89.92 Y107.16 E53.8840
G1 X89.35 Y107.16 E53.9113
G1 X85.94 Y103.75 E54.1422
G1 X85.94 Y104.32 E54.1695
G1 X88.78 Y107.16 E54.3619
G1 X88.22 Y107.16 E54.3887
G1 X85.94 Y104.88 E54.5431
G1 X85.94 Y105.45 E54.5704
G1 X87.65 Y107.16 E54.6863
G1 X87.08 Y107.16 E54.7136
G1 X85.94 Y106.02 E54.7908
G1 X85.94 Y106.58 E54.8176
G1 X86.51 Y107.16 E54.8566
G1 X85.94 Y107.15 E54.8839
G1 X114.83 Y106.93 F4200
G1 X114.83 Y106.93
G1 X115.16 Y100.91
G1 X115.16 Y100.91
G1 X115.12 Y100.35 E54.9108 F600
G1 X115.18 Y99.73 E54.9406
G1 X115.34 Y99.13 F4200
G1 X115.43 Y98.86 E54.9542 F600
G1 X115.44 Y98.09 F4200
G1 X115.88 Y98.53 E54.9840 F600
G1 X116.28 Y98.37 E55.0046
G1 X115.44 Y97.52 E55.0619
G1 X115.44 Y96.95 E55.0892
G1 X116.76 Y98.27 E55.1786
G1 X123.65 Y102.90 F4200
G1 X123.65 Y102.90
G1 X127.91 Y107.16 E55.4671 F600
G1 X128.48 Y107.16 E55.4944
G1 X124.40 Y103.08 E55.7708
G1 X124.50 Y103.10 E55.7757
G1 X124.95 Y103.07 E55.7973
G1 X129.05 Y107.16 E56.0746
G1 X129.61 Y107.16 E56.1015
G1 X125.43 Y102.97 E56.3849
G1 X125.85 Y102.82 E56.4063
G1 X130.18 Y107.16 E56.6999
G1 X130.75 Y107.16 E56.7272
G1 X126.19 Y102.60 E57.0361
G1 X126.40 Y102.48 E57.0477
G1 X126.51 Y102.36 E57.0555
G1 X131.32 Y107.16 E57.3809
G1 X131.88 Y107.16 E57.4077
G1 X126.79 Y102.06 E57.7528
G1 X127.01 Y101.72 E57.7722
G1 X132.45 Y107.16 E58.1407
G1 X133.02 Y107.16 E58.1680
G1 X127.21 Y101.35 E58.5615
G1 X127.33 Y100.90 E58.5838
G1 X133.58 Y107.16 E59.0075
G1 X134.06 Y107.16 E59.0305
G1 X134.06 Y107.07 E59.0348
G1 X127.38 Y100.39 E59.4873
G1 X127.39 Y100.07 E59.5026
G1 X127.32 Y99.76 E59.5178
G1 X134.06 Y106.50 E59.9743
G1 X134.06 Y105.93 E60.0016
G1 X126.90 Y98.77 E60.4866
G1 X134.06 Y94.02 F4200
G1 X134.06 Y94.02
G1 X133.58 Y93.54 E60.5191 F600
G1 X133.01 Y93.54 E60.5464
G1 X134.06 Y94.59 E60.6175
G1 X134.06 Y95.16 E60.6448
G1 X132.44 Y93.54 E60.7546
G1 X131.87 Y93.54 E60.7819
G1 X134.06 Y95.73 E60.9302
G1 X134.06 Y96.29 E60.9570
G1 X131.31 Y93.54 E61.1433
G1 X130.74 Y93.54 E61.1706
G1 X134.06 Y96.86 E61.3955
G1 X134.06 Y97.43 E61.4228
G1 X130.17 Y93.54 E61.6862
G1 X129.61 Y93.54 E61.7131
G1 X134.06 Y97.99 E62.0145
G1 X134.06 Y98.56 E62.0418
G1 X129.04 Y93.54 E62.3818
G1 X128.47 Y93.54 E62.4091
G1 X134.06 Y99.13 E62.7877
G1 X134.06 Y99.69 E62.8146
G1 X127.90 Y93.54 E63.2314
G1 X127.34 Y93.54 E63.2583
G1 X134.06 Y100.26 E63.7134
G1 X134.06 Y100.83 E63.7407
G1 X126.77 Y93.54 E64.2345
G1 X126.20 Y93.54 E64.2618
G1 X134.06 Y101.40 E64.7942
G1 X134.06 Y101.96 E64.8210
G1 X125.64 Y93.54 E65.3913
G1 X125.07 Y93.54 E65.4186
G1 X134.06 Y102.53 E66.0276
G1 X134.06 Y103.10 E66.0548
G1 X124.50 Y93.54 E66.7024
G1 X123.93 Y93.54 E66.7297
G1 X134.06 Y103.66 E67.4155
G1 X134.06 Y104.23 E67.4428
G1 X123.37 Y93.54 E68.1668
G1 X122.80 Y93.54 E68.1941
G1 X134.06 Y104.80 E68.9568
G1 X134.06 Y105.37 E68.9841
G1 X122.23 Y93.54 E69.7854
G1 X121.67 Y93.54 E69.8122
G1 X126.29 Y98.16 E70.1251
G1 X125.93 Y97.91 E70.1461
G1 X125.30 Y97.67 E70.1784
G1 X125.22 Y97.66 E70.1823
G1 X121.10 Y93.54 E70.4613
G1 X120.53 Y93.54 E70.4886
G1 X124.59 Y97.60 E70.7636
G1 X124.09 Y97.67 E70.7878
G1 X119.96 Y93.54 E71.0676
G1 X119.40 Y93.54 E71.0944
G1 X123.66 Y97.80 E71.3829
G1 X123.26 Y97.97 E71.4037
G1 X118.83 Y93.54 E71.7038
G1 X118.26 Y93.54 E71.7311
G1 X122.94 Y98.21 E72.0477
G1 X122.64 Y98.49 E72.0674
G1 X117.70 Y93.54 E72.4023
G1 X117.13 Y93.54 E72.4296
G1 X122.38 Y98.80 E72.7856
G1 X122.19 Y99.16 E72.8051
G1 X116.56 Y93.54 E73.1861
G1 X116.00 Y93.54 E73.2129
G1 X122.02 Y99.56 E73.6206
G1 X121.92 Y100.04 E73.6441
G1 X115.44 Y93.55 E74.0834
G1 X115.44 Y94.12 E74.1107
G1 X121.92 Y100.60 E74.5496
G1 X122.01 Y101.13 E74.5753
G1 X122.11 Y101.35 E74.5869
G1 X115.44 Y94.69 E75.0384
G1 X115.44 Y95.25 E75.0652
G1 X127.35 Y107.16 E75.8719
G1 X126.78 Y107.16 E75.8992
G1 X115.44 Y95.82 E76.6673
G1 X115.44 Y96.39 E76.6946
G1 X117.38 Y98.33 E76.8260
G1 X117.81 Y98.46 E76.8475
G1 X118.34 Y98.82 E76.8782
G1 X118.74 Y99.32 E76.9088
G1 X118.94 Y99.89 E76.9378
G1 X126.21 Y107.16 E77.4302
G1 X125.65 Y107.16 E77.4570
G1 X118.98 Y100.50 E77.9085
G1 X118.88 Y100.96 E77.9310
G1 X125.08 Y107.16 E78.3509
G1 X124.51 Y107.16 E78.3782
G1 X118.71 Y101.36 E78.7711
G1 X118.49 Y101.71 E78.7909
G1 X123.94 Y107.16 E79.1600
G1 X123.38 Y107.16 E79.1869
G1 X118.19 Y101.97 E79.5384
G1 X117.99 Y102.14 E79.5510
G1 X117.85 Y102.20 E79.5583
G1 X122.81 Y107.16 E79.8942
G1 X122.24 Y107.16 E79.9215
G1 X117.45 Y102.37 E80.2460
G1 X116.94 Y102.43 E80.2706
G1 X121.68 Y107.16 E80.5913
G1 X121.11 Y107.16 E80.6186
G1 X116.29 Y102.34 E80.9450
G1 X116.14 Y102.30 E80.9525
G1 X115.58 Y101.99 E80.9831
G1 X115.44 Y101.83 E80.9933
G1 X115.44 Y102.06 E81.0043
G1 X120.54 Y107.16 E81.3498
G1 X119.97 Y107.16 E81.3771
G1 X115.44 Y102.62 E81.6842
G1 X115.44 Y103.19 E81.7115
G1 X119.41 Y107.16 E81.9804
G1 X118.84 Y107.16 E82.0077
G1 X115.44 Y103.76 E82.2380
G1 X115.44 Y104.33 E82.2653
G1 X118.27 Y107.16 E82.4570
G1 X117.71 Y107.16 E82.4838
G1 X115.44 Y104.89 E82.6376
G1 X115.44 Y105.46 E82.6649
G1 X117.14 Y107.16 E82.7800
G1 X116.57 Y107.16 E82.8073
G1 X115.44 Y106.03 E82.8839
G1 X115.44 Y106.59 E82.9107
G1 X116.00 Y107.16 E82.9490
;shell
G1 E77.9490 F2700
G1 X85.60 Y110.70 F4200
G1 E82.9490 F2700
G1 X85.60 Y110.70 F4200
G1 X101.40 Y110.70 E83.7057 F600
G1 X101.40 Y126.80 E84.4768
G1 X85.60 Y126.80 E85.2335
G1 X85.60 Y110.70 E86.0046
G1 X85.20 Y110.30 F4200
G1 X101.80 Y110.30 E86.7997 F600
G1 X101.80 Y127.20 E87.6091
G1 X85.20 Y127.20 E88.4042
G1 X85.20 Y110.30 E89.2136
G1 X94.90 Y118.08 F4200
G1 X94.90 Y118.08
G1 X95.00 Y118.68 E89.2427 F600
G1 X95.27 Y119.23 E89.2721
G1 X95.68 Y119.69 E89.3016
G1 X96.21 Y120.02 E89.3315
G1 X96.81 Y120.19 E89.3613
G1 X97.43 Y120.18 E89.3910
G1 X98.02 Y120.01 E89.4204
G1 X98.54 Y119.67 E89.4502
G1 X98.95 Y119.21 E89.4797
G1 X99.21 Y118.65 E89.5093
G1 X99.31 Y118.04 E89.5389
G1 X99.23 Y117.42 E89.5688
G1 X98.99 Y116.85 E89.5985
G1 X98.59 Y116.37 E89.6284
G1 X98.09 Y116.03 E89.6573
G1 X97.50 Y115.83 E89.6872
G1 X96.88 Y115.81 E89.7169
G1 X96.28 Y115.95 E89.7464
G1 X95.74 Y116.26 E89.7762
G1 X95.31 Y116.71 E89.8060
G1 X95.02 Y117.25 E89.8354
G1 X94.91 Y117.83 E89.8637
G1 X94.90 Y118.08 E89.8756
G1 X95.30 Y118.05 F4200
G1 X95.38 Y118.55 E89.8999 F600
G1 X95.61 Y119.01 E89.9245
G1 X95.94 Y119.38 E89.9483
G1 X96.37 Y119.65 E89.9726
G1 X96.86 Y119.79 E89.9970
G1 X97.37 Y119.78 E90.0214
G1 X97.85 Y119.64 E90.0454
G1 X98.27 Y119.37 E90.0693
G1 X98.61 Y118.99 E90.0937
G1 X98.82 Y118.53 E90.1179
G1 X98.90 Y118.03 E90.1422
G1 X98.84 Y117.53 E90.1663
G1 X98.64 Y117.06 E90.1908
G1 X98.32 Y116.67 E90.2149
G1 X97.90 Y116.39 E90.2391
G1 X97.42 Y116.23 E90.2633
G1 X96.92 Y116.21 E90.2873
G1 X96.43 Y116.33 E90.3115
G1 X95.99 Y116.58 E90.3357
G1 X95.64 Y116.94 E90.3597
G1 X95.40 Y117.39 E90.3842
G1 X95.31 Y117.88 E90.4080
G1 X95.30 Y118.05 E90.4162
;infill
G1 X94.66 Y118.69 F4200
G1 X87.01 Y111.04 E90.9343 F600
G1 X87.58 Y111.04 E90.9616
G1 X94.56 Y118.02 E91.4344
G1 X94.57 Y117.81 E91.4445
G1 X94.63 Y117.51 E91.4592
G1 X88.15 Y111.04 E91.8977
G1 X88.72 Y111.04 E91.9250
G1 X94.74 Y117.06 E92.3328
G1 X94.94 Y116.69 E92.3529
G1 X89.29 Y111.04 E92.7356
G1 X89.86 Y111.04 E92.7629
G1 X95.18 Y116.36 E93.1232
G1 X95.45 Y116.07 E93.1422
G1 X90.43 Y111.04 E93.4826
G1 X90.99 Y111.04 E93.5094
G1 X95.79 Y115.84 E93.8345
G1 X96.16 Y115.63 E93.8549
G1 X91.56 Y111.04 E94.1661
G1 X92.13 Y111.04 E94.1934
G1 X96.61 Y115.52 E94.4969
G1 X96.85 Y115.46 E94.5087
G1 X97.13 Y115.47 E94.5221
G1 X92.70 Y111.04 E94.8222
G1 X93.27 Y111.04 E94.8495
G1 X97.80 Y115.57 E95.1563
G1 X100.66 Y111.04 F4200
G1 X100.66 Y111.04
G1 X101.06 Y111.44 E95.1834 F600
G1 X101.06 Y112.01 E95.2107
G1 X100.09 Y111.04 E95.2764
G1 X99.52 Y111.04 E95.3037
G1 X101.06 Y112.58 E95.4080
G1 X101.06 Y113.15 E95.4353
G1 X98.95 Y111.04 E95.5782
G1 X98.38 Y111.04 E95.6055
G1 X101.06 Y113.71 E95.7867
G1 X101.06 Y114.28 E95.8140
G1 X97.82 Y111.04 E96.0335
G1 X97.25 Y111.04 E96.0608
G1 X101.06 Y114.85 E96.3188
G1 X101.06 Y115.42 E96.3461
G1 X96.68 Y111.04 E96.6428
G1 X96.11 Y111.04 E96.6701
G1 X101.06 Y115.99 E97.0054
G1 X101.06 Y116.56 E97.0327
G1 X95.54 Y111.04 E97.4066
G1 X94.97 Y111.04 E97.4339
G1 X101.06 Y117.13 E97.8464
G1 X101.06 Y117.69 E97.8732
G1 X94.41 Y111.04 E98.3236
G1 X93.84 Y111.04 E98.3509
G1 X101.06 Y118.26 E98.8399
G1 X101.06 Y118.83 E98.8672
G1 X99.56 Y117.33 E98.9688
G1 X99.64 Y117.98 E99.0002
G1 X101.06 Y119.40 E99.0964
