;generated by ffslicer 1.30.3 09/11/23 14:36:35
;right_extruder_material: PLA
;layer_height: 0.2
;perimeter_shells: 2
;top_solid_layers: 4
;bottom_solid_layers: 3
;fill_density: 15%
;fill_pattern: hexagon
;base_print_speed: 50
;travel_speed: 80
;right_extruder_temperature: 200
;left_extruder_temperature: 0
;platform_temperature: 60
;right_extruder_temperature_raft0: 0
;left_extruder_temperature_raft0: 0
;right_extruder_temperature_reset: 
;left_extruder_temperature_reset: 
;start gcode
M140 S60 T0
M104 S200 T0
M104 S0 T1
G90
G28
G1 Z50.000 F420
G161 X Y F3300
M190 S60 T0
M109 S200 T0
M109 S0 T1
G92 E.0000
;layer_count: 40
M108 T0
G1 X91.85 Y82.43 F4800
;preExtrude:0.20
;preExtruder0
M106 S255
G1 Z.200 F420
G1 X91.85 Y82.43 F4800
G1 X93.43 Y82.85 E.2088 F1200
G1 X94.58 Y83.33 E.3680
G1 X160.63 Y112.37 E9.5831
G1 X155.10 Y121.31 E10.9257
G1 X154.27 Y122.54 E11.1153
G1 X153.40 Y123.73 E11.3035
G1 X152.49 Y124.88 E11.4908
G1 X151.52 Y126.00 E11.6801
G1 X150.52 Y127.07 E11.8671
G1 X149.47 Y128.11 E12.0559
G1 X148.38 Y129.11 E12.2448
G1 X147.26 Y130.06 E12.4324
G1 X146.10 Y130.97 E12.6207
G1 X144.90 Y131.83 E12.8092
G1 X143.67 Y132.64 E12.9973
G1 X142.41 Y133.41 E13.1859
G1 X141.12 Y134.12 E13.3740
G1 X139.80 Y134.79 E13.5630
G1 X138.46 Y135.40 E13.7511
G1 X137.10 Y135.95 E13.9385
G1 X135.71 Y136.46 E14.1276
G1 X134.31 Y136.91 E14.3154
G1 X132.88 Y137.30 E14.5047
G1 X131.45 Y137.64 E14.6924
G1 X130.00 Y137.92 E14.8810
G1 X128.55 Y138.14 E15.0683
G1 X127.08 Y138.31 E15.2573
G1 X125.61 Y138.41 E15.4455
G1 X124.14 Y138.46 E15.6334
G1 X122.66 Y138.46 E15.8224
G1 X121.19 Y138.39 E16.0104
G1 X119.72 Y138.27 E16.1987
G1 X118.26 Y138.09 E16.3866
G1 X116.80 Y137.85 E16.5756
G1 X115.36 Y137.55 E16.7634
G1 X113.93 Y137.20 E16.9515
G1 X112.51 Y136.79 E17.1402
G1 X111.11 Y136.33 E17.3285
G1 X109.75 Y135.82 E17.5140
G1 X77.71 Y122.58 E21.9417
G1 X76.70 Y122.12 E22.0834
G1 X75.62 Y121.54 E22.2400
G1 X74.57 Y120.91 E22.3964
G1 X73.56 Y120.21 E22.5534
G1 X72.60 Y119.44 E22.7105
G1 X71.69 Y118.62 E22.8670
G1 X70.83 Y117.75 E23.0232
G1 X70.02 Y116.83 E23.1798
G1 X69.27 Y115.86 E23.3364
G1 X68.58 Y114.84 E23.4937
G1 X67.98 Y113.83 E23.6437
G1 X62.74 Y103.96 E25.0709
G1 X63.23 Y100.29 E25.5438
;raft
;layer:0.30
;shell
G1 E20.5438 F2700
G1 Z.300 F420
G1 X71.96 Y102.39 F4200
G1 E25.5438 F2700
G1 X71.96 Y102.39 F4200
G1 X71.97 Y102.20 E25.5529 F600
G1 X72.49 Y102.09 E25.5784
G1 X72.87 Y102.05 E25.5967
G1 X73.27 Y102.04 E25.6158
G1 X74.20 Y102.10 E25.6605
G1 X74.45 Y101.09 E25.7103
G1 X74.74 Y100.11 E25.7593
G1 X73.91 Y99.70 E25.8036
G1 X73.56 Y99.49 E25.8231
G1 X73.25 Y99.26 E25.8416
G1 X72.86 Y98.93 E25.8661
G1 X72.93 Y98.75 E25.8754
G1 X73.43 Y98.77 E25.8993
G1 X73.83 Y98.84 E25.9188
G1 X74.21 Y98.93 E25.9375
G1 X75.10 Y99.23 E25.9825
G1 X75.60 Y98.32 E26.0322
G1 X76.13 Y97.44 E26.0814
G1 X75.44 Y96.83 E26.1255
G1 X75.15 Y96.54 E26.1451
G1 X74.90 Y96.23 E26.1642
G1 X74.62 Y95.82 E26.1880
G1 X74.73 Y95.66 E26.1973
G1 X75.21 Y95.82 E26.2215
G1 X75.60 Y95.99 E26.2419
G1 X75.94 Y96.18 E26.2606
G1 X76.71 Y96.69 E26.3048
G1 X77.42 Y95.95 E26.3539
G1 X78.17 Y95.23 E26.4037
G1 X77.65 Y94.46 E26.4482
G1 X77.46 Y94.12 E26.4669
G1 X77.30 Y93.74 E26.4866
G1 X77.14 Y93.26 E26.5108
G1 X77.30 Y93.15 E26.5201
G1 X77.71 Y93.43 E26.5439
G1 X78.01 Y93.68 E26.5626
G1 X78.31 Y93.97 E26.5826
G1 X78.92 Y94.66 E26.6267
G1 X79.81 Y94.12 E26.6766
G1 X80.71 Y93.63 E26.7257
G1 X80.41 Y92.73 E26.7711
G1 X80.31 Y92.35 E26.7899
G1 X80.25 Y91.96 E26.8088
G1 X80.22 Y91.45 E26.8333
G1 X80.40 Y91.38 E26.8425
G1 X80.74 Y91.77 E26.8673
G1 X80.96 Y92.08 E26.8855
G1 X81.18 Y92.44 E26.9057
G1 X81.58 Y93.26 E26.9494
G1 X82.58 Y92.97 E26.9993
G1 X83.58 Y92.73 E27.0485
G1 X83.52 Y91.79 E27.0937
G1 X83.53 Y91.40 E27.1123
G1 X83.56 Y91.02 E27.1306
G1 X83.66 Y90.51 E27.1555
G1 X83.86 Y90.48 E27.1652
G1 X84.08 Y90.94 E27.1896
G1 X84.22 Y91.31 E27.2085
G1 X84.34 Y91.70 E27.2281
G1 X84.52 Y92.60 E27.2720
G1 X85.55 Y92.58 E27.3214
G1 X86.58 Y92.60 E27.3707
G1 X86.76 Y91.69 E27.4152
G1 X86.88 Y91.30 E27.4347
G1 X87.01 Y90.94 E27.4530
G1 X87.24 Y90.48 E27.4777
G1 X87.44 Y90.51 E27.4873
G1 X87.53 Y91.02 E27.5121
G1 X87.57 Y91.40 E27.5304
G1 X87.58 Y91.79 E27.5491
G1 X87.52 Y92.73 E27.5942
G1 X88.52 Y92.97 E27.6435
G1 X89.51 Y93.26 E27.6929
G1 X89.93 Y92.43 E27.7375
G1 X90.13 Y92.08 E27.7568
G1 X90.36 Y91.77 E27.7753
G1 X90.71 Y91.38 E27.8004
G1 X90.88 Y91.46 E27.8094
G1 X90.85 Y91.96 E27.8333
G1 X90.79 Y92.35 E27.8522
G1 X90.69 Y92.73 E27.8711
G1 X90.39 Y93.63 E27.9165
G1 X91.29 Y94.12 E27.9656
G1 X92.18 Y94.66 E28.0154
G1 X92.79 Y93.96 E28.0599
G1 X93.08 Y93.68 E28.0792
G1 X93.39 Y93.43 E28.0983
G1 X93.82 Y93.15 E28.1229
G1 X93.97 Y93.27 E28.1321
G1 X93.80 Y93.76 E28.1569
G1 X93.64 Y94.11 E28.1753
G1 X93.45 Y94.46 E28.1944
G1 X92.93 Y95.23 E28.2389
G1 X93.66 Y95.93 E28.2874
G1 X94.39 Y96.69 E28.3378
G1 X95.16 Y96.18 E28.3821
G1 X95.50 Y95.99 E28.4007
G1 X95.88 Y95.82 E28.4207
G1 X96.37 Y95.66 E28.4453
G1 X96.47 Y95.82 E28.4544
G1 X96.20 Y96.22 E28.4775
G1 X95.94 Y96.54 E28.4972
G1 X95.66 Y96.83 E28.5165
G1 X94.97 Y97.44 E28.5607
G1 X95.50 Y98.32 E28.6099
G1 X96.00 Y99.23 E28.6596
G1 X96.88 Y98.94 E28.7040
G1 X97.27 Y98.84 E28.7232
G1 X97.67 Y98.77 E28.7427
G1 X98.16 Y98.75 E28.7662
G1 X98.24 Y98.91 E28.7747
G1 X97.86 Y99.26 E28.7995
G1 X97.54 Y99.49 E28.8184
G1 X97.19 Y99.70 E28.8379
G1 X96.37 Y100.10 E28.8816
G1 X96.83 Y101.77 E28.9646
G1 X101.93 Y103.22 E29.2185
G1 X102.09 Y104.47 E29.2789
G1 X102.28 Y105.47 E29.3276
G1 X102.51 Y106.45 E29.3758
G1 X102.78 Y107.42 E29.4241
G1 X103.10 Y108.37 E29.4721
G1 X103.47 Y109.32 E29.5209
G1 X103.88 Y110.24 E29.5691
G1 X104.32 Y111.12 E29.6163
G1 X104.81 Y112.01 E29.6649
G1 X105.35 Y112.87 E29.7136
G1 X105.91 Y113.70 E29.7615
G1 X106.52 Y114.50 E29.8097
G1 X107.17 Y115.29 E29.8587
G1 X107.85 Y116.02 E29.9065
G1 X108.56 Y116.74 E29.9549
G1 X109.31 Y117.42 E30.0034
G1 X110.08 Y118.06 E30.0514
G1 X110.89 Y118.67 E30.0999
G1 X111.72 Y119.24 E30.1481
G1 X112.57 Y119.76 E30.1959
G1 X113.45 Y120.25 E30.2441
G1 X114.35 Y120.70 E30.2923
G1 X115.28 Y121.11 E30.3410
G1 X116.22 Y121.47 E30.3892
G1 X117.18 Y121.79 E30.4377
G1 X118.15 Y122.07 E30.4860
G1 X119.13 Y122.29 E30.5341
G1 X120.12 Y122.48 E30.5824
G1 X121.12 Y122.62 E30.6308
G1 X122.12 Y122.71 E30.6788
G1 X123.12 Y122.75 E30.7268
G1 X124.12 Y122.75 E30.7747
G1 X125.14 Y122.70 E30.8236
G1 X126.14 Y122.61 E30.8717
G1 X127.14 Y122.47 E30.9200
G1 X128.14 Y122.28 E30.9688
G1 X129.11 Y122.05 E31.0165
G1 X130.09 Y121.77 E31.0653
G1 X131.04 Y121.45 E31.1134
G1 X131.97 Y121.08 E31.1613
G1 X132.90 Y120.67 E31.2100
G1 X133.80 Y120.22 E31.2582
G1 X134.66 Y119.74 E31.3053
G1 X135.53 Y119.20 E31.3544
G1 X136.36 Y118.63 E31.4026
G1 X137.17 Y118.02 E31.4512
G1 X137.94 Y117.38 E31.4991
G1 X138.69 Y116.69 E31.5479
G1 X139.40 Y115.98 E31.5960
G1 X140.10 Y115.20 E31.6462
G1 X140.84 Y114.29 E31.7024
G1 X148.06 Y116.35 E32.0620
G1 X147.88 Y116.64 E32.0783
G1 X147.23 Y117.60 E32.1339
G1 X146.58 Y118.50 E32.1870
G1 X145.87 Y119.38 E32.2412
G1 X145.11 Y120.27 E32.2973
G1 X144.34 Y121.09 E32.3511
G1 X143.54 Y121.88 E32.4050
G1 X142.70 Y122.65 E32.4596
G1 X141.83 Y123.39 E32.5143
G1 X140.93 Y124.10 E32.5692
G1 X140.03 Y124.74 E32.6221
G1 X139.08 Y125.37 E32.6766
G1 X138.09 Y125.97 E32.7321
G1 X137.10 Y126.52 E32.7863
G1 X136.09 Y127.03 E32.8405
G1 X135.05 Y127.50 E32.8952
G1 X134.01 Y127.93 E32.9491
G1 X132.93 Y128.32 E33.0041
G1 X131.85 Y128.66 E33.0583
G1 X130.77 Y128.96 E33.1120
G1 X129.63 Y129.23 E33.1681
G1 X128.54 Y129.44 E33.2213
G1 X127.41 Y129.61 E33.2760
G1 X126.29 Y129.74 E33.3300
G1 X125.15 Y129.82 E33.3847
G1 X124.00 Y129.86 E33.4398
G1 X122.87 Y129.86 E33.4940
G1 X121.75 Y129.81 E33.5477
G1 X120.61 Y129.71 E33.6025
G1 X119.48 Y129.57 E33.6570
G1 X118.36 Y129.39 E33.7113
G1 X117.24 Y129.16 E33.7661
G1 X116.15 Y128.89 E33.8199
G1 X115.06 Y128.58 E33.8742
G1 X113.97 Y128.22 E33.9291
G1 X112.92 Y127.82 E33.9830
G1 X111.86 Y127.37 E34.0381
G1 X110.85 Y126.90 E34.0915
G1 X109.81 Y126.37 E34.1474
G1 X108.84 Y125.82 E34.2008
G1 X107.87 Y125.21 E34.2557
G1 X106.93 Y124.57 E34.3101
G1 X106.02 Y123.90 E34.3642
G1 X105.12 Y123.19 E34.4191
G1 X104.28 Y122.46 E34.4724
G1 X103.43 Y121.67 E34.5280
G1 X102.65 Y120.88 E34.5812
G1 X101.87 Y120.02 E34.6368
G1 X101.13 Y119.15 E34.6915
G1 X100.46 Y118.27 E34.7445
G1 X99.78 Y117.33 E34.8000
G1 X99.15 Y116.38 E34.8546
G1 X98.58 Y115.43 E34.9077
G1 X98.02 Y114.41 E34.9634
G1 X97.39 Y113.16 E35.0305
G1 X93.77 Y112.13 E35.2107
G1 X92.98 Y112.84 E35.2616
G1 X92.45 Y113.26 E35.2940
G1 X91.85 Y113.68 E35.3291
G1 X91.26 Y114.05 E35.3624
G1 X90.66 Y114.37 E35.3950
G1 X90.02 Y114.66 E35.4286
G1 X89.35 Y114.92 E35.4631
G1 X88.69 Y115.13 E35.4962
G1 X88.01 Y115.30 E35.5298
G1 X87.31 Y115.43 E35.5639
G1 X86.63 Y115.51 E35.5967
G1 X85.91 Y115.56 E35.6313
G1 X85.23 Y115.56 E35.6638
G1 X84.52 Y115.52 E35.6979
G1 X83.82 Y115.43 E35.7317
G1 X83.13 Y115.31 E35.7652
G1 X82.46 Y115.14 E35.7983
G1 X81.80 Y114.94 E35.8314
G1 X81.12 Y114.68 E35.8662
G1 X80.49 Y114.39 E35.8995
G1 X79.86 Y114.06 E35.9335
G1 X79.27 Y113.70 E35.9666
G1 X78.69 Y113.30 E36.0004
G1 X78.16 Y112.87 E36.0331
G1 X77.62 Y112.39 E36.0677
G1 X77.13 Y111.90 E36.1008
G1 X76.66 Y111.36 E36.1351
G1 X76.24 Y110.81 E36.1683
G1 X75.85 Y110.24 E36.2014
G1 X75.48 Y109.62 E36.2359
G1 X75.17 Y109.00 E36.2691
G1 X74.89 Y108.37 E36.3022
G1 X74.64 Y107.69 E36.3369
G1 X74.44 Y107.03 E36.3699
G1 X74.28 Y106.34 E36.4038
G1 X74.17 Y105.67 E36.4363
G1 X74.09 Y104.94 E36.4715
G1 X74.06 Y104.26 E36.5041
G1 X74.07 Y103.04 E36.5625
G1 X73.18 Y102.86 E36.6060
G1 X72.78 Y102.75 E36.6259
G1 X72.41 Y102.61 E36.6448
G1 X71.96 Y102.39 E36.6688
G1 X71.23 Y102.38 F4200
G1 X71.28 Y102.00 E36.6872 F600
G1 X71.58 Y101.89 E36.7025
G1 X71.99 Y101.78 E36.7228
G1 X72.43 Y101.70 E36.7442
G1 X72.85 Y101.65 E36.7645
G1 X73.28 Y101.64 E36.7851
G1 X73.89 Y101.68 E36.8144
G1 X74.06 Y101.00 E36.8480
G1 X74.26 Y100.32 E36.8819
G1 X73.72 Y100.05 E36.9108
G1 X73.34 Y99.82 E36.9321
G1 X72.99 Y99.57 E36.9527
G1 X72.66 Y99.29 E36.9734
G1 X72.36 Y98.98 E36.9941
G1 X72.15 Y98.73 E37.0097
G1 X72.30 Y98.38 E37.0280
G1 X72.62 Y98.35 E37.0433
G1 X73.06 Y98.35 E37.0644
G1 X73.48 Y98.38 E37.0846
G1 X73.91 Y98.45 E37.1055
G1 X74.32 Y98.55 E37.1257
G1 X74.91 Y98.75 E37.1555
G1 X75.25 Y98.13 E37.1894
G1 X75.62 Y97.52 E37.2235
G1 X75.16 Y97.12 E37.2527
G1 X74.85 Y96.80 E37.2741
G1 X74.59 Y96.48 E37.2938
G1 X74.34 Y96.12 E37.3148
G1 X74.13 Y95.74 E37.3356
G1 X73.99 Y95.45 E37.3510
G1 X74.22 Y95.14 E37.3695
G1 X74.54 Y95.20 E37.3851
G1 X74.96 Y95.31 E37.4059
G1 X75.37 Y95.45 E37.4267
G1 X75.77 Y95.63 E37.4477
G1 X76.14 Y95.84 E37.4680
G1 X76.65 Y96.18 E37.4974
G1 X77.14 Y95.67 E37.5313
G1 X77.65 Y95.18 E37.5651
G1 X77.31 Y94.67 E37.5945
G1 X77.10 Y94.29 E37.6153
G1 X76.93 Y93.90 E37.6357
G1 X76.78 Y93.48 E37.6570
G1 X76.67 Y93.06 E37.6778
G1 X76.62 Y92.75 E37.6929
G1 X76.92 Y92.52 E37.7110
G1 X77.21 Y92.65 E37.7262
G1 X77.59 Y92.87 E37.7472
G1 X77.95 Y93.11 E37.7679
G1 X78.28 Y93.38 E37.7884
G1 X78.60 Y93.69 E37.8097
G1 X79.00 Y94.14 E37.8385
G1 X79.61 Y93.77 E37.8727
G1 X80.22 Y93.44 E37.9059
G1 X80.02 Y92.85 E37.9358
G1 X79.92 Y92.43 E37.9564
G1 X79.85 Y92.01 E37.9768
G1 X79.82 Y91.59 E37.9970
G1 X79.82 Y91.14 E38.0186
G1 X79.85 Y90.82 E38.0340
G1 X80.21 Y90.68 E38.0524
G1 X80.45 Y90.88 E38.0674
G1 X80.76 Y91.19 E38.0884
G1 X81.05 Y91.52 E38.1094
G1 X81.29 Y91.86 E38.1294
G1 X81.53 Y92.25 E38.1513
G1 X81.79 Y92.78 E38.1796
G1 X82.48 Y92.59 E38.2139
G1 X83.16 Y92.42 E38.2474
G1 X83.12 Y91.80 E38.2772
G1 X83.13 Y91.38 E38.2973
G1 X83.17 Y90.95 E38.3180
G1 X83.25 Y90.51 E38.3394
G1 X83.37 Y90.10 E38.3599
G1 X83.48 Y89.80 E38.3752
G1 X83.86 Y89.75 E38.3935
G1 X84.04 Y90.01 E38.4087
G1 X84.26 Y90.38 E38.4293
G1 X84.45 Y90.78 E38.4505
G1 X84.60 Y91.18 E38.4710
G1 X84.72 Y91.60 E38.4919
G1 X84.84 Y92.20 E38.5212
G1 X85.55 Y92.18 E38.5552
G1 X86.25 Y92.20 E38.5888
G1 X86.37 Y91.60 E38.6181
G1 X86.50 Y91.18 E38.6391
G1 X86.65 Y90.78 E38.6596
G1 X86.84 Y90.38 E38.6808
G1 X87.05 Y90.02 E38.7008
G1 X87.24 Y89.75 E38.7166
G1 X87.62 Y89.80 E38.7349
G1 X87.73 Y90.10 E38.7502
G1 X87.85 Y90.51 E38.7707
G1 X87.93 Y90.95 E38.7921
G1 X87.97 Y91.38 E38.8128
G1 X87.98 Y91.80 E38.8329
G1 X87.94 Y92.42 E38.8627
G1 X88.62 Y92.59 E38.8962
G1 X89.30 Y92.78 E38.9301
G1 X89.58 Y92.23 E38.9596
G1 X89.80 Y91.87 E38.9798
G1 X90.05 Y91.52 E39.0004
G1 X90.33 Y91.19 E39.0211
G1 X90.64 Y90.88 E39.0421
G1 X90.89 Y90.68 E39.0575
G1 X91.24 Y90.82 E39.0755
G1 X91.27 Y91.14 E39.0909
G1 X91.28 Y91.59 E39.1125
G1 X91.24 Y92.01 E39.1327
G1 X91.18 Y92.43 E39.1530
G1 X91.07 Y92.85 E39.1738
G1 X90.88 Y93.44 E39.2035
G1 X91.49 Y93.77 E39.2367
G1 X92.10 Y94.14 E39.2709
G1 X92.50 Y93.69 E39.2997
G1 X92.82 Y93.38 E39.3211
G1 X93.15 Y93.11 E39.3415
G1 X93.51 Y92.87 E39.3622
G1 X93.88 Y92.65 E39.3828
G1 X94.18 Y92.52 E39.3985
G1 X94.48 Y92.75 E39.4166
G1 X94.43 Y93.07 E39.4321
G1 X94.32 Y93.48 E39.4524
G1 X94.17 Y93.90 E39.4738
G1 X94.00 Y94.29 E39.4942
G1 X93.79 Y94.67 E39.5150
G1 X93.45 Y95.18 E39.5443
G1 X93.95 Y95.66 E39.5775
G1 X94.45 Y96.18 E39.6121
G1 X94.95 Y95.84 E39.6410
G1 X95.33 Y95.63 E39.6618
G1 X95.73 Y95.45 E39.6828
G1 X96.14 Y95.31 E39.7036
G1 X96.56 Y95.20 E39.7244
G1 X96.87 Y95.14 E39.7395
G1 X97.11 Y95.45 E39.7583
G1 X96.97 Y95.74 E39.7737
G1 X96.76 Y96.12 E39.7945
G1 X96.52 Y96.47 E39.8148
G1 X96.24 Y96.81 E39.8359
G1 X95.94 Y97.12 E39.8566
G1 X95.48 Y97.52 E39.8857
G1 X95.85 Y98.13 E39.9199
G1 X96.19 Y98.75 E39.9538
G1 X96.76 Y98.55 E39.9827
G1 X97.19 Y98.45 E40.0039
G1 X97.61 Y98.38 E40.0243
G1 X98.04 Y98.35 E40.0449
G1 X98.48 Y98.35 E40.0660
G1 X98.80 Y98.38 E40.0814
G1 X98.95 Y98.73 E40.0996
G1 X98.74 Y98.98 E40.1152
G1 X98.43 Y99.29 E40.1362
G1 X98.11 Y99.57 E40.1566
G1 X97.75 Y99.83 E40.1779
G1 X97.39 Y100.05 E40.1981
G1 X96.84 Y100.32 E40.2274
G1 X97.15 Y101.45 E40.2835
G1 X102.30 Y102.91 E40.5399
G1 X102.35 Y103.41 E40.5640
G1 X102.49 Y104.41 E40.6124
G1 X102.67 Y105.38 E40.6596
G1 X102.90 Y106.35 E40.7074
G1 X103.17 Y107.30 E40.7547
G1 X103.48 Y108.24 E40.8021
G1 X103.84 Y109.16 E40.8494
G1 X104.24 Y110.07 E40.8970
G1 X104.67 Y110.94 E40.9435
G1 X105.16 Y111.81 E40.9913
G1 X105.68 Y112.65 E41.0386
G1 X106.24 Y113.47 E41.0862
G1 X106.84 Y114.26 E41.1337
G1 X107.47 Y115.02 E41.1810
G1 X108.14 Y115.75 E41.2284
G1 X108.84 Y116.45 E41.2758
G1 X109.57 Y117.12 E41.3233
G1 X110.33 Y117.75 E41.3706
G1 X111.12 Y118.34 E41.4178
G1 X111.94 Y118.90 E41.4653
G1 X112.77 Y119.42 E41.5123
G1 X113.64 Y119.90 E41.5599
G1 X114.52 Y120.34 E41.6070
G1 X115.43 Y120.74 E41.6546
G1 X116.36 Y121.09 E41.7022
G1 X117.30 Y121.41 E41.7497
G1 X118.25 Y121.68 E41.7970
G1 X119.21 Y121.90 E41.8442
G1 X120.18 Y122.08 E41.8915
G1 X121.16 Y122.22 E41.9389
G1 X122.15 Y122.31 E41.9865
G1 X123.12 Y122.35 E42.0330
G1 X124.12 Y122.35 E42.0809
G1 X125.11 Y122.30 E42.1283
G1 X126.09 Y122.21 E42.1755
G1 X127.08 Y122.07 E42.2234
G1 X128.05 Y121.89 E42.2706
G1 X129.01 Y121.66 E42.3179
G1 X129.96 Y121.39 E42.3652
G1 X130.90 Y121.07 E42.4128
G1 X131.82 Y120.71 E42.4601
G1 X132.73 Y120.31 E42.5077
G1 X133.61 Y119.87 E42.5548
G1 X134.46 Y119.39 E42.6016
G1 X135.31 Y118.87 E42.6493
G1 X136.12 Y118.31 E42.6964
G1 X136.91 Y117.71 E42.7440
G1 X137.68 Y117.07 E42.7919
G1 X138.41 Y116.40 E42.8394
G1 X139.10 Y115.70 E42.8864
G1 X139.79 Y114.94 E42.9356
G1 X140.38 Y114.23 E42.9798
G1 X140.69 Y113.83 E43.0041
G1 X148.68 Y116.11 E43.4020
G1 X148.21 Y116.86 E43.4444
G1 X147.56 Y117.82 E43.4999
G1 X146.89 Y118.75 E43.5548
G1 X146.17 Y119.65 E43.6100
G1 X145.41 Y120.53 E43.6657
G1 X144.63 Y121.36 E43.7203
G1 X143.81 Y122.18 E43.7758
G1 X142.97 Y122.95 E43.8304
G1 X142.09 Y123.70 E43.8858
G1 X141.17 Y124.41 E43.9414
G1 X140.25 Y125.08 E43.9959
G1 X139.28 Y125.71 E44.0513
G1 X138.30 Y126.31 E44.1064
G1 X137.29 Y126.87 E44.1617
G1 X136.26 Y127.39 E44.2169
G1 X135.21 Y127.87 E44.2722
G1 X134.14 Y128.30 E44.3275
G1 X133.07 Y128.69 E44.3820
G1 X131.96 Y129.05 E44.4379
G1 X130.86 Y129.35 E44.4925
G1 X129.73 Y129.62 E44.5482
G1 X128.61 Y129.84 E44.6028
G1 X127.47 Y130.01 E44.6580
G1 X126.32 Y130.14 E44.7135
G1 X125.17 Y130.22 E44.7687
G1 X124.02 Y130.26 E44.8238
