;generated by ffslicer 1.30.3 09/11/23 14:37:18
;right_extruder_material: PLA
;layer_height: 0.2
;perimeter_shells: 2
;top_solid_layers: 4
;bottom_solid_layers: 3
;fill_density: 15%
;fill_pattern: hexagon
;base_print_speed: 50
;travel_speed: 80
;right_extruder_temperature: 200
;left_extruder_temperature: 0
;platform_temperature: 60
;right_extruder_temperature_raft0: 0
;left_extruder_temperature_raft0: 0
;right_extruder_temperature_reset: 
;left_extruder_temperature_reset: 
;start gcode
M140 S60 T0
M104 S200 T0
M104 S0 T1
G90
G28
G1 Z50.000 F420
G161 X Y F3300
M190 S60 T0
M109 S200 T0
M109 S0 T1
G92 E.0000
;layer_count: 62
M108 T0
G1 X83.61 Y105.57 F4800
;preExtrude:0.20
;preExtruder0
M106 S255
G1 Z.200 F420
G1 X83.61 Y105.57 F4800
G1 X120.57 Y82.90 E5.5377 F1200
G1 X123.89 Y80.99 E6.0269
G1 X125.44 Y80.35 E6.2411
G1 X129.53 Y79.25 E6.7820
G1 X131.19 Y79.03 E6.9959
G1 X135.45 Y79.03 E7.5400
G1 X137.11 Y79.25 E7.7538
G1 X141.21 Y80.35 E8.2960
G1 X142.75 Y80.99 E8.5090
G1 X146.43 Y83.11 E9.0514
G1 X147.75 Y84.13 E9.2645
G1 X150.76 Y87.13 E9.8072
G1 X151.78 Y88.46 E10.0213
G1 X153.90 Y92.14 E10.5637
G1 X154.54 Y93.68 E10.7767
G1 X155.64 Y97.79 E11.3201
G1 X156.12 Y101.46 E11.7928
G1 X150.89 Y111.32 E13.2183
G1 X150.30 Y112.32 E13.3666
G1 X149.61 Y113.33 E13.5229
G1 X148.87 Y114.30 E13.6787
G1 X148.06 Y115.23 E13.8362
G1 X147.20 Y116.10 E13.9924
G1 X146.29 Y116.92 E14.1489
G1 X145.33 Y117.68 E14.3053
G1 X144.33 Y118.38 E14.4612
G1 X143.41 Y118.94 E14.5987
G1 X113.94 Y135.97 E18.9459
G1 X112.71 Y136.64 E19.1248
G1 X111.39 Y137.30 E19.3132
G1 X110.05 Y137.92 E19.5018
G1 X108.68 Y138.47 E19.6904
G1 X107.29 Y138.97 E19.8790
G1 X105.88 Y139.42 E20.0681
G1 X104.45 Y139.82 E20.2577
G1 X103.02 Y140.15 E20.4452
G1 X101.57 Y140.43 E20.6338
G1 X100.10 Y140.65 E20.8236
G1 X98.63 Y140.82 E21.0126
G1 X97.16 Y140.92 E21.2008
G1 X95.68 Y140.97 E21.3899
G1 X94.20 Y140.96 E21.5789
G1 X92.73 Y140.90 E21.7668
G1 X91.26 Y140.77 E21.9553
G1 X89.79 Y140.59 E22.1445
G1 X88.33 Y140.35 E22.3334
G1 X86.88 Y140.05 E22.5226
G1 X85.45 Y139.70 E22.7106
G1 X84.02 Y139.29 E22.9006
G1 X82.62 Y138.82 E23.0892
G1 X81.24 Y138.30 E23.2776
G1 X79.88 Y137.73 E23.4659
G1 X78.54 Y137.10 E23.6550
G1 X77.22 Y136.42 E23.8446
G1 X75.94 Y135.69 E24.0328
G1 X74.68 Y134.91 E24.2221
G1 X73.46 Y134.08 E24.4106
G1 X72.27 Y133.21 E24.5988
G1 X71.12 Y132.28 E24.7877
G1 X70.00 Y131.32 E24.9761
G1 X68.92 Y130.31 E25.1650
G1 X67.88 Y129.25 E25.3547
G1 X66.88 Y128.16 E25.5436
;raft
;layer:0.30
;shell
G1 E20.5436 F2700
G1 Z.300 F420
G1 X73.12 Y122.23 F4200
G1 E25.5436 F2700
G1 X73.12 Y122.23 F4200
G1 X80.04 Y119.27 E25.9041 F600
G1 X80.23 Y119.44 E25.9163
G1 X81.00 Y120.13 E25.9658
G1 X81.79 Y120.76 E26.0142
G1 X82.62 Y121.36 E26.0632
G1 X83.46 Y121.92 E26.1116
G1 X84.33 Y122.44 E26.1601
G1 X85.22 Y122.92 E26.2086
G1 X86.12 Y123.35 E26.2563
G1 X87.06 Y123.75 E26.3053
G1 X88.01 Y124.10 E26.3537
G1 X88.98 Y124.41 E26.4025
G1 X89.96 Y124.68 E26.4512
G1 X90.96 Y124.89 E26.5001
G1 X91.95 Y125.07 E26.5483
G1 X92.95 Y125.19 E26.5966
G1 X93.97 Y125.27 E26.6456
G1 X94.98 Y125.30 E26.6940
G1 X95.99 Y125.29 E26.7424
G1 X97.01 Y125.23 E26.7913
G1 X98.00 Y125.12 E26.8390
G1 X99.00 Y124.97 E26.8874
G1 X100.00 Y124.77 E26.9363
G1 X100.99 Y124.52 E26.9852
G1 X101.96 Y124.23 E27.0337
G1 X102.91 Y123.90 E27.0818
G1 X103.86 Y123.52 E27.1308
G1 X104.78 Y123.10 E27.1793
G1 X105.68 Y122.63 E27.2279
G1 X106.56 Y122.13 E27.2764
G1 X107.42 Y121.59 E27.3250
G1 X108.24 Y121.01 E27.3731
G1 X109.04 Y120.39 E27.4216
G1 X109.81 Y119.73 E27.4702
G1 X110.55 Y119.04 E27.5186
G1 X111.26 Y118.31 E27.5674
G1 X111.94 Y117.56 E27.6159
G1 X112.58 Y116.76 E27.6650
G1 X113.18 Y115.95 E27.7132
G1 X113.74 Y115.10 E27.7620
G1 X114.27 Y114.24 E27.8104
G1 X114.75 Y113.35 E27.8588
G1 X115.19 Y112.43 E27.9076
G1 X115.59 Y111.50 E27.9561
G1 X115.94 Y110.57 E28.0037
G1 X116.26 Y109.60 E28.0526
G1 X116.52 Y108.62 E28.1012
G1 X116.74 Y107.63 E28.1498
G1 X116.92 Y106.63 E28.1984
G1 X117.05 Y105.62 E28.2472
G1 X117.13 Y104.57 E28.2976
G1 X117.17 Y103.38 E28.3547
G1 X121.81 Y101.39 E28.5965
G1 X121.88 Y100.42 E28.6431
G1 X121.96 Y99.84 E28.6711
G1 X122.07 Y99.24 E28.7003
G1 X122.20 Y98.66 E28.7288
G1 X122.51 Y97.60 E28.7817
G1 X121.67 Y97.19 E28.8264
G1 X121.33 Y96.98 E28.8456
G1 X121.01 Y96.75 E28.8645
G1 X120.63 Y96.42 E28.8886
G1 X120.70 Y96.24 E28.8978
G1 X121.20 Y96.27 E28.9218
G1 X121.61 Y96.33 E28.9416
G1 X121.99 Y96.43 E28.9605
G1 X122.87 Y96.73 E29.0050
G1 X123.37 Y95.81 E29.0551
G1 X123.90 Y94.94 E29.1039
G1 X123.20 Y94.32 E29.1487
G1 X122.92 Y94.03 E29.1680
G1 X122.68 Y93.73 E29.1864
G1 X122.40 Y93.31 E29.2106
G1 X122.50 Y93.16 E29.2192
G1 X122.99 Y93.31 E29.2438
G1 X123.36 Y93.48 E29.2633
G1 X123.71 Y93.67 E29.2824
G1 X124.48 Y94.18 E29.3266
G1 X125.19 Y93.44 E29.3757
G1 X125.94 Y92.73 E29.4252
G1 X125.43 Y91.96 E29.4694
G1 X125.24 Y91.62 E29.4881
G1 X125.07 Y91.23 E29.5084
G1 X124.90 Y90.77 E29.5319
G1 X125.05 Y90.65 E29.5411
G1 X125.48 Y90.93 E29.5657
G1 X125.79 Y91.18 E29.5848
G1 X126.08 Y91.45 E29.6038
G1 X126.69 Y92.15 E29.6482
G1 X127.57 Y91.61 E29.6977
G1 X128.48 Y91.12 E29.7472
G1 X128.18 Y90.23 E29.7922
G1 X128.09 Y89.86 E29.8104
G1 X128.02 Y89.44 E29.8308
G1 X127.99 Y88.82 E29.8605
G1 X128.22 Y88.93 E29.8727
G1 X128.51 Y89.26 E29.8938
G1 X128.74 Y89.58 E29.9126
G1 X128.94 Y89.91 E29.9311
G1 X129.35 Y90.75 E29.9759
G1 X130.35 Y90.46 E30.0258
G1 X131.35 Y90.22 E30.0750
G1 X131.29 Y89.29 E30.1196
G1 X131.30 Y88.89 E30.1388
G1 X131.34 Y88.51 E30.1571
G1 X131.43 Y88.00 E30.1819
G1 X131.62 Y87.97 E30.1911
G1 X131.85 Y88.42 E30.2153
G1 X132.00 Y88.81 E30.2353
G1 X132.10 Y89.18 E30.2537
G1 X132.29 Y90.10 E30.2987
G1 X133.32 Y90.07 E30.3481
G1 X134.35 Y90.10 E30.3974
G1 X134.53 Y89.19 E30.4418
G1 X134.64 Y88.81 E30.4608
G1 X134.79 Y88.43 E30.4803
G1 X135.02 Y87.97 E30.5050
G1 X135.21 Y88.00 E30.5142
G1 X135.30 Y88.51 E30.5390
G1 X135.34 Y88.89 E30.5573
G1 X135.35 Y89.29 E30.5765
G1 X135.29 Y90.22 E30.6211
G1 X136.30 Y90.47 E30.6709
G1 X137.29 Y90.75 E30.7202
G1 X137.70 Y89.91 E30.7650
G1 X137.90 Y89.58 E30.7834
G1 X138.14 Y89.26 E30.8026
G1 X138.48 Y88.88 E30.8270
G1 X138.65 Y88.95 E30.8358
G1 X138.62 Y89.45 E30.8598
G1 X138.56 Y89.84 E30.8787
G1 X138.46 Y90.23 E30.8980
G1 X138.16 Y91.12 E30.9430
G1 X139.07 Y91.61 E30.9925
G1 X139.95 Y92.15 E31.0419
G1 X140.55 Y91.46 E31.0857
G1 X140.85 Y91.17 E31.1057
G1 X141.16 Y90.92 E31.1248
G1 X141.58 Y90.64 E31.1490
G1 X141.73 Y90.75 E31.1579
G1 X141.57 Y91.23 E31.1821
G1 X141.40 Y91.62 E31.2025
G1 X141.22 Y91.95 E31.2205
G1 X140.70 Y92.73 E31.2654
G1 X141.44 Y93.44 E31.3145
G1 X142.16 Y94.18 E31.3640
G1 X142.92 Y93.68 E31.4075
G1 X143.28 Y93.48 E31.4272
G1 X143.64 Y93.32 E31.4461
G1 X144.15 Y93.16 E31.4717
G1 X144.24 Y93.32 E31.4805
G1 X143.96 Y93.74 E31.5047
G1 X143.72 Y94.03 E31.5227
G1 X143.44 Y94.32 E31.5420
G1 X142.74 Y94.93 E31.5865
G1 X143.28 Y95.83 E31.6368
G1 X143.77 Y96.72 E31.6854
G1 X144.66 Y96.42 E31.7304
G1 X145.04 Y96.33 E31.7491
G1 X145.44 Y96.27 E31.7685
G1 X145.93 Y96.24 E31.7920
G1 X146.01 Y96.41 E31.8010
G1 X145.55 Y96.81 E31.8302
G1 X145.19 Y97.06 E31.8512
G1 X144.16 Y97.70 E31.9093
G1 X144.43 Y98.62 E31.9552
G1 X144.66 Y99.59 E32.0029
G1 X145.60 Y99.53 E32.0480
G1 X146.00 Y99.54 E32.0672
G1 X146.38 Y99.58 E32.0855
G1 X146.89 Y99.69 E32.1105
G1 X146.91 Y99.88 E32.1196
G1 X146.46 Y100.10 E32.1436
G1 X146.08 Y100.24 E32.1630
G1 X145.70 Y100.35 E32.1820
G1 X144.79 Y100.53 E32.2264
G1 X144.81 Y101.75 E32.2848
G1 X144.78 Y102.43 E32.3174
G1 X144.70 Y103.16 E32.3526
G1 X144.59 Y103.83 E32.3851
G1 X144.43 Y104.52 E32.4191
G1 X144.23 Y105.17 E32.4516
G1 X143.98 Y105.85 E32.4863
G1 X143.71 Y106.48 E32.5192
G1 X143.39 Y107.11 E32.5530
G1 X143.02 Y107.72 E32.5872
G1 X142.64 Y108.29 E32.6200
G1 X142.21 Y108.85 E32.6538
G1 X141.76 Y109.37 E32.6867
G1 X141.26 Y109.88 E32.7209
G1 X140.74 Y110.34 E32.7542
G1 X140.19 Y110.78 E32.7879
G1 X139.62 Y111.18 E32.8213
G1 X139.02 Y111.55 E32.8550
G1 X138.39 Y111.88 E32.8891
G1 X137.77 Y112.16 E32.9217
G1 X137.10 Y112.42 E32.9561
G1 X136.44 Y112.63 E32.9893
G1 X135.76 Y112.80 E33.0228
G1 X135.08 Y112.92 E33.0559
G1 X134.38 Y113.01 E33.0897
G1 X133.67 Y113.05 E33.1238
G1 X132.98 Y113.05 E33.1568
G1 X132.28 Y113.01 E33.1904
G1 X131.58 Y112.93 E33.2241
G1 X130.89 Y112.80 E33.2578
G1 X130.22 Y112.63 E33.2909
G1 X129.55 Y112.42 E33.3245
G1 X128.90 Y112.18 E33.3577
G1 X128.24 Y111.88 E33.3924
G1 X127.65 Y111.56 E33.4246
G1 X126.76 Y111.02 E33.4744
G1 X122.66 Y112.77 E33.6879
G1 X122.17 Y114.08 E33.7549
G1 X121.73 Y115.13 E33.8095
G1 X121.24 Y116.17 E33.8645
G1 X120.71 Y117.19 E33.9196
G1 X120.16 Y118.17 E33.9734
G1 X119.55 Y119.15 E34.0287
G1 X118.92 Y120.08 E34.0825
G1 X118.22 Y121.02 E34.1386
G1 X117.53 Y121.89 E34.1918
G1 X116.77 Y122.77 E34.2475
G1 X115.99 Y123.60 E34.3020
G1 X115.19 Y124.39 E34.3559
G1 X114.33 Y125.17 E34.4115
G1 X113.46 Y125.90 E34.4659
G1 X112.57 Y126.59 E34.5198
G1 X111.65 Y127.25 E34.5741
G1 X110.68 Y127.90 E34.6300
G1 X109.72 Y128.47 E34.6835
G1 X108.71 Y129.03 E34.7388
G1 X107.69 Y129.54 E34.7934
G1 X106.64 Y130.02 E34.8487
G1 X105.61 Y130.44 E34.9020
G1 X104.54 Y130.83 E34.9565
G1 X103.43 Y131.18 E35.0122
G1 X102.33 Y131.48 E35.0669
G1 X101.21 Y131.74 E35.1219
G1 X100.12 Y131.95 E35.1751
G1 X98.98 Y132.12 E35.2303
G1 X97.84 Y132.25 E35.2852
G1 X96.71 Y132.33 E35.3395
G1 X95.56 Y132.37 E35.3946
G1 X94.42 Y132.36 E35.4492
G1 X93.29 Y132.31 E35.5034
G1 X92.15 Y132.22 E35.5582
G1 X91.03 Y132.08 E35.6122
G1 X89.90 Y131.89 E35.6671
G1 X88.76 Y131.66 E35.7228
G1 X87.68 Y131.39 E35.7761
G1 X86.57 Y131.07 E35.8314
G1 X85.40 Y130.68 E35.8905
G1 X84.43 Y130.31 E35.9402
G1 X83.37 Y129.86 E35.9954
G1 X82.35 Y129.39 E36.0492
G1 X81.33 Y128.86 E36.1042
G1 X80.32 Y128.29 E36.1598
G1 X79.36 Y127.69 E36.2140
G1 X78.42 Y127.05 E36.2685
G1 X77.50 Y126.38 E36.3230
G1 X76.61 Y125.67 E36.3775
G1 X75.74 Y124.92 E36.4325
G1 X74.90 Y124.13 E36.4877
G1 X74.12 Y123.34 E36.5409
G1 X73.34 Y122.48 E36.5965
G1 X73.12 Y122.23 E36.6125
G1 X72.47 Y122.07 F4200
G1 X80.13 Y118.79 E37.0116 F600
G1 X80.50 Y119.15 E37.0363
G1 X81.26 Y119.82 E37.0848
G1 X82.04 Y120.45 E37.1328
G1 X82.84 Y121.03 E37.1801
G1 X83.67 Y121.58 E37.2278
G1 X84.53 Y122.09 E37.2757
G1 X85.40 Y122.56 E37.3231
G1 X86.29 Y122.99 E37.3704
G1 X87.21 Y123.38 E37.4183
G1 X88.14 Y123.73 E37.4659
G1 X89.09 Y124.03 E37.5136
G1 X90.05 Y124.29 E37.5612
G1 X91.03 Y124.50 E37.6092
G1 X92.01 Y124.67 E37.6569
G1 X93.00 Y124.79 E37.7046
G1 X93.99 Y124.87 E37.7522
G1 X94.98 Y124.90 E37.7996
G1 X95.98 Y124.89 E37.8475
G1 X96.97 Y124.83 E37.8950
G1 X97.95 Y124.73 E37.9422
G1 X98.93 Y124.58 E37.9897
G1 X99.91 Y124.38 E38.0376
G1 X100.88 Y124.14 E38.0855
G1 X101.84 Y123.85 E38.1335
G1 X102.78 Y123.52 E38.1812
G1 X103.70 Y123.15 E38.2287
G1 X104.61 Y122.74 E38.2765
G1 X105.49 Y122.28 E38.3241
G1 X106.35 Y121.79 E38.3715
G1 X107.19 Y121.26 E38.4190
G1 X108.01 Y120.68 E38.4671
G1 X108.78 Y120.08 E38.5139
G1 X109.54 Y119.44 E38.5615
G1 X110.27 Y118.75 E38.6096
G1 X110.97 Y118.04 E38.6574
G1 X111.63 Y117.30 E38.7048
G1 X112.26 Y116.52 E38.7529
G1 X112.85 Y115.72 E38.8005
G1 X113.40 Y114.89 E38.8482
G1 X113.92 Y114.04 E38.8959
G1 X114.39 Y113.17 E38.9432
G1 X114.83 Y112.27 E38.9912
G1 X115.22 Y111.36 E39.0386
G1 X115.56 Y110.44 E39.0856
G1 X115.87 Y109.49 E39.1335
G1 X116.13 Y108.53 E39.1811
G1 X116.35 Y107.55 E39.2292
G1 X116.52 Y106.57 E39.2769
G1 X116.65 Y105.58 E39.3247
G1 X116.74 Y104.55 E39.3742
G1 X116.77 Y103.62 E39.4188
G1 X116.77 Y103.11 E39.4432
G1 X121.43 Y101.12 E39.6859
G1 X121.49 Y100.38 E39.7214
G1 X121.56 Y99.77 E39.7508
G1 X121.67 Y99.17 E39.7801
G1 X121.81 Y98.56 E39.8100
G1 X122.03 Y97.81 E39.8475
G1 X121.48 Y97.54 E39.8768
G1 X121.11 Y97.32 E39.8974
G1 X120.76 Y97.06 E39.9183
G1 X120.44 Y96.78 E39.9387
G1 X120.13 Y96.47 E39.9597
G1 X119.92 Y96.22 E39.9753
G1 X120.07 Y95.87 E39.9935
G1 X120.39 Y95.84 E40.0089
G1 X120.83 Y95.84 E40.0300
G1 X121.25 Y95.87 E40.0502
G1 X121.69 Y95.94 E40.0715
G1 X122.11 Y96.04 E40.0922
G1 X122.68 Y96.24 E40.1211
G1 X123.02 Y95.62 E40.1550
G1 X123.39 Y95.02 E40.1888
G1 X122.93 Y94.62 E40.2180
G1 X122.62 Y94.30 E40.2393
G1 X122.36 Y93.97 E40.2594
G1 X122.11 Y93.61 E40.2804
G1 X121.90 Y93.23 E40.3012
G1 X121.76 Y92.94 E40.3166
G1 X122.00 Y92.64 E40.3350
G1 X122.31 Y92.69 E40.3501
G1 X122.73 Y92.80 E40.3709
G1 X123.13 Y92.94 E40.3912
G1 X123.54 Y93.12 E40.4126
G1 X123.91 Y93.33 E40.4330
G1 X124.42 Y93.67 E40.4623
G1 X124.91 Y93.16 E40.4962
G1 X125.42 Y92.67 E40.5301
G1 X125.08 Y92.16 E40.5594
G1 X124.88 Y91.79 E40.5796
G1 X124.69 Y91.38 E40.6012
G1 X124.55 Y90.97 E40.6220
G1 X124.44 Y90.56 E40.6423
G1 X124.39 Y90.24 E40.6578
G1 X124.69 Y90.01 E40.6759
G1 X124.99 Y90.14 E40.6916
G1 X125.36 Y90.36 E40.7122
G1 X125.72 Y90.60 E40.7329
G1 X126.05 Y90.87 E40.7534
G1 X126.37 Y91.18 E40.7747
G1 X126.77 Y91.63 E40.8035
G1 X127.38 Y91.26 E40.8377
G1 X127.99 Y90.93 E40.8709
G1 X127.80 Y90.35 E40.9001
G1 X127.70 Y89.94 E40.9204
G1 X127.62 Y89.49 E40.9422
G1 X127.59 Y89.08 E40.9619
G1 X127.60 Y88.63 E40.9835
G1 X127.62 Y88.32 E40.9984
G1 X127.98 Y88.17 E41.0171
G1 X128.23 Y88.38 E41.0327
G1 X128.54 Y88.68 E41.0534
G1 X128.82 Y89.01 E41.0741
G1 X129.07 Y89.36 E41.0947
G1 X129.29 Y89.72 E41.1149
G1 X129.56 Y90.28 E41.1447
G1 X130.25 Y90.08 E41.1791
G1 X130.93 Y89.91 E41.2126
G1 X130.89 Y89.29 E41.2424
G1 X130.90 Y88.87 E41.2625
G1 X130.94 Y88.45 E41.2827
G1 X131.02 Y88.00 E41.3046
G1 X131.14 Y87.60 E41.3246
G1 X131.25 Y87.29 E41.3404
G1 X131.63 Y87.24 E41.3587
G1 X131.81 Y87.50 E41.3739
G1 X132.04 Y87.89 E41.3956
G1 X132.22 Y88.27 E41.4157
G1 X132.38 Y88.68 E41.4368
G1 X132.49 Y89.08 E41.4566
G1 X132.61 Y89.69 E41.4864
G1 X133.32 Y89.67 E41.5204
G1 X134.02 Y89.69 E41.5540
G1 X134.15 Y89.08 E41.5838
G1 X134.26 Y88.68 E41.6037
G1 X134.42 Y88.27 E41.6248
G1 X134.60 Y87.89 E41.6449
G1 X134.83 Y87.50 E41.6666
G1 X135.01 Y87.24 E41.6818
G1 X135.39 Y87.29 E41.7001
G1 X135.50 Y87.60 E41.7159
G1 X135.62 Y88.00 E41.7359
G1 X135.70 Y88.45 E41.7578
G1 X135.74 Y88.87 E41.7780
G1 X135.75 Y89.29 E41.7981
G1 X135.71 Y89.91 E41.8278
G1 X136.39 Y90.08 E41.8614
G1 X137.08 Y90.28 E41.8958
G1 X137.35 Y89.72 E41.9256
G1 X137.57 Y89.36 E41.9458
G1 X137.82 Y89.01 E41.9664
G1 X138.11 Y88.68 E41.9874
G1 X138.41 Y88.38 E42.0078
G1 X138.66 Y88.17 E42.0234
G1 X139.02 Y88.32 E42.0421
G1 X139.04 Y88.63 E42.0570
G1 X139.05 Y89.08 E42.0785
G1 X139.02 Y89.50 E42.0987
G1 X138.95 Y89.92 E42.1191
G1 X138.84 Y90.35 E42.1403
G1 X138.65 Y90.93 E42.1696
G1 X139.26 Y91.26 E42.2028
G1 X139.87 Y91.63 E42.2370
G1 X140.27 Y91.18 E42.2658
G1 X140.59 Y90.87 E42.2871
G1 X140.92 Y90.60 E42.3076
G1 X141.28 Y90.36 E42.3283
G1 X141.65 Y90.14 E42.3489
G1 X141.95 Y90.01 E42.3646
G1 X142.25 Y90.24 E42.3827
G1 X142.20 Y90.55 E42.3977
G1 X142.09 Y90.97 E42.4185
G1 X141.94 Y91.39 E42.4398
G1 X141.76 Y91.79 E42.4609
G1 X141.56 Y92.16 E42.4810
G1 X141.22 Y92.67 E42.5104
G1 X141.73 Y93.15 E42.5439
G1 X142.22 Y93.67 E42.5781
G1 X142.72 Y93.33 E42.6071
G1 X143.11 Y93.12 E42.6283
G1 X143.49 Y92.95 E42.6482
G1 X143.91 Y92.80 E42.6696
G1 X144.33 Y92.69 E42.6904
G1 X144.64 Y92.64 E42.7054
G1 X144.88 Y92.94 E42.7238
G1 X144.74 Y93.23 E42.7392
G1 X144.53 Y93.61 E42.7600
G1 X144.28 Y93.97 E42.7810
G1 X144.02 Y94.30 E42.8012
G1 X143.71 Y94.62 E42.8225
G1 X143.25 Y95.02 E42.8517
G1 X143.62 Y95.62 E42.8855
G1 X143.96 Y96.24 E42.9193
G1 X144.54 Y96.04 E42.9487
G1 X144.96 Y95.94 E42.9694
G1 X145.38 Y95.87 E42.9898
G1 X145.81 Y95.84 E43.0104
G1 X146.25 Y95.84 E43.0315
G1 X146.57 Y95.87 E43.0469
G1 X146.72 Y96.22 E43.0651
G1 X146.49 Y96.50 E43.0825
G1 X146.15 Y96.83 E43.1052
G1 X145.79 Y97.13 E43.1276
G1 X145.40 Y97.40 E43.1503
G1 X144.63 Y97.88 E43.1938
G1 X144.81 Y98.51 E43.2252
G1 X144.97 Y99.17 E43.2577
G1 X145.59 Y99.13 E43.2875
G1 X146.02 Y99.14 E43.3081
G1 X146.44 Y99.19 E43.3283
G1 X146.88 Y99.27 E43.3497
G1 X147.29 Y99.38 E43.3701
G1 X147.59 Y99.49 E43.3854
G1 X147.64 Y99.87 E43.4037
G1 X147.37 Y100.06 E43.4195
G1 X147.01 Y100.27 E43.4395
G1 X146.62 Y100.47 E43.4605
G1 X146.21 Y100.62 E43.4814
G1 X145.79 Y100.74 E43.5023
G1 X145.20 Y100.86 E43.5312
G1 X145.21 Y101.75 E43.5738
G1 X145.18 Y102.48 E43.6088
